( This gcode generated by /opt/eagle/ulp/pcb-gcode.ulp )
( Copyright 2005 by John Johnson. See readme.txt for licensing terms. )

( This file generated from the board /home/srussell/Documents/Capacitive Distance Sensor/Final.brd )
( This file generated  6/05/2007 14:53:48  )

G20

G90
G00 Z0.5000 
G00 X0 Y0
M03
G04 P3.000000
G00 Z0.0200 
G00 X-3.0189 Y2.2298 
G01 Z-0.0100 F10.00 
G01 X-3.0069 Y2.2178 
G01 X-3.0069 Y2.1821 
G01 X-3.0189 Y2.1701 
G01 X-3.0189 Y2.1666 
G01 X-2.9855 Y2.2000 
G01 X-3.0189 Y2.2334 
G01 X-3.0189 Y2.2298 
G00 Z0.0200 
G00 X-0.9284 Y0.2746 
G01 Z-0.0100 F10.00 
G01 X-0.9284 Y0.3954 
G01 X-0.9254 Y0.3984 
G01 X-0.6812 Y0.3984 
G01 X-0.6782 Y0.3954 
G01 X-0.6782 Y0.2746 
G01 X-0.6812 Y0.2716 
G01 X-0.9254 Y0.2716 
G01 X-0.9284 Y0.2746 
G00 Z0.0200 
G00 X-0.5284 Y2.4746 
G01 Z-0.0100 F10.00 
G01 X-0.5284 Y2.5954 
G01 X-0.5254 Y2.5984 
G01 X-0.2167 Y2.5984 
G01 X-0.2138 Y2.5954 
G01 X-0.2138 Y2.4746 
G01 X-0.2167 Y2.4716 
G01 X-0.2352 Y2.4716 
G01 X-0.2352 Y2.3984 
G01 X-0.1738 Y2.3984 
G01 X-0.1708 Y2.3954 
G01 X-0.1708 Y2.2746 
G01 X-0.1738 Y2.2716 
G01 X-0.5254 Y2.2716 
G01 X-0.5284 Y2.2746 
G01 X-0.5284 Y2.3954 
G01 X-0.5284 Y2.3954 
G01 X-0.5284 Y2.4746 
G01 X-0.5284 Y2.4746 
G00 Z0.0200 
G00 X-0.9129 Y1.1571 
G01 Z-0.0100 F10.00 
G01 X-0.8871 Y1.1571 
G01 X-0.8689 Y1.1389 
G01 X-0.8689 Y1.0611 
G01 X-0.8749 Y1.0551 
G01 X-0.8749 Y0.7751 
G01 X-0.8189 Y0.7751 
G01 X-0.8129 Y0.7811 
G01 X-0.7871 Y0.7811 
G01 X-0.7689 Y0.7629 
G01 X-0.7689 Y0.7371 
G01 X-0.7749 Y0.7311 
G01 X-0.7749 Y0.6588 
G01 X-0.7376 Y0.6433 
G01 X-0.7067 Y0.6124 
G01 X-0.6899 Y0.5719 
G01 X-0.6899 Y0.5281 
G01 X-0.7067 Y0.4876 
G01 X-0.7376 Y0.4567 
G01 X-0.7781 Y0.4399 
G01 X-0.8219 Y0.4399 
G01 X-0.8624 Y0.4567 
G01 X-0.8933 Y0.4876 
G01 X-0.9101 Y0.5281 
G01 X-0.9101 Y0.5719 
G01 X-0.8933 Y0.6124 
G01 X-0.8624 Y0.6433 
G01 X-0.8251 Y0.6588 
G01 X-0.8251 Y0.7249 
G01 X-0.8896 Y0.7249 
G01 X-0.9104 Y0.7249 
G01 X-0.9755 Y0.7249 
G01 X-0.9855 Y0.7149 
G01 X-1.0145 Y0.7149 
G01 X-1.0351 Y0.7355 
G01 X-1.0351 Y0.7645 
G01 X-1.0145 Y0.7851 
G01 X-0.9855 Y0.7851 
G01 X-0.9755 Y0.7751 
G01 X-0.9251 Y0.7751 
G01 X-0.9251 Y1.0551 
G01 X-0.9311 Y1.0611 
G01 X-0.9311 Y1.1389 
G01 X-0.9129 Y1.1571 
G00 Z0.0200 
G00 X-1.1129 Y1.1571 
G01 Z-0.0100 F10.00 
G01 X-1.0871 Y1.1571 
G01 X-1.0689 Y1.1389 
G01 X-1.0689 Y1.0611 
G01 X-1.0871 Y1.0429 
G01 X-1.1129 Y1.0429 
G01 X-1.1311 Y1.0611 
G01 X-1.1311 Y1.1389 
G01 X-1.1129 Y1.1571 
G00 Z0.0200 
G00 X-1.2129 Y1.1571 
G01 Z-0.0100 F10.00 
G01 X-1.1871 Y1.1571 
G01 X-1.1689 Y1.1389 
G01 X-1.1689 Y1.1298 
G01 X-1.1569 Y1.1178 
G01 X-1.1569 Y1.0821 
G01 X-1.1689 Y1.0701 
G01 X-1.1689 Y1.0611 
G01 X-1.1871 Y1.0429 
G01 X-1.2129 Y1.0429 
G01 X-1.2269 Y1.0569 
G01 X-1.2731 Y1.0569 
G01 X-1.2871 Y1.0429 
G01 X-1.3129 Y1.0429 
G01 X-1.3269 Y1.0569 
G01 X-1.3731 Y1.0569 
G01 X-1.3871 Y1.0429 
G01 X-1.4129 Y1.0429 
G01 X-1.4269 Y1.0569 
G01 X-1.7821 Y1.0569 
G01 X-1.7822 Y1.0569 
G01 X-1.9391 Y0.9000 
G01 X-1.5875 Y0.5484 
G01 X-1.4975 Y0.5484 
G01 X-1.4946 Y0.5454 
G01 X-1.4946 Y0.4555 
G01 X-1.2821 Y0.2431 
G01 X-0.4931 Y0.2431 
G01 X-0.4931 Y1.0069 
G01 X-0.7569 Y1.0069 
G01 X-0.7569 Y0.9321 
G01 X-0.7821 Y0.9069 
G01 X-0.8178 Y0.9069 
G01 X-0.8431 Y0.9321 
G01 X-0.8431 Y1.0321 
G01 X-0.8431 Y1.0678 
G01 X-0.8359 Y1.0750 
G01 X-0.8431 Y1.0821 
G01 X-0.8431 Y1.2069 
G01 X-0.9178 Y1.2069 
G01 X-0.9431 Y1.2321 
G01 X-0.9431 Y1.2678 
G01 X-0.9431 Y1.3821 
G01 X-0.9431 Y1.5678 
G01 X-0.9178 Y1.5931 
G01 X-0.8821 Y1.5931 
G01 X-0.8569 Y1.5678 
G01 X-0.8569 Y1.3821 
G01 X-0.8569 Y1.2931 
G01 X-0.8178 Y1.2931 
G01 X-0.7821 Y1.2931 
G01 X-0.7569 Y1.2678 
G01 X-0.7569 Y1.0931 
G01 X-0.4931 Y1.0931 
G01 X-0.4931 Y1.2978 
G01 X-0.4678 Y1.3231 
G01 X-0.4321 Y1.3231 
G01 X-0.4069 Y1.2978 
G01 X-0.4069 Y1.0931 
G01 X-0.2931 Y1.0931 
G01 X-0.2931 Y1.4821 
G01 X-0.4678 Y1.6569 
G01 X-0.6178 Y1.6569 
G01 X-0.6431 Y1.6821 
G01 X-0.6431 Y1.7178 
G01 X-0.6431 Y2.6335 
G01 X-0.6578 Y2.6335 
G01 X-0.6838 Y2.6595 
G01 X-0.6838 Y2.6964 
G01 X-0.6578 Y2.7224 
G01 X-0.5422 Y2.7224 
G01 X-0.5162 Y2.6964 
G01 X-0.5162 Y2.6595 
G01 X-0.5422 Y2.6335 
G01 X-0.5569 Y2.6335 
G01 X-0.5569 Y1.7431 
G01 X-0.4678 Y1.7431 
G01 X-0.4321 Y1.7431 
G01 X-0.2069 Y1.5178 
G01 X-0.2069 Y1.4821 
G01 X-0.2069 Y1.0321 
G01 X-0.2321 Y1.0069 
G01 X-0.2678 Y1.0069 
G01 X-0.4069 Y1.0069 
G01 X-0.4069 Y0.1821 
G01 X-0.4321 Y0.1569 
G01 X-0.4678 Y0.1569 
G01 X-1.2821 Y0.1569 
G01 X-1.3178 Y0.1569 
G01 X-1.5825 Y0.4216 
G01 X-2.2680 Y0.4216 
G01 X-2.2680 Y0.3246 
G01 X-2.2710 Y0.3216 
G01 X-3.6754 Y0.3216 
G01 X-3.6784 Y0.3246 
G01 X-3.6784 Y0.4246 
G01 X-3.6784 Y0.4246 
G01 X-3.6784 Y0.5454 
G01 X-3.6784 Y0.5454 
G01 X-3.6784 Y0.6246 
G01 X-3.6784 Y0.6246 
G01 X-3.6784 Y0.7454 
G01 X-3.6754 Y0.7484 
G01 X-2.0669 Y0.7484 
G01 X-2.0639 Y0.7454 
G01 X-2.0639 Y0.6246 
G01 X-2.0669 Y0.6216 
G01 X-2.0854 Y0.6216 
G01 X-2.0854 Y0.5484 
G01 X-1.7094 Y0.5484 
G01 X-2.0178 Y0.8569 
G01 X-2.2178 Y0.8569 
G01 X-2.2288 Y0.8678 
G01 X-2.4651 Y1.0569 
G01 X-2.6849 Y1.0569 
G01 X-2.9212 Y0.8678 
G01 X-2.9321 Y0.8569 
G01 X-3.0821 Y0.8569 
G01 X-3.1821 Y0.8569 
G01 X-3.2159 Y0.8569 
G01 X-3.2178 Y0.8569 
G01 X-3.2293 Y0.8684 
G01 X-3.5659 Y1.1569 
G01 X-3.5678 Y1.1569 
G01 X-3.5793 Y1.1684 
G01 X-3.5793 Y1.1684 
G01 X-3.5931 Y1.1821 
G01 X-3.5931 Y1.2178 
G01 X-3.5931 Y1.5178 
G01 X-3.5931 Y1.8178 
G01 X-3.5678 Y1.8431 
G01 X-3.5321 Y1.8431 
G01 X-3.5069 Y1.8178 
G01 X-3.5069 Y1.5178 
G01 X-3.5069 Y1.2198 
G01 X-3.1841 Y0.9431 
G01 X-3.1131 Y0.9431 
G01 X-3.1131 Y1.9554 
G01 X-3.1054 Y1.9631 
G01 X-2.8811 Y2.1874 
G01 X-2.8811 Y2.2389 
G01 X-2.8629 Y2.2571 
G01 X-2.8371 Y2.2571 
G01 X-2.8189 Y2.2389 
G01 X-2.8189 Y2.1611 
G01 X-2.8371 Y2.1429 
G01 X-2.8629 Y2.1429 
G01 X-2.8757 Y2.1558 
G01 X-3.0869 Y1.9446 
G01 X-3.0869 Y0.9431 
G01 X-3.0821 Y0.9431 
G01 X-2.9651 Y0.9431 
G01 X-2.7288 Y1.1322 
G01 X-2.7178 Y1.1431 
G01 X-2.7151 Y1.1431 
G01 X-2.6821 Y1.1431 
G01 X-2.4321 Y1.1431 
G01 X-2.4212 Y1.1322 
G01 X-2.1849 Y0.9431 
G01 X-2.0178 Y0.9431 
G01 X-1.8431 Y1.1178 
G01 X-1.8431 Y1.4678 
G01 X-1.8178 Y1.4931 
G01 X-1.7821 Y1.4931 
G01 X-1.7569 Y1.4678 
G01 X-1.7569 Y1.1431 
G01 X-1.4269 Y1.1431 
G01 X-1.4129 Y1.1571 
G01 X-1.3871 Y1.1571 
G01 X-1.3731 Y1.1431 
G01 X-1.3269 Y1.1431 
G01 X-1.3129 Y1.1571 
G01 X-1.2871 Y1.1571 
G01 X-1.2731 Y1.1431 
G01 X-1.2269 Y1.1431 
G01 X-1.2129 Y1.1571 
G00 Z0.0200 
G00 X-1.1689 Y1.4389 
G01 Z-0.0100 F10.00 
G01 X-1.1689 Y1.3611 
G01 X-1.1871 Y1.3429 
G01 X-1.2129 Y1.3429 
G01 X-1.2311 Y1.3611 
G01 X-1.2311 Y1.4389 
G01 X-1.2251 Y1.4449 
G01 X-1.2251 Y1.8755 
G01 X-1.2351 Y1.8855 
G01 X-1.2351 Y1.9145 
G01 X-1.2145 Y1.9351 
G01 X-1.1855 Y1.9351 
G01 X-1.1649 Y1.9145 
G01 X-1.1649 Y1.8855 
G01 X-1.1749 Y1.8755 
G01 X-1.1749 Y1.4449 
G01 X-1.1689 Y1.4389 
G00 Z0.0200 
G00 X-2.9629 Y1.9571 
G01 Z-0.0100 F10.00 
G01 X-2.9371 Y1.9571 
G01 X-2.9189 Y1.9389 
G01 X-2.9189 Y1.8611 
G01 X-2.9249 Y1.8551 
G01 X-2.9249 Y1.6751 
G01 X-2.8104 Y1.6751 
G01 X-2.7896 Y1.6751 
G01 X-2.4456 Y1.3311 
G01 X-2.4371 Y1.3311 
G01 X-2.4189 Y1.3129 
G01 X-2.4189 Y1.2871 
G01 X-2.4371 Y1.2689 
G01 X-2.4629 Y1.2689 
G01 X-2.4811 Y1.2871 
G01 X-2.4811 Y1.2956 
G01 X-2.8104 Y1.6249 
G01 X-2.9604 Y1.6249 
G01 X-2.9751 Y1.6396 
G01 X-2.9751 Y1.6604 
G01 X-2.9751 Y1.8551 
G01 X-2.9811 Y1.8611 
G01 X-2.9811 Y1.9389 
G01 X-2.9629 Y1.9571 
G00 Z0.0200 
G00 X-1.0351 Y1.7355 
G01 Z-0.0100 F10.00 
G01 X-1.0351 Y1.7645 
G01 X-1.0145 Y1.7851 
G01 X-0.9855 Y1.7851 
G01 X-0.9755 Y1.7751 
G01 X-0.9189 Y1.7751 
G01 X-0.9129 Y1.7811 
G01 X-0.8871 Y1.7811 
G01 X-0.8689 Y1.7629 
G01 X-0.8689 Y1.7371 
G01 X-0.8871 Y1.7189 
G01 X-0.9129 Y1.7189 
G01 X-0.9189 Y1.7249 
G01 X-0.9749 Y1.7249 
G01 X-0.9749 Y1.4449 
G01 X-0.9689 Y1.4389 
G01 X-0.9689 Y1.3611 
G01 X-0.9871 Y1.3429 
G01 X-1.0129 Y1.3429 
G01 X-1.0311 Y1.3611 
G01 X-1.0311 Y1.4389 
G01 X-1.0251 Y1.4449 
G01 X-1.0251 Y1.7255 
G01 X-1.0351 Y1.7355 
G00 Z0.0200 
G00 X-1.2311 Y2.5371 
G01 Z-0.0100 F10.00 
G01 X-1.2311 Y2.5629 
G01 X-1.2129 Y2.5811 
G01 X-1.1871 Y2.5811 
G01 X-1.1689 Y2.5629 
G01 X-1.1689 Y2.5371 
G01 X-1.1749 Y2.5311 
G01 X-1.1749 Y2.4751 
G01 X-1.1189 Y2.4751 
G01 X-1.1129 Y2.4811 
G01 X-1.0871 Y2.4811 
G01 X-1.0689 Y2.4629 
G01 X-1.0689 Y2.4371 
G01 X-1.0749 Y2.4311 
G01 X-1.0749 Y1.4449 
G01 X-1.0689 Y1.4389 
G01 X-1.0689 Y1.3611 
G01 X-1.0749 Y1.3551 
G01 X-1.0749 Y1.2751 
G01 X-1.0104 Y1.2751 
G01 X-0.9896 Y1.2751 
G01 X-0.9749 Y1.2604 
G01 X-0.9749 Y1.1449 
G01 X-0.9689 Y1.1389 
G01 X-0.9689 Y1.0611 
G01 X-0.9749 Y1.0551 
G01 X-0.9749 Y0.9396 
G01 X-0.9896 Y0.9249 
G01 X-1.0104 Y0.9249 
G01 X-1.5749 Y0.9249 
G01 X-1.5749 Y0.7745 
G01 X-1.5649 Y0.7645 
G01 X-1.5649 Y0.7355 
G01 X-1.5855 Y0.7149 
G01 X-1.6145 Y0.7149 
G01 X-1.6351 Y0.7355 
G01 X-1.6351 Y0.7645 
G01 X-1.6251 Y0.7745 
G01 X-1.6251 Y0.9396 
G01 X-1.6251 Y0.9604 
G01 X-1.6104 Y0.9751 
G01 X-1.0251 Y0.9751 
G01 X-1.0251 Y1.0551 
G01 X-1.0311 Y1.0611 
G01 X-1.0311 Y1.1389 
G01 X-1.0251 Y1.1449 
G01 X-1.0251 Y1.2249 
G01 X-1.0896 Y1.2249 
G01 X-1.3104 Y1.2249 
G01 X-1.4104 Y1.2249 
G01 X-1.4251 Y1.2396 
G01 X-1.4251 Y1.2604 
G01 X-1.4251 Y1.3551 
G01 X-1.4311 Y1.3611 
G01 X-1.4311 Y1.4389 
G01 X-1.4129 Y1.4571 
G01 X-1.3871 Y1.4571 
G01 X-1.3689 Y1.4389 
G01 X-1.3689 Y1.3611 
G01 X-1.3749 Y1.3551 
G01 X-1.3749 Y1.2751 
G01 X-1.3251 Y1.2751 
G01 X-1.3251 Y1.3551 
G01 X-1.3311 Y1.3611 
G01 X-1.3311 Y1.4389 
G01 X-1.3129 Y1.4571 
G01 X-1.2871 Y1.4571 
G01 X-1.2689 Y1.4389 
G01 X-1.2689 Y1.3611 
G01 X-1.2749 Y1.3551 
G01 X-1.2749 Y1.2751 
G01 X-1.1251 Y1.2751 
G01 X-1.1251 Y1.3551 
G01 X-1.1311 Y1.3611 
G01 X-1.1311 Y1.4389 
G01 X-1.1251 Y1.4449 
G01 X-1.1251 Y2.4249 
G01 X-1.1896 Y2.4249 
G01 X-1.2104 Y2.4249 
G01 X-1.2251 Y2.4396 
G01 X-1.2251 Y2.5311 
G01 X-1.2311 Y2.5371 
G00 Z0.0200 
G00 X-1.0311 Y2.5371 
G01 Z-0.0100 F10.00 
G01 X-1.0311 Y2.5629 
G01 X-1.0129 Y2.5811 
G01 X-0.9871 Y2.5811 
G01 X-0.9689 Y2.5629 
G01 X-0.9689 Y2.5371 
G01 X-0.9749 Y2.5311 
G01 X-0.9749 Y2.3745 
G01 X-0.9649 Y2.3645 
G01 X-0.9649 Y2.3355 
G01 X-0.9855 Y2.3149 
G01 X-1.0145 Y2.3149 
G01 X-1.0351 Y2.3355 
G01 X-1.0351 Y2.3645 
G01 X-1.0251 Y2.3745 
G01 X-1.0251 Y2.5311 
G01 X-1.0311 Y2.5371 
G00 Z0.0200 
G00 X-2.2351 Y1.4855 
G01 Z-0.0100 F10.00 
G01 X-2.2351 Y1.5145 
G01 X-2.2251 Y1.5245 
G01 X-2.2251 Y1.8749 
G01 X-2.8189 Y1.8749 
G01 X-2.8189 Y1.8611 
G01 X-2.8371 Y1.8429 
G01 X-2.8629 Y1.8429 
G01 X-2.8811 Y1.8611 
G01 X-2.8811 Y1.9389 
G01 X-2.8629 Y1.9571 
G01 X-2.8371 Y1.9571 
G01 X-2.8189 Y1.9389 
G01 X-2.8189 Y1.9251 
G01 X-2.1967 Y1.9251 
G01 X-2.1852 Y1.9366 
G01 X-2.1548 Y1.9366 
G01 X-2.1334 Y1.9152 
G01 X-2.1334 Y1.8848 
G01 X-2.1548 Y1.8634 
G01 X-2.1749 Y1.8634 
G01 X-2.1749 Y1.5245 
G01 X-2.1649 Y1.5145 
G01 X-2.1649 Y1.4855 
G01 X-2.1855 Y1.4649 
G01 X-2.2145 Y1.4649 
G01 X-2.2351 Y1.4855 
G00 Z0.0200 
G00 X-2.0093 Y1.8690 
G01 Z-0.0100 F10.00 
G01 X-2.0227 Y1.8634 
G01 X-2.0373 Y1.8634 
G01 X-2.0507 Y1.8690 
G01 X-2.0610 Y1.8793 
G01 X-2.0666 Y1.8927 
G01 X-2.0666 Y1.9073 
G01 X-2.0610 Y1.9207 
G01 X-2.0507 Y1.9310 
G01 X-2.0373 Y1.9366 
G01 X-2.0227 Y1.9366 
G01 X-2.0093 Y1.9310 
G01 X-2.0033 Y1.9251 
G01 X-1.8245 Y1.9251 
G01 X-1.8145 Y1.9351 
G01 X-1.7855 Y1.9351 
G01 X-1.7649 Y1.9145 
G01 X-1.7649 Y1.8855 
G01 X-1.7749 Y1.8755 
G01 X-1.7749 Y1.6689 
G01 X-1.7689 Y1.6629 
G01 X-1.7689 Y1.6371 
G01 X-1.7871 Y1.6189 
G01 X-1.8129 Y1.6189 
G01 X-1.8311 Y1.6371 
G01 X-1.8311 Y1.6629 
G01 X-1.8251 Y1.6689 
G01 X-1.8251 Y1.8749 
G01 X-2.0033 Y1.8749 
G01 X-2.0093 Y1.8690 
G00 Z0.0200 
G00 X-2.9645 Y1.5351 
G01 Z-0.0100 F10.00 
G01 X-2.9355 Y1.5351 
G01 X-2.9255 Y1.5251 
G01 X-2.9104 Y1.5251 
G01 X-2.8896 Y1.5251 
G01 X-2.6956 Y1.3311 
G01 X-2.6871 Y1.3311 
G01 X-2.6689 Y1.3129 
G01 X-2.6689 Y1.2871 
G01 X-2.6871 Y1.2689 
G01 X-2.7129 Y1.2689 
G01 X-2.7311 Y1.2871 
G01 X-2.7311 Y1.2956 
G01 X-2.9104 Y1.4749 
G01 X-2.9255 Y1.4749 
G01 X-2.9355 Y1.4649 
G01 X-2.9645 Y1.4649 
G01 X-2.9745 Y1.4749 
G01 X-3.0604 Y1.4749 
G01 X-3.0751 Y1.4896 
G01 X-3.0751 Y1.5104 
G01 X-3.0751 Y1.8551 
G01 X-3.0811 Y1.8611 
G01 X-3.0811 Y1.9389 
G01 X-3.0629 Y1.9571 
G01 X-3.0371 Y1.9571 
G01 X-3.0189 Y1.9389 
G01 X-3.0189 Y1.8611 
G01 X-3.0249 Y1.8551 
G01 X-3.0249 Y1.5251 
G01 X-2.9745 Y1.5251 
G01 X-2.9645 Y1.5351 
G00 Z0.0200 
G00 X-3.5851 Y2.3855 
G01 Z-0.0100 F10.00 
G01 X-3.5851 Y2.4145 
G01 X-3.5645 Y2.4351 
G01 X-3.5355 Y2.4351 
G01 X-3.5255 Y2.4251 
G01 X-3.3689 Y2.4251 
G01 X-3.3629 Y2.4311 
G01 X-3.3371 Y2.4311 
G01 X-3.3189 Y2.4129 
G01 X-3.3189 Y2.3871 
G01 X-3.3371 Y2.3689 
G01 X-3.3629 Y2.3689 
G01 X-3.3689 Y2.3749 
G01 X-3.5255 Y2.3749 
G01 X-3.5355 Y2.3649 
G01 X-3.5645 Y2.3649 
G01 X-3.5851 Y2.3855 
G00 Z0.0200 
G00 X-3.2811 Y2.3871 
G01 Z-0.0100 F10.00 
G01 X-3.2811 Y2.4129 
G01 X-3.2629 Y2.4311 
G01 X-3.2371 Y2.4311 
G01 X-3.2311 Y2.4251 
G01 X-3.1604 Y2.4251 
G01 X-3.1396 Y2.4251 
G01 X-2.9672 Y2.2527 
G01 X-2.9629 Y2.2571 
G01 X-2.9371 Y2.2571 
G01 X-2.9189 Y2.2389 
G01 X-2.9189 Y2.1611 
G01 X-2.9371 Y2.1429 
G01 X-2.9629 Y2.1429 
G01 X-2.9672 Y2.1473 
G01 X-3.1249 Y1.9896 
G01 X-3.1249 Y1.9449 
G01 X-3.1189 Y1.9389 
G01 X-3.1189 Y1.8611 
G01 X-3.1371 Y1.8429 
G01 X-3.1629 Y1.8429 
G01 X-3.1749 Y1.8549 
G01 X-3.1749 Y1.5245 
G01 X-3.1649 Y1.5145 
G01 X-3.1649 Y1.4855 
G01 X-3.1855 Y1.4649 
G01 X-3.2145 Y1.4649 
G01 X-3.2245 Y1.4749 
G01 X-3.3311 Y1.4749 
G01 X-3.3371 Y1.4689 
G01 X-3.3629 Y1.4689 
G01 X-3.3811 Y1.4871 
G01 X-3.3811 Y1.5129 
G01 X-3.3629 Y1.5311 
G01 X-3.3371 Y1.5311 
G01 X-3.3311 Y1.5251 
G01 X-3.2251 Y1.5251 
G01 X-3.2251 Y1.9104 
G01 X-3.2104 Y1.9251 
G01 X-3.1896 Y1.9251 
G01 X-3.1811 Y1.9251 
G01 X-3.1811 Y1.9389 
G01 X-3.1751 Y1.9449 
G01 X-3.1751 Y2.0104 
G01 X-3.1604 Y2.0251 
G01 X-3.0426 Y2.1429 
G01 X-3.0629 Y2.1429 
G01 X-3.0769 Y2.1569 
G01 X-3.1231 Y2.1569 
G01 X-3.1371 Y2.1429 
G01 X-3.1629 Y2.1429 
G01 X-3.1769 Y2.1569 
G01 X-3.6678 Y2.1569 
G01 X-3.6931 Y2.1821 
G01 X-3.6931 Y2.2178 
G01 X-3.6931 Y2.4821 
G01 X-3.6931 Y2.5178 
G01 X-3.6799 Y2.5310 
G01 X-3.6799 Y2.5311 
G01 X-3.6678 Y2.5431 
G01 X-3.6669 Y2.5431 
G01 X-3.2299 Y2.9491 
G01 X-3.2178 Y2.9612 
G01 X-3.2169 Y2.9612 
G01 X-3.1821 Y2.9612 
G01 X-0.7821 Y2.9612 
G01 X-0.6592 Y2.9612 
G01 X-0.6578 Y2.9626 
G01 X-0.5422 Y2.9626 
G01 X-0.5162 Y2.9365 
G01 X-0.5162 Y2.8997 
G01 X-0.5422 Y2.8736 
G01 X-0.6578 Y2.8736 
G01 X-0.6592 Y2.8750 
G01 X-0.7569 Y2.8750 
G01 X-0.7569 Y1.4431 
G01 X-0.4878 Y1.4431 
G01 X-0.4678 Y1.4631 
G01 X-0.4321 Y1.4631 
G01 X-0.4069 Y1.4378 
G01 X-0.4069 Y1.4178 
G01 X-0.4069 Y1.3821 
G01 X-0.4321 Y1.3569 
G01 X-0.7731 Y1.3569 
G01 X-0.7871 Y1.3429 
G01 X-0.8129 Y1.3429 
G01 X-0.8311 Y1.3611 
G01 X-0.8311 Y1.3702 
G01 X-0.8431 Y1.3821 
G01 X-0.8431 Y1.4178 
G01 X-0.8431 Y2.8750 
G01 X-3.1831 Y2.8750 
G01 X-3.6069 Y2.4812 
G01 X-3.6069 Y2.2431 
G01 X-3.1769 Y2.2431 
G01 X-3.1629 Y2.2571 
G01 X-3.1371 Y2.2571 
G01 X-3.1231 Y2.2431 
G01 X-3.0769 Y2.2431 
G01 X-3.0629 Y2.2571 
G01 X-3.0426 Y2.2571 
G01 X-3.1604 Y2.3749 
G01 X-3.2311 Y2.3749 
G01 X-3.2371 Y2.3689 
G01 X-3.2629 Y2.3689 
G01 X-3.2811 Y2.3871 
G00 Z0.0200 
G00 X-0.3926 Y2.7162 
G01 Z-0.0100 F10.00 
G01 X-0.4294 Y2.7162 
G01 X-0.4555 Y2.7422 
G01 X-0.4555 Y2.8578 
G01 X-0.4294 Y2.8838 
G01 X-0.3926 Y2.8838 
G01 X-0.3666 Y2.8578 
G01 X-0.3666 Y2.7422 
G01 X-0.3926 Y2.7162 
G00 Z0.0200 
G00 X-3.1181 Y1.9451 
G01 Z-0.0100 F10.00 
G01 X-3.1181 Y1.9575 
G01 X-3.1075 Y1.9681 
G01 X-2.9377 Y2.1379 
G01 X-2.9649 Y2.1379 
G01 X-2.9672 Y2.1402 
G01 X-3.1199 Y1.9875 
G01 X-3.1199 Y1.9469 
G01 X-3.1181 Y1.9451 
G00 Z0.0200 
G00 X-3.0019 Y2.1906 
G01 Z-0.0100 F10.00 
G01 X-2.9926 Y2.2000 
G01 X-3.0019 Y2.2094 
G01 X-3.0019 Y2.1906 
G00 Z0.0200 
G00 X-0.9334 Y0.2725 
G01 Z-0.0100 F10.00 
G01 X-0.9334 Y0.3975 
G01 X-0.9275 Y0.4034 
G01 X-0.6791 Y0.4034 
G01 X-0.6732 Y0.3975 
G01 X-0.6732 Y0.2725 
G01 X-0.6791 Y0.2666 
G01 X-0.9275 Y0.2666 
G01 X-0.9334 Y0.2725 
G00 Z0.0200 
G00 X-0.5334 Y2.4725 
G01 Z-0.0100 F10.00 
G01 X-0.5334 Y2.5975 
G01 X-0.5275 Y2.6034 
G01 X-0.2147 Y2.6034 
G01 X-0.2088 Y2.5975 
G01 X-0.2088 Y2.4725 
G01 X-0.2147 Y2.4666 
G01 X-0.2302 Y2.4666 
G01 X-0.2302 Y2.4034 
G01 X-0.1717 Y2.4034 
G01 X-0.1658 Y2.3975 
G01 X-0.1658 Y2.2725 
G01 X-0.1717 Y2.2666 
G01 X-0.5275 Y2.2666 
G01 X-0.5334 Y2.2725 
G01 X-0.5334 Y2.3975 
G01 X-0.5334 Y2.3975 
G01 X-0.5334 Y2.4725 
G01 X-0.5334 Y2.4725 
G00 Z0.0200 
G00 X-0.9149 Y1.1621 
G01 Z-0.0100 F10.00 
G01 X-0.8850 Y1.1621 
G01 X-0.8639 Y1.1409 
G01 X-0.8639 Y1.0590 
G01 X-0.8699 Y1.0530 
G01 X-0.8699 Y0.7801 
G01 X-0.8209 Y0.7801 
G01 X-0.8149 Y0.7861 
G01 X-0.7850 Y0.7861 
G01 X-0.7639 Y0.7649 
G01 X-0.7639 Y0.7350 
G01 X-0.7699 Y0.7291 
G01 X-0.7699 Y0.6621 
G01 X-0.7348 Y0.6476 
G01 X-0.7024 Y0.6152 
G01 X-0.6849 Y0.5729 
G01 X-0.6849 Y0.5271 
G01 X-0.7024 Y0.4848 
G01 X-0.7348 Y0.4524 
G01 X-0.7771 Y0.4349 
G01 X-0.8229 Y0.4349 
G01 X-0.8652 Y0.4524 
G01 X-0.8976 Y0.4848 
G01 X-0.9151 Y0.5271 
G01 X-0.9151 Y0.5729 
G01 X-0.8976 Y0.6152 
G01 X-0.8652 Y0.6476 
G01 X-0.8301 Y0.6621 
G01 X-0.8301 Y0.7199 
G01 X-0.8875 Y0.7199 
G01 X-0.9125 Y0.7199 
G01 X-0.9734 Y0.7199 
G01 X-0.9834 Y0.7099 
G01 X-1.0166 Y0.7099 
G01 X-1.0401 Y0.7334 
G01 X-1.0401 Y0.7666 
G01 X-1.0166 Y0.7901 
G01 X-0.9834 Y0.7901 
G01 X-0.9734 Y0.7801 
G01 X-0.9301 Y0.7801 
G01 X-0.9301 Y1.0530 
G01 X-0.9361 Y1.0590 
G01 X-0.9361 Y1.1409 
G01 X-0.9149 Y1.1621 
G00 Z0.0200 
G00 X-1.1149 Y1.1621 
G01 Z-0.0100 F10.00 
G01 X-1.0850 Y1.1621 
G01 X-1.0639 Y1.1409 
G01 X-1.0639 Y1.0590 
G01 X-1.0850 Y1.0379 
G01 X-1.1149 Y1.0379 
G01 X-1.1361 Y1.0590 
G01 X-1.1361 Y1.1409 
G01 X-1.1149 Y1.1621 
G00 Z0.0200 
G00 X-1.1639 Y1.4409 
G01 Z-0.0100 F10.00 
G01 X-1.1639 Y1.3590 
G01 X-1.1850 Y1.3379 
G01 X-1.2149 Y1.3379 
G01 X-1.2361 Y1.3590 
G01 X-1.2361 Y1.4409 
G01 X-1.2301 Y1.4469 
G01 X-1.2301 Y1.8734 
G01 X-1.2401 Y1.8834 
G01 X-1.2401 Y1.9166 
G01 X-1.2166 Y1.9401 
G01 X-1.1834 Y1.9401 
G01 X-1.1599 Y1.9166 
G01 X-1.1599 Y1.8834 
G01 X-1.1699 Y1.8734 
G01 X-1.1699 Y1.4469 
G01 X-1.1639 Y1.4409 
G00 Z0.0200 
G00 X-2.9649 Y1.9621 
G01 Z-0.0100 F10.00 
G01 X-2.9350 Y1.9621 
G01 X-2.9139 Y1.9409 
G01 X-2.9139 Y1.8590 
G01 X-2.9199 Y1.8530 
G01 X-2.9199 Y1.6801 
G01 X-2.8125 Y1.6801 
G01 X-2.7875 Y1.6801 
G01 X-2.4435 Y1.3361 
G01 X-2.4350 Y1.3361 
G01 X-2.4139 Y1.3149 
G01 X-2.4139 Y1.2850 
G01 X-2.4350 Y1.2639 
G01 X-2.4649 Y1.2639 
G01 X-2.4861 Y1.2850 
G01 X-2.4861 Y1.2935 
G01 X-2.8125 Y1.6199 
G01 X-2.9625 Y1.6199 
G01 X-2.9801 Y1.6375 
G01 X-2.9801 Y1.6625 
G01 X-2.9801 Y1.8530 
G01 X-2.9861 Y1.8590 
G01 X-2.9861 Y1.9409 
G01 X-2.9649 Y1.9621 
G00 Z0.0200 
G00 X-1.0401 Y1.7334 
G01 Z-0.0100 F10.00 
G01 X-1.0401 Y1.7666 
G01 X-1.0166 Y1.7901 
G01 X-0.9834 Y1.7901 
G01 X-0.9734 Y1.7801 
G01 X-0.9209 Y1.7801 
G01 X-0.9149 Y1.7861 
G01 X-0.8850 Y1.7861 
G01 X-0.8639 Y1.7649 
G01 X-0.8639 Y1.7350 
G01 X-0.8850 Y1.7139 
G01 X-0.9149 Y1.7139 
G01 X-0.9209 Y1.7199 
G01 X-0.9699 Y1.7199 
G01 X-0.9699 Y1.4469 
G01 X-0.9639 Y1.4409 
G01 X-0.9639 Y1.3590 
G01 X-0.9850 Y1.3379 
G01 X-1.0149 Y1.3379 
G01 X-1.0361 Y1.3590 
G01 X-1.0361 Y1.4409 
G01 X-1.0301 Y1.4469 
G01 X-1.0301 Y1.7234 
G01 X-1.0401 Y1.7334 
G00 Z0.0200 
G00 X-1.2361 Y2.5350 
G01 Z-0.0100 F10.00 
G01 X-1.2361 Y2.5649 
G01 X-1.2149 Y2.5861 
G01 X-1.1850 Y2.5861 
G01 X-1.1639 Y2.5649 
G01 X-1.1639 Y2.5350 
G01 X-1.1699 Y2.5290 
G01 X-1.1699 Y2.4801 
G01 X-1.1209 Y2.4801 
G01 X-1.1149 Y2.4861 
G01 X-1.0850 Y2.4861 
G01 X-1.0639 Y2.4649 
G01 X-1.0639 Y2.4350 
G01 X-1.0699 Y2.4291 
G01 X-1.0699 Y1.4469 
G01 X-1.0639 Y1.4409 
G01 X-1.0639 Y1.3590 
G01 X-1.0699 Y1.3531 
G01 X-1.0699 Y1.2801 
G01 X-1.0125 Y1.2801 
G01 X-0.9875 Y1.2801 
G01 X-0.9699 Y1.2625 
G01 X-0.9699 Y1.1469 
G01 X-0.9639 Y1.1409 
G01 X-0.9639 Y1.0590 
G01 X-0.9699 Y1.0530 
G01 X-0.9699 Y0.9375 
G01 X-0.9875 Y0.9199 
G01 X-1.0125 Y0.9199 
G01 X-1.5699 Y0.9199 
G01 X-1.5699 Y0.7766 
G01 X-1.5599 Y0.7666 
G01 X-1.5599 Y0.7334 
G01 X-1.5834 Y0.7099 
G01 X-1.6166 Y0.7099 
G01 X-1.6401 Y0.7334 
G01 X-1.6401 Y0.7666 
G01 X-1.6301 Y0.7766 
G01 X-1.6301 Y0.9375 
G01 X-1.6301 Y0.9625 
G01 X-1.6125 Y0.9801 
G01 X-1.0301 Y0.9801 
G01 X-1.0301 Y1.0530 
G01 X-1.0361 Y1.0590 
G01 X-1.0361 Y1.1409 
G01 X-1.0301 Y1.1469 
G01 X-1.0301 Y1.2199 
G01 X-1.0875 Y1.2199 
G01 X-1.3125 Y1.2199 
G01 X-1.4125 Y1.2199 
G01 X-1.4301 Y1.2375 
G01 X-1.4301 Y1.2625 
G01 X-1.4301 Y1.3530 
G01 X-1.4361 Y1.3590 
G01 X-1.4361 Y1.4409 
G01 X-1.4149 Y1.4621 
G01 X-1.3850 Y1.4621 
G01 X-1.3639 Y1.4409 
G01 X-1.3639 Y1.3590 
G01 X-1.3699 Y1.3530 
G01 X-1.3699 Y1.2801 
G01 X-1.3301 Y1.2801 
G01 X-1.3301 Y1.3530 
G01 X-1.3361 Y1.3590 
G01 X-1.3361 Y1.4409 
G01 X-1.3149 Y1.4621 
G01 X-1.2850 Y1.4621 
G01 X-1.2639 Y1.4409 
G01 X-1.2639 Y1.3590 
G01 X-1.2699 Y1.3530 
G01 X-1.2699 Y1.2801 
G01 X-1.1301 Y1.2801 
G01 X-1.1301 Y1.3531 
G01 X-1.1361 Y1.3590 
G01 X-1.1361 Y1.4409 
G01 X-1.1301 Y1.4469 
G01 X-1.1301 Y2.4199 
G01 X-1.1875 Y2.4199 
G01 X-1.2125 Y2.4199 
G01 X-1.2301 Y2.4375 
G01 X-1.2301 Y2.5290 
G01 X-1.2361 Y2.5350 
G00 Z0.0200 
G00 X-1.0361 Y2.5350 
G01 Z-0.0100 F10.00 
G01 X-1.0361 Y2.5649 
G01 X-1.0149 Y2.5861 
G01 X-0.9850 Y2.5861 
G01 X-0.9639 Y2.5649 
G01 X-0.9639 Y2.5350 
G01 X-0.9699 Y2.5291 
G01 X-0.9699 Y2.3766 
G01 X-0.9599 Y2.3666 
G01 X-0.9599 Y2.3334 
G01 X-0.9834 Y2.3099 
G01 X-1.0166 Y2.3099 
G01 X-1.0401 Y2.3334 
G01 X-1.0401 Y2.3666 
G01 X-1.0301 Y2.3766 
G01 X-1.0301 Y2.5291 
G01 X-1.0361 Y2.5350 
G00 Z0.0200 
G00 X-2.2401 Y1.4834 
G01 Z-0.0100 F10.00 
G01 X-2.2401 Y1.5166 
G01 X-2.2301 Y1.5266 
G01 X-2.2301 Y1.8699 
G01 X-2.8139 Y1.8699 
G01 X-2.8139 Y1.8590 
G01 X-2.8350 Y1.8379 
G01 X-2.8649 Y1.8379 
G01 X-2.8861 Y1.8590 
G01 X-2.8861 Y1.9409 
G01 X-2.8649 Y1.9621 
G01 X-2.8350 Y1.9621 
G01 X-2.8139 Y1.9409 
G01 X-2.8139 Y1.9301 
G01 X-2.1987 Y1.9301 
G01 X-2.1872 Y1.9416 
G01 X-2.1528 Y1.9416 
G01 X-2.1284 Y1.9172 
G01 X-2.1284 Y1.8828 
G01 X-2.1528 Y1.8584 
G01 X-2.1699 Y1.8584 
G01 X-2.1699 Y1.5266 
G01 X-2.1599 Y1.5166 
G01 X-2.1599 Y1.4834 
G01 X-2.1834 Y1.4599 
G01 X-2.2166 Y1.4599 
G01 X-2.2401 Y1.4834 
G00 Z0.0200 
G00 X-2.0064 Y1.8647 
G01 Z-0.0100 F10.00 
G01 X-2.0217 Y1.8584 
G01 X-2.0383 Y1.8584 
G01 X-2.0536 Y1.8647 
G01 X-2.0653 Y1.8764 
G01 X-2.0716 Y1.8917 
G01 X-2.0716 Y1.9083 
G01 X-2.0653 Y1.9236 
G01 X-2.0536 Y1.9353 
G01 X-2.0383 Y1.9416 
G01 X-2.0217 Y1.9416 
G01 X-2.0064 Y1.9353 
G01 X-2.0013 Y1.9301 
G01 X-1.8266 Y1.9301 
G01 X-1.8166 Y1.9401 
G01 X-1.7834 Y1.9401 
G01 X-1.7599 Y1.9166 
G01 X-1.7599 Y1.8834 
G01 X-1.7699 Y1.8734 
G01 X-1.7699 Y1.6709 
G01 X-1.7639 Y1.6649 
G01 X-1.7639 Y1.6350 
G01 X-1.7850 Y1.6139 
G01 X-1.8149 Y1.6139 
G01 X-1.8361 Y1.6350 
G01 X-1.8361 Y1.6649 
G01 X-1.8301 Y1.6709 
G01 X-1.8301 Y1.8699 
G01 X-2.0013 Y1.8699 
G01 X-2.0064 Y1.8647 
G00 Z0.0200 
G00 X-3.5901 Y2.3834 
G01 Z-0.0100 F10.00 
G01 X-3.5901 Y2.4166 
G01 X-3.5666 Y2.4401 
G01 X-3.5334 Y2.4401 
G01 X-3.5234 Y2.4301 
G01 X-3.3709 Y2.4301 
G01 X-3.3649 Y2.4361 
G01 X-3.3350 Y2.4361 
G01 X-3.3139 Y2.4149 
G01 X-3.3139 Y2.3850 
G01 X-3.3350 Y2.3639 
G01 X-3.3649 Y2.3639 
G01 X-3.3709 Y2.3699 
G01 X-3.5234 Y2.3699 
G01 X-3.5334 Y2.3599 
G01 X-3.5666 Y2.3599 
G01 X-3.5901 Y2.3834 
G00 Z0.0200 
G00 X-0.3905 Y2.7112 
G01 Z-0.0100 F10.00 
G01 X-0.4315 Y2.7112 
G01 X-0.4605 Y2.7401 
G01 X-0.4605 Y2.8599 
G01 X-0.4315 Y2.8888 
G01 X-0.3905 Y2.8888 
G01 X-0.3616 Y2.8599 
G01 X-0.3616 Y2.7401 
G01 X-0.3905 Y2.7112 
G00 Z0.0200 
G00 X-0.4699 Y1.4681 
G01 Z-0.0100 F10.00 
G01 X-0.4301 Y1.4681 
G01 X-0.4019 Y1.4399 
G01 X-0.4019 Y1.4199 
G01 X-0.4019 Y1.3801 
G01 X-0.4301 Y1.3519 
G01 X-0.7710 Y1.3519 
G01 X-0.7850 Y1.3379 
G01 X-0.8149 Y1.3379 
G01 X-0.8361 Y1.3590 
G01 X-0.8361 Y1.3681 
G01 X-0.8481 Y1.3801 
G01 X-0.8481 Y1.4199 
G01 X-0.8481 Y2.8700 
G01 X-3.1811 Y2.8700 
G01 X-3.6019 Y2.4790 
G01 X-3.6019 Y2.2481 
G01 X-3.1789 Y2.2481 
G01 X-3.1649 Y2.2621 
G01 X-3.1350 Y2.2621 
G01 X-3.1210 Y2.2481 
G01 X-3.0789 Y2.2481 
G01 X-3.0649 Y2.2621 
G01 X-3.0546 Y2.2621 
G01 X-3.1625 Y2.3699 
G01 X-3.2290 Y2.3699 
G01 X-3.2350 Y2.3639 
G01 X-3.2649 Y2.3639 
G01 X-3.2861 Y2.3850 
G01 X-3.2861 Y2.4149 
G01 X-3.2649 Y2.4361 
G01 X-3.2350 Y2.4361 
G01 X-3.2290 Y2.4301 
G01 X-3.1625 Y2.4301 
G01 X-3.1375 Y2.4301 
G01 X-2.9672 Y2.2598 
G01 X-2.9649 Y2.2621 
G01 X-2.9350 Y2.2621 
G01 X-2.9139 Y2.2409 
G01 X-2.9139 Y2.1617 
G01 X-2.8861 Y2.1895 
G01 X-2.8861 Y2.2409 
G01 X-2.8649 Y2.2621 
G01 X-2.8350 Y2.2621 
G01 X-2.8139 Y2.2409 
G01 X-2.8139 Y2.1590 
G01 X-2.8350 Y2.1379 
G01 X-2.8649 Y2.1379 
G01 X-2.8757 Y2.1487 
G01 X-3.0623 Y1.9621 
G01 X-3.0350 Y1.9621 
G01 X-3.0139 Y1.9409 
G01 X-3.0139 Y1.8590 
G01 X-3.0199 Y1.8530 
G01 X-3.0199 Y1.5301 
G01 X-2.9766 Y1.5301 
G01 X-2.9666 Y1.5401 
G01 X-2.9334 Y1.5401 
G01 X-2.9234 Y1.5301 
G01 X-2.9125 Y1.5301 
G01 X-2.8875 Y1.5301 
G01 X-2.6935 Y1.3361 
G01 X-2.6850 Y1.3361 
G01 X-2.6639 Y1.3149 
G01 X-2.6639 Y1.2850 
G01 X-2.6850 Y1.2639 
G01 X-2.7149 Y1.2639 
G01 X-2.7361 Y1.2850 
G01 X-2.7361 Y1.2935 
G01 X-2.9125 Y1.4699 
G01 X-2.9234 Y1.4699 
G01 X-2.9334 Y1.4599 
G01 X-2.9666 Y1.4599 
G01 X-2.9766 Y1.4699 
G01 X-3.0625 Y1.4699 
G01 X-3.0801 Y1.4875 
G01 X-3.0801 Y1.5125 
G01 X-3.0801 Y1.8530 
G01 X-3.0819 Y1.8549 
G01 X-3.0819 Y0.9481 
G01 X-3.0801 Y0.9481 
G01 X-2.9669 Y0.9481 
G01 X-2.7321 Y1.1359 
G01 X-2.7199 Y1.1481 
G01 X-2.7169 Y1.1481 
G01 X-2.6801 Y1.1481 
G01 X-2.4301 Y1.1481 
G01 X-2.4179 Y1.1359 
G01 X-2.1831 Y0.9481 
G01 X-2.0199 Y0.9481 
G01 X-1.8481 Y1.1199 
G01 X-1.8481 Y1.4699 
G01 X-1.8199 Y1.4981 
G01 X-1.7801 Y1.4981 
G01 X-1.7519 Y1.4699 
G01 X-1.7519 Y1.1481 
G01 X-1.4289 Y1.1481 
G01 X-1.4149 Y1.1621 
G01 X-1.3850 Y1.1621 
G01 X-1.3711 Y1.1481 
G01 X-1.3289 Y1.1481 
G01 X-1.3149 Y1.1621 
G01 X-1.2850 Y1.1621 
G01 X-1.2710 Y1.1481 
G01 X-1.2289 Y1.1481 
G01 X-1.2149 Y1.1621 
G01 X-1.1850 Y1.1621 
G01 X-1.1639 Y1.1409 
G01 X-1.1639 Y1.1319 
G01 X-1.1519 Y1.1199 
G01 X-1.1519 Y1.0801 
G01 X-1.1639 Y1.0681 
G01 X-1.1639 Y1.0590 
G01 X-1.1850 Y1.0379 
G01 X-1.2149 Y1.0379 
G01 X-1.2289 Y1.0519 
G01 X-1.2710 Y1.0519 
G01 X-1.2850 Y1.0379 
G01 X-1.3149 Y1.0379 
G01 X-1.3289 Y1.0519 
G01 X-1.3711 Y1.0519 
G01 X-1.3850 Y1.0379 
G01 X-1.4149 Y1.0379 
G01 X-1.4289 Y1.0519 
G01 X-1.7801 Y1.0519 
G01 X-1.7801 Y1.0519 
G01 X-1.9320 Y0.9000 
G01 X-1.5854 Y0.5534 
G01 X-1.4955 Y0.5534 
G01 X-1.4896 Y0.5475 
G01 X-1.4896 Y0.4576 
G01 X-1.2801 Y0.2481 
G01 X-0.4981 Y0.2481 
G01 X-0.4981 Y1.0019 
G01 X-0.7519 Y1.0019 
G01 X-0.7519 Y0.9301 
G01 X-0.7801 Y0.9019 
G01 X-0.8199 Y0.9019 
G01 X-0.8481 Y0.9301 
G01 X-0.8481 Y1.0301 
G01 X-0.8481 Y1.0699 
G01 X-0.8430 Y1.0750 
G01 X-0.8481 Y1.0801 
G01 X-0.8481 Y1.2019 
G01 X-0.9199 Y1.2019 
G01 X-0.9481 Y1.2301 
G01 X-0.9481 Y1.2699 
G01 X-0.9481 Y1.3801 
G01 X-0.9481 Y1.5699 
G01 X-0.9199 Y1.5981 
G01 X-0.8801 Y1.5981 
G01 X-0.8519 Y1.5699 
G01 X-0.8519 Y1.3801 
G01 X-0.8519 Y1.2981 
G01 X-0.8199 Y1.2981 
G01 X-0.7801 Y1.2981 
G01 X-0.7519 Y1.2699 
G01 X-0.7519 Y1.0981 
G01 X-0.4981 Y1.0981 
G01 X-0.4981 Y1.2999 
G01 X-0.4699 Y1.3281 
G01 X-0.4301 Y1.3281 
G01 X-0.4019 Y1.2999 
G01 X-0.4019 Y1.0981 
G01 X-0.2981 Y1.0981 
G01 X-0.2981 Y1.4801 
G01 X-0.4699 Y1.6519 
G01 X-0.6199 Y1.6519 
G01 X-0.6481 Y1.6801 
G01 X-0.6481 Y1.7199 
G01 X-0.6481 Y2.6285 
G01 X-0.6599 Y2.6285 
G01 X-0.6888 Y2.6575 
G01 X-0.6888 Y2.6984 
G01 X-0.6599 Y2.7274 
G01 X-0.5401 Y2.7274 
G01 X-0.5112 Y2.6984 
G01 X-0.5112 Y2.6575 
G01 X-0.5401 Y2.6285 
G01 X-0.5519 Y2.6285 
G01 X-0.5519 Y1.7481 
G01 X-0.4699 Y1.7481 
G01 X-0.4301 Y1.7481 
G01 X-0.2019 Y1.5199 
G01 X-0.2019 Y1.4801 
G01 X-0.2019 Y1.0301 
G01 X-0.2301 Y1.0019 
G01 X-0.2699 Y1.0019 
G01 X-0.4019 Y1.0019 
G01 X-0.4019 Y0.1801 
G01 X-0.4301 Y0.1519 
G01 X-0.4699 Y0.1519 
G01 X-1.2801 Y0.1519 
G01 X-1.3199 Y0.1519 
G01 X-1.5846 Y0.4166 
G01 X-2.2630 Y0.4166 
G01 X-2.2630 Y0.3225 
G01 X-2.2689 Y0.3166 
G01 X-3.6775 Y0.3166 
G01 X-3.6834 Y0.3225 
G01 X-3.6834 Y0.4225 
G01 X-3.6834 Y0.4225 
G01 X-3.6834 Y0.5475 
G01 X-3.6834 Y0.5475 
G01 X-3.6834 Y0.6225 
G01 X-3.6834 Y0.6225 
G01 X-3.6834 Y0.7475 
G01 X-3.6775 Y0.7534 
G01 X-2.0648 Y0.7534 
G01 X-2.0589 Y0.7475 
G01 X-2.0589 Y0.6225 
G01 X-2.0648 Y0.6166 
G01 X-2.0804 Y0.6166 
G01 X-2.0804 Y0.5534 
G01 X-1.7214 Y0.5534 
G01 X-2.0199 Y0.8519 
G01 X-2.2199 Y0.8519 
G01 X-2.2321 Y0.8641 
G01 X-2.4669 Y1.0519 
G01 X-2.6831 Y1.0519 
G01 X-2.9179 Y0.8641 
G01 X-2.9301 Y0.8519 
G01 X-3.0801 Y0.8519 
G01 X-3.1801 Y0.8519 
G01 X-3.2178 Y0.8519 
G01 X-3.2199 Y0.8519 
G01 X-3.2327 Y0.8647 
G01 X-3.5678 Y1.1519 
G01 X-3.5699 Y1.1519 
G01 X-3.5827 Y1.1647 
G01 X-3.5827 Y1.1647 
G01 X-3.5981 Y1.1801 
G01 X-3.5981 Y1.2199 
G01 X-3.5981 Y1.5199 
G01 X-3.5981 Y1.8199 
G01 X-3.5699 Y1.8481 
G01 X-3.5301 Y1.8481 
G01 X-3.5019 Y1.8199 
G01 X-3.5019 Y1.5199 
G01 X-3.5019 Y1.2221 
G01 X-3.1822 Y0.9481 
G01 X-3.1181 Y0.9481 
G01 X-3.1181 Y1.8549 
G01 X-3.1350 Y1.8379 
G01 X-3.1649 Y1.8379 
G01 X-3.1699 Y1.8429 
G01 X-3.1699 Y1.5266 
G01 X-3.1599 Y1.5166 
G01 X-3.1599 Y1.4834 
G01 X-3.1834 Y1.4599 
G01 X-3.2166 Y1.4599 
G01 X-3.2266 Y1.4699 
G01 X-3.3291 Y1.4699 
G01 X-3.3350 Y1.4639 
G01 X-3.3649 Y1.4639 
G01 X-3.3861 Y1.4850 
G01 X-3.3861 Y1.5149 
G01 X-3.3649 Y1.5361 
G01 X-3.3350 Y1.5361 
G01 X-3.3291 Y1.5301 
G01 X-3.2301 Y1.5301 
G01 X-3.2301 Y1.9125 
G01 X-3.2125 Y1.9301 
G01 X-3.1875 Y1.9301 
G01 X-3.1861 Y1.9301 
G01 X-3.1861 Y1.9409 
G01 X-3.1801 Y1.9469 
G01 X-3.1801 Y2.0125 
G01 X-3.1625 Y2.0301 
G01 X-3.0546 Y2.1379 
G01 X-3.0649 Y2.1379 
G01 X-3.0789 Y2.1519 
G01 X-3.1210 Y2.1519 
G01 X-3.1350 Y2.1379 
G01 X-3.1649 Y2.1379 
G01 X-3.1789 Y2.1519 
G01 X-3.6699 Y2.1519 
G01 X-3.6981 Y2.1801 
G01 X-3.6981 Y2.2199 
G01 X-3.6981 Y2.4801 
G01 X-3.6981 Y2.5199 
G01 X-3.6834 Y2.5346 
G01 X-3.6834 Y2.5347 
G01 X-3.6699 Y2.5481 
G01 X-3.6689 Y2.5481 
G01 X-3.2334 Y2.9527 
G01 X-3.2199 Y2.9662 
G01 X-3.2189 Y2.9662 
G01 X-3.1801 Y2.9662 
G01 X-0.7801 Y2.9662 
G01 X-0.6612 Y2.9662 
G01 X-0.6599 Y2.9676 
G01 X-0.5401 Y2.9676 
G01 X-0.5112 Y2.9386 
G01 X-0.5112 Y2.8976 
G01 X-0.5401 Y2.8686 
G01 X-0.6599 Y2.8686 
G01 X-0.6612 Y2.8700 
G01 X-0.7519 Y2.8700 
G01 X-0.7519 Y1.4481 
G01 X-0.4899 Y1.4481 
G01 X-0.4699 Y1.4681 
G00 Z0.0200 
G00 X-3.2911 Y2.3830 
G01 Z-0.0100 F10.00 
G01 X-3.2911 Y2.4170 
G01 X-3.2670 Y2.4411 
G01 X-3.2330 Y2.4411 
G01 X-3.2270 Y2.4351 
G01 X-3.1645 Y2.4351 
G01 X-3.1355 Y2.4351 
G01 X-2.9672 Y2.2669 
G01 X-2.9670 Y2.2671 
G01 X-2.9330 Y2.2671 
G01 X-2.9089 Y2.2430 
G01 X-2.9089 Y2.1737 
G01 X-2.8911 Y2.1916 
G01 X-2.8911 Y2.2430 
G01 X-2.8670 Y2.2671 
G01 X-2.8330 Y2.2671 
G01 X-2.8089 Y2.2430 
G01 X-2.8089 Y2.1570 
G01 X-2.8330 Y2.1329 
G01 X-2.8670 Y2.1329 
G01 X-2.8757 Y2.1416 
G01 X-3.0503 Y1.9671 
G01 X-3.0330 Y1.9671 
G01 X-3.0089 Y1.9430 
G01 X-3.0089 Y1.8570 
G01 X-3.0149 Y1.8510 
G01 X-3.0149 Y1.5351 
G01 X-2.9787 Y1.5351 
G01 X-2.9687 Y1.5451 
G01 X-2.9313 Y1.5451 
G01 X-2.9213 Y1.5351 
G01 X-2.9145 Y1.5351 
G01 X-2.8855 Y1.5351 
G01 X-2.6915 Y1.3411 
G01 X-2.6830 Y1.3411 
G01 X-2.6589 Y1.3170 
G01 X-2.6589 Y1.2830 
G01 X-2.6830 Y1.2589 
G01 X-2.7170 Y1.2589 
G01 X-2.7411 Y1.2830 
G01 X-2.7411 Y1.2915 
G01 X-2.9145 Y1.4649 
G01 X-2.9213 Y1.4649 
G01 X-2.9313 Y1.4549 
G01 X-2.9687 Y1.4549 
G01 X-2.9787 Y1.4649 
G01 X-3.0645 Y1.4649 
G01 X-3.0769 Y1.4773 
G01 X-3.0769 Y0.9531 
G01 X-2.9686 Y0.9531 
G01 X-2.7355 Y1.1396 
G01 X-2.7220 Y1.1531 
G01 X-2.7186 Y1.1531 
G01 X-2.6780 Y1.1531 
G01 X-2.4280 Y1.1531 
G01 X-2.4145 Y1.1396 
G01 X-2.1814 Y0.9531 
G01 X-2.0220 Y0.9531 
G01 X-1.8531 Y1.1220 
G01 X-1.8531 Y1.4720 
G01 X-1.8220 Y1.5031 
G01 X-1.7780 Y1.5031 
G01 X-1.7469 Y1.4720 
G01 X-1.7469 Y1.1531 
G01 X-1.4310 Y1.1531 
G01 X-1.4170 Y1.1671 
G01 X-1.3830 Y1.1671 
G01 X-1.3690 Y1.1531 
G01 X-1.3310 Y1.1531 
G01 X-1.3170 Y1.1671 
G01 X-1.2830 Y1.1671 
G01 X-1.2690 Y1.1531 
G01 X-1.2310 Y1.1531 
G01 X-1.2170 Y1.1671 
G01 X-1.1830 Y1.1671 
G01 X-1.1589 Y1.1430 
G01 X-1.1589 Y1.1340 
G01 X-1.1469 Y1.1220 
G01 X-1.1469 Y1.0780 
G01 X-1.1589 Y1.0660 
G01 X-1.1589 Y1.0570 
G01 X-1.1830 Y1.0329 
G01 X-1.2170 Y1.0329 
G01 X-1.2310 Y1.0469 
G01 X-1.2690 Y1.0469 
G01 X-1.2830 Y1.0329 
G01 X-1.3170 Y1.0329 
G01 X-1.3310 Y1.0469 
G01 X-1.3690 Y1.0469 
G01 X-1.3830 Y1.0329 
G01 X-1.4170 Y1.0329 
G01 X-1.4310 Y1.0469 
G01 X-1.7780 Y1.0469 
G01 X-1.7780 Y1.0469 
G01 X-1.9249 Y0.9000 
G01 X-1.5833 Y0.5584 
G01 X-1.4934 Y0.5584 
G01 X-1.4846 Y0.5496 
G01 X-1.4846 Y0.4596 
G01 X-1.2780 Y0.2531 
G01 X-0.5031 Y0.2531 
G01 X-0.5031 Y0.9969 
G01 X-0.7469 Y0.9969 
G01 X-0.7469 Y0.9280 
G01 X-0.7780 Y0.8969 
G01 X-0.8220 Y0.8969 
G01 X-0.8531 Y0.9280 
G01 X-0.8531 Y1.0280 
G01 X-0.8531 Y1.0720 
G01 X-0.8501 Y1.0750 
G01 X-0.8531 Y1.0780 
G01 X-0.8531 Y1.1969 
G01 X-0.9220 Y1.1969 
G01 X-0.9531 Y1.2280 
G01 X-0.9531 Y1.2720 
G01 X-0.9531 Y1.3780 
G01 X-0.9531 Y1.5720 
G01 X-0.9220 Y1.6031 
G01 X-0.8780 Y1.6031 
G01 X-0.8531 Y1.5782 
G01 X-0.8531 Y2.8650 
G01 X-3.1791 Y2.8650 
G01 X-3.5969 Y2.4769 
G01 X-3.5969 Y2.2531 
G01 X-3.1810 Y2.2531 
G01 X-3.1670 Y2.2671 
G01 X-3.1330 Y2.2671 
G01 X-3.1190 Y2.2531 
G01 X-3.0810 Y2.2531 
G01 X-3.0670 Y2.2671 
G01 X-3.0667 Y2.2671 
G01 X-3.1645 Y2.3649 
G01 X-3.2270 Y2.3649 
G01 X-3.2330 Y2.3589 
G01 X-3.2670 Y2.3589 
G01 X-3.2911 Y2.3830 
G00 Z0.0200 
G00 X-0.9384 Y0.2704 
G01 Z-0.0100 F10.00 
G01 X-0.9384 Y0.3996 
G01 X-0.9296 Y0.4084 
G01 X-0.6771 Y0.4084 
G01 X-0.6682 Y0.3996 
G01 X-0.6682 Y0.2704 
G01 X-0.6771 Y0.2616 
G01 X-0.9296 Y0.2616 
G01 X-0.9384 Y0.2704 
G00 Z0.0200 
G00 X-0.9170 Y1.1671 
G01 Z-0.0100 F10.00 
G01 X-0.8830 Y1.1671 
G01 X-0.8589 Y1.1430 
G01 X-0.8589 Y1.0570 
G01 X-0.8649 Y1.0510 
G01 X-0.8649 Y0.7851 
G01 X-0.8230 Y0.7851 
G01 X-0.8170 Y0.7911 
G01 X-0.7830 Y0.7911 
G01 X-0.7589 Y0.7670 
G01 X-0.7589 Y0.7330 
G01 X-0.7649 Y0.7270 
G01 X-0.7649 Y0.6654 
G01 X-0.7320 Y0.6518 
G01 X-0.6982 Y0.6180 
G01 X-0.6799 Y0.5739 
G01 X-0.6799 Y0.5261 
G01 X-0.6982 Y0.4820 
G01 X-0.7320 Y0.4482 
G01 X-0.7761 Y0.4299 
G01 X-0.8239 Y0.4299 
G01 X-0.8680 Y0.4482 
G01 X-0.9018 Y0.4820 
G01 X-0.9201 Y0.5261 
G01 X-0.9201 Y0.5739 
G01 X-0.9018 Y0.6180 
G01 X-0.8680 Y0.6518 
G01 X-0.8351 Y0.6654 
G01 X-0.8351 Y0.7149 
G01 X-0.8855 Y0.7149 
G01 X-0.9145 Y0.7149 
G01 X-0.9713 Y0.7149 
G01 X-0.9813 Y0.7049 
G01 X-1.0187 Y0.7049 
G01 X-1.0451 Y0.7313 
G01 X-1.0451 Y0.7687 
G01 X-1.0187 Y0.7951 
G01 X-0.9813 Y0.7951 
G01 X-0.9713 Y0.7851 
G01 X-0.9351 Y0.7851 
G01 X-0.9351 Y1.0510 
G01 X-0.9411 Y1.0570 
G01 X-0.9411 Y1.1430 
G01 X-0.9170 Y1.1671 
G00 Z0.0200 
G00 X-1.1170 Y1.1671 
G01 Z-0.0100 F10.00 
G01 X-1.0830 Y1.1671 
G01 X-1.0589 Y1.1430 
G01 X-1.0589 Y1.0570 
G01 X-1.0830 Y1.0329 
G01 X-1.1170 Y1.0329 
G01 X-1.1411 Y1.0570 
G01 X-1.1411 Y1.1430 
G01 X-1.1170 Y1.1671 
G00 Z0.0200 
G00 X-1.1589 Y1.4430 
G01 Z-0.0100 F10.00 
G01 X-1.1589 Y1.3570 
G01 X-1.1830 Y1.3329 
G01 X-1.2170 Y1.3329 
G01 X-1.2411 Y1.3570 
G01 X-1.2411 Y1.4430 
G01 X-1.2351 Y1.4490 
G01 X-1.2351 Y1.8713 
G01 X-1.2451 Y1.8813 
G01 X-1.2451 Y1.9187 
G01 X-1.2187 Y1.9451 
G01 X-1.1813 Y1.9451 
G01 X-1.1549 Y1.9187 
G01 X-1.1549 Y1.8813 
G01 X-1.1649 Y1.8713 
G01 X-1.1649 Y1.4490 
G01 X-1.1589 Y1.4430 
G00 Z0.0200 
G00 X-2.9670 Y1.9671 
G01 Z-0.0100 F10.00 
G01 X-2.9330 Y1.9671 
G01 X-2.9089 Y1.9430 
G01 X-2.9089 Y1.8570 
G01 X-2.9149 Y1.8510 
G01 X-2.9149 Y1.6851 
G01 X-2.8145 Y1.6851 
G01 X-2.7855 Y1.6851 
G01 X-2.4415 Y1.3411 
G01 X-2.4330 Y1.3411 
G01 X-2.4089 Y1.3170 
G01 X-2.4089 Y1.2830 
G01 X-2.4330 Y1.2589 
G01 X-2.4670 Y1.2589 
G01 X-2.4911 Y1.2830 
G01 X-2.4911 Y1.2915 
G01 X-2.8145 Y1.6149 
G01 X-2.9645 Y1.6149 
G01 X-2.9851 Y1.6355 
G01 X-2.9851 Y1.6645 
G01 X-2.9851 Y1.8510 
G01 X-2.9911 Y1.8570 
G01 X-2.9911 Y1.9430 
G01 X-2.9670 Y1.9671 
G00 Z0.0200 
G00 X-1.0451 Y1.7313 
G01 Z-0.0100 F10.00 
G01 X-1.0451 Y1.7687 
G01 X-1.0187 Y1.7951 
G01 X-0.9813 Y1.7951 
G01 X-0.9713 Y1.7851 
G01 X-0.9230 Y1.7851 
G01 X-0.9170 Y1.7911 
G01 X-0.8830 Y1.7911 
G01 X-0.8589 Y1.7670 
G01 X-0.8589 Y1.7330 
G01 X-0.8830 Y1.7089 
G01 X-0.9170 Y1.7089 
G01 X-0.9230 Y1.7149 
G01 X-0.9649 Y1.7149 
G01 X-0.9649 Y1.4490 
G01 X-0.9589 Y1.4430 
G01 X-0.9589 Y1.3570 
G01 X-0.9830 Y1.3329 
G01 X-1.0170 Y1.3329 
G01 X-1.0411 Y1.3570 
G01 X-1.0411 Y1.4430 
G01 X-1.0351 Y1.4490 
G01 X-1.0351 Y1.7213 
G01 X-1.0451 Y1.7313 
G00 Z0.0200 
G00 X-1.2411 Y2.5330 
G01 Z-0.0100 F10.00 
G01 X-1.2411 Y2.5670 
G01 X-1.2170 Y2.5911 
G01 X-1.1830 Y2.5911 
G01 X-1.1589 Y2.5670 
G01 X-1.1589 Y2.5330 
G01 X-1.1649 Y2.5270 
G01 X-1.1649 Y2.4851 
G01 X-1.1230 Y2.4851 
G01 X-1.1170 Y2.4911 
G01 X-1.0830 Y2.4911 
G01 X-1.0589 Y2.4670 
G01 X-1.0589 Y2.4330 
G01 X-1.0649 Y2.4270 
G01 X-1.0649 Y1.4490 
G01 X-1.0589 Y1.4430 
G01 X-1.0589 Y1.3570 
G01 X-1.0649 Y1.3510 
G01 X-1.0649 Y1.2851 
G01 X-1.0145 Y1.2851 
G01 X-0.9855 Y1.2851 
G01 X-0.9649 Y1.2645 
G01 X-0.9649 Y1.1490 
G01 X-0.9589 Y1.1430 
G01 X-0.9589 Y1.0570 
G01 X-0.9649 Y1.0510 
G01 X-0.9649 Y0.9355 
G01 X-0.9855 Y0.9149 
G01 X-1.0145 Y0.9149 
G01 X-1.5649 Y0.9149 
G01 X-1.5649 Y0.7787 
G01 X-1.5549 Y0.7687 
G01 X-1.5549 Y0.7313 
G01 X-1.5813 Y0.7049 
G01 X-1.6187 Y0.7049 
G01 X-1.6451 Y0.7313 
G01 X-1.6451 Y0.7687 
G01 X-1.6351 Y0.7787 
G01 X-1.6351 Y0.9355 
G01 X-1.6351 Y0.9645 
G01 X-1.6145 Y0.9851 
G01 X-1.0351 Y0.9851 
G01 X-1.0351 Y1.0510 
G01 X-1.0411 Y1.0570 
G01 X-1.0411 Y1.1430 
G01 X-1.0351 Y1.1490 
G01 X-1.0351 Y1.2149 
G01 X-1.0855 Y1.2149 
G01 X-1.3145 Y1.2149 
G01 X-1.4145 Y1.2149 
G01 X-1.4351 Y1.2355 
G01 X-1.4351 Y1.2645 
G01 X-1.4351 Y1.3510 
G01 X-1.4411 Y1.3570 
G01 X-1.4411 Y1.4430 
G01 X-1.4170 Y1.4671 
G01 X-1.3830 Y1.4671 
G01 X-1.3589 Y1.4430 
G01 X-1.3589 Y1.3570 
G01 X-1.3649 Y1.3510 
G01 X-1.3649 Y1.2851 
G01 X-1.3351 Y1.2851 
G01 X-1.3351 Y1.3510 
G01 X-1.3411 Y1.3570 
G01 X-1.3411 Y1.4430 
G01 X-1.3170 Y1.4671 
G01 X-1.2830 Y1.4671 
G01 X-1.2589 Y1.4430 
G01 X-1.2589 Y1.3570 
G01 X-1.2649 Y1.3510 
G01 X-1.2649 Y1.2851 
G01 X-1.1351 Y1.2851 
G01 X-1.1351 Y1.3510 
G01 X-1.1411 Y1.3570 
G01 X-1.1411 Y1.4430 
G01 X-1.1351 Y1.4490 
G01 X-1.1351 Y2.4149 
G01 X-1.1855 Y2.4149 
G01 X-1.2145 Y2.4149 
G01 X-1.2351 Y2.4355 
G01 X-1.2351 Y2.5270 
G01 X-1.2411 Y2.5330 
G00 Z0.0200 
G00 X-1.0411 Y2.5330 
G01 Z-0.0100 F10.00 
G01 X-1.0411 Y2.5670 
G01 X-1.0170 Y2.5911 
G01 X-0.9830 Y2.5911 
G01 X-0.9589 Y2.5670 
G01 X-0.9589 Y2.5330 
G01 X-0.9649 Y2.5270 
G01 X-0.9649 Y2.3787 
G01 X-0.9549 Y2.3687 
G01 X-0.9549 Y2.3313 
G01 X-0.9813 Y2.3049 
G01 X-1.0187 Y2.3049 
G01 X-1.0451 Y2.3313 
G01 X-1.0451 Y2.3687 
G01 X-1.0351 Y2.3787 
G01 X-1.0351 Y2.5270 
G01 X-1.0411 Y2.5330 
G00 Z0.0200 
G00 X-2.2451 Y1.4813 
G01 Z-0.0100 F10.00 
G01 X-2.2451 Y1.5187 
G01 X-2.2351 Y1.5287 
G01 X-2.2351 Y1.8649 
G01 X-2.8089 Y1.8649 
G01 X-2.8089 Y1.8570 
G01 X-2.8330 Y1.8329 
G01 X-2.8670 Y1.8329 
G01 X-2.8911 Y1.8570 
G01 X-2.8911 Y1.9430 
G01 X-2.8670 Y1.9671 
G01 X-2.8330 Y1.9671 
G01 X-2.8089 Y1.9430 
G01 X-2.8089 Y1.9351 
G01 X-2.2008 Y1.9351 
G01 X-2.1893 Y1.9466 
G01 X-2.1507 Y1.9466 
G01 X-2.1234 Y1.9193 
G01 X-2.1234 Y1.8807 
G01 X-2.1507 Y1.8534 
G01 X-2.1649 Y1.8534 
G01 X-2.1649 Y1.5287 
G01 X-2.1549 Y1.5187 
G01 X-2.1549 Y1.4813 
G01 X-2.1813 Y1.4549 
G01 X-2.2187 Y1.4549 
G01 X-2.2451 Y1.4813 
G00 Z0.0200 
G00 X-2.0036 Y1.8605 
G01 Z-0.0100 F10.00 
G01 X-2.0207 Y1.8534 
G01 X-2.0393 Y1.8534 
G01 X-2.0564 Y1.8605 
G01 X-2.0695 Y1.8736 
G01 X-2.0766 Y1.8907 
G01 X-2.0766 Y1.9093 
G01 X-2.0695 Y1.9264 
G01 X-2.0564 Y1.9395 
G01 X-2.0393 Y1.9466 
G01 X-2.0207 Y1.9466 
G01 X-2.0036 Y1.9395 
G01 X-1.9992 Y1.9351 
G01 X-1.8287 Y1.9351 
G01 X-1.8187 Y1.9451 
G01 X-1.7813 Y1.9451 
G01 X-1.7549 Y1.9187 
G01 X-1.7549 Y1.8813 
G01 X-1.7649 Y1.8713 
G01 X-1.7649 Y1.6730 
G01 X-1.7589 Y1.6670 
G01 X-1.7589 Y1.6330 
G01 X-1.7830 Y1.6089 
G01 X-1.8170 Y1.6089 
G01 X-1.8411 Y1.6330 
G01 X-1.8411 Y1.6670 
G01 X-1.8351 Y1.6730 
G01 X-1.8351 Y1.8649 
G01 X-1.9992 Y1.8649 
G01 X-2.0036 Y1.8605 
G00 Z0.0200 
G00 X-3.5951 Y2.3813 
G01 Z-0.0100 F10.00 
G01 X-3.5951 Y2.4187 
G01 X-3.5687 Y2.4451 
G01 X-3.5313 Y2.4451 
G01 X-3.5213 Y2.4351 
G01 X-3.3730 Y2.4351 
G01 X-3.3670 Y2.4411 
G01 X-3.3330 Y2.4411 
G01 X-3.3089 Y2.4170 
G01 X-3.3089 Y2.3830 
G01 X-3.3330 Y2.3589 
G01 X-3.3670 Y2.3589 
G01 X-3.3730 Y2.3649 
G01 X-3.5213 Y2.3649 
G01 X-3.5313 Y2.3549 
G01 X-3.5687 Y2.3549 
G01 X-3.5951 Y2.3813 
G00 Z0.0200 
G00 X-3.1096 Y1.9731 
G01 Z-0.0100 F10.00 
G01 X-2.9497 Y2.1329 
G01 X-2.9670 Y2.1329 
G01 X-2.9672 Y2.1331 
G01 X-3.1149 Y1.9855 
G01 X-3.1149 Y1.9677 
G01 X-3.1096 Y1.9731 
G00 Z0.0200 
G00 X-0.5384 Y2.4704 
G01 Z-0.0100 F10.00 
G01 X-0.5384 Y2.5996 
G01 X-0.5296 Y2.6084 
G01 X-0.2126 Y2.6084 
G01 X-0.2038 Y2.5996 
G01 X-0.2038 Y2.4704 
G01 X-0.2126 Y2.4616 
G01 X-0.2252 Y2.4616 
G01 X-0.2252 Y2.4084 
G01 X-0.1696 Y2.4084 
G01 X-0.1608 Y2.3996 
G01 X-0.1608 Y2.2704 
G01 X-0.1696 Y2.2616 
G01 X-0.5296 Y2.2616 
G01 X-0.5384 Y2.2704 
G01 X-0.5384 Y2.3996 
G01 X-0.5384 Y2.3996 
G01 X-0.5384 Y2.4704 
G01 X-0.5384 Y2.4704 
G00 Z0.0200 
G00 X-3.0670 Y2.1329 
G01 Z-0.0100 F10.00 
G01 X-3.0810 Y2.1469 
G01 X-3.1190 Y2.1469 
G01 X-3.1330 Y2.1329 
G01 X-3.1670 Y2.1329 
G01 X-3.1810 Y2.1469 
G01 X-3.6720 Y2.1469 
G01 X-3.7031 Y2.1780 
G01 X-3.7031 Y2.2220 
G01 X-3.7031 Y2.4780 
G01 X-3.7031 Y2.5220 
G01 X-3.6869 Y2.5382 
G01 X-3.6868 Y2.5383 
G01 X-3.6720 Y2.5531 
G01 X-3.6709 Y2.5531 
G01 X-3.2369 Y2.9563 
G01 X-3.2220 Y2.9712 
G01 X-3.2209 Y2.9712 
G01 X-3.1780 Y2.9712 
G01 X-0.7780 Y2.9712 
G01 X-0.6633 Y2.9712 
G01 X-0.6619 Y2.9726 
G01 X-0.5381 Y2.9726 
G01 X-0.5062 Y2.9407 
G01 X-0.5062 Y2.8956 
G01 X-0.5381 Y2.8636 
G01 X-0.6619 Y2.8636 
G01 X-0.6633 Y2.8650 
G01 X-0.7469 Y2.8650 
G01 X-0.7469 Y1.4531 
G01 X-0.4920 Y1.4531 
G01 X-0.4720 Y1.4731 
G01 X-0.4280 Y1.4731 
G01 X-0.3969 Y1.4420 
G01 X-0.3969 Y1.4220 
G01 X-0.3969 Y1.3780 
G01 X-0.4280 Y1.3469 
G01 X-0.7690 Y1.3469 
G01 X-0.7830 Y1.3329 
G01 X-0.8170 Y1.3329 
G01 X-0.8411 Y1.3570 
G01 X-0.8411 Y1.3660 
G01 X-0.8469 Y1.3718 
G01 X-0.8469 Y1.3031 
G01 X-0.8220 Y1.3031 
G01 X-0.7780 Y1.3031 
G01 X-0.7469 Y1.2720 
G01 X-0.7469 Y1.1031 
G01 X-0.5031 Y1.1031 
G01 X-0.5031 Y1.3020 
G01 X-0.4720 Y1.3331 
G01 X-0.4280 Y1.3331 
G01 X-0.3969 Y1.3020 
G01 X-0.3969 Y1.1031 
G01 X-0.3031 Y1.1031 
G01 X-0.3031 Y1.4780 
G01 X-0.4720 Y1.6469 
G01 X-0.6220 Y1.6469 
G01 X-0.6531 Y1.6780 
G01 X-0.6531 Y1.7220 
G01 X-0.6531 Y2.6235 
G01 X-0.6619 Y2.6235 
G01 X-0.6938 Y2.6554 
G01 X-0.6938 Y2.7005 
G01 X-0.6619 Y2.7324 
G01 X-0.5381 Y2.7324 
G01 X-0.5062 Y2.7005 
G01 X-0.5062 Y2.6554 
G01 X-0.5381 Y2.6235 
G01 X-0.5469 Y2.6235 
G01 X-0.5469 Y1.7531 
G01 X-0.4720 Y1.7531 
G01 X-0.4280 Y1.7531 
G01 X-0.1969 Y1.5220 
G01 X-0.1969 Y1.4780 
G01 X-0.1969 Y1.0280 
G01 X-0.2280 Y0.9969 
G01 X-0.2720 Y0.9969 
G01 X-0.3969 Y0.9969 
G01 X-0.3969 Y0.1780 
G01 X-0.4280 Y0.1469 
G01 X-0.4720 Y0.1469 
G01 X-1.2780 Y0.1469 
G01 X-1.3220 Y0.1469 
G01 X-1.5867 Y0.4116 
G01 X-2.2580 Y0.4116 
G01 X-2.2580 Y0.3204 
G01 X-2.2669 Y0.3116 
G01 X-3.6796 Y0.3116 
G01 X-3.6884 Y0.3204 
G01 X-3.6884 Y0.4204 
G01 X-3.6884 Y0.4204 
G01 X-3.6884 Y0.5496 
G01 X-3.6884 Y0.5496 
G01 X-3.6884 Y0.6204 
G01 X-3.6884 Y0.6204 
G01 X-3.6884 Y0.7496 
G01 X-3.6796 Y0.7584 
G01 X-2.0628 Y0.7584 
G01 X-2.0539 Y0.7496 
G01 X-2.0539 Y0.6204 
G01 X-2.0628 Y0.6116 
G01 X-2.0754 Y0.6116 
G01 X-2.0754 Y0.5584 
G01 X-1.7335 Y0.5584 
G01 X-2.0220 Y0.8469 
G01 X-2.2220 Y0.8469 
G01 X-2.2355 Y0.8604 
G01 X-2.4686 Y1.0469 
G01 X-2.6814 Y1.0469 
G01 X-2.9145 Y0.8604 
G01 X-2.9280 Y0.8469 
G01 X-3.0780 Y0.8469 
G01 X-3.1780 Y0.8469 
G01 X-3.2196 Y0.8469 
G01 X-3.2220 Y0.8469 
G01 X-3.2361 Y0.8610 
G01 X-3.5696 Y1.1469 
G01 X-3.5720 Y1.1469 
G01 X-3.5861 Y1.1610 
G01 X-3.5861 Y1.1610 
G01 X-3.6031 Y1.1780 
G01 X-3.6031 Y1.2220 
G01 X-3.6031 Y1.5220 
G01 X-3.6031 Y1.8220 
G01 X-3.5720 Y1.8531 
G01 X-3.5280 Y1.8531 
G01 X-3.4969 Y1.8220 
G01 X-3.4969 Y1.5220 
G01 X-3.4969 Y1.2244 
G01 X-3.1804 Y0.9531 
G01 X-3.1231 Y0.9531 
G01 X-3.1231 Y1.8428 
G01 X-3.1330 Y1.8329 
G01 X-3.1649 Y1.8329 
G01 X-3.1649 Y1.5287 
G01 X-3.1549 Y1.5187 
G01 X-3.1549 Y1.4813 
G01 X-3.1813 Y1.4549 
G01 X-3.2187 Y1.4549 
G01 X-3.2287 Y1.4649 
G01 X-3.3270 Y1.4649 
G01 X-3.3330 Y1.4589 
G01 X-3.3670 Y1.4589 
G01 X-3.3911 Y1.4830 
G01 X-3.3911 Y1.5170 
G01 X-3.3670 Y1.5411 
G01 X-3.3330 Y1.5411 
G01 X-3.3270 Y1.5351 
G01 X-3.2351 Y1.5351 
G01 X-3.2351 Y1.9145 
G01 X-3.2145 Y1.9351 
G01 X-3.1911 Y1.9351 
G01 X-3.1911 Y1.9430 
G01 X-3.1851 Y1.9490 
G01 X-3.1851 Y2.0145 
G01 X-3.1645 Y2.0351 
G01 X-3.0667 Y2.1329 
G01 X-3.0670 Y2.1329 
G00 Z0.0200 
G00 X-0.3885 Y2.7062 
G01 Z-0.0100 F10.00 
G01 X-0.4336 Y2.7062 
G01 X-0.4655 Y2.7381 
G01 X-0.4655 Y2.8619 
G01 X-0.4336 Y2.8938 
G01 X-0.3885 Y2.8938 
G01 X-0.3566 Y2.8619 
G01 X-0.3566 Y2.7381 
G01 X-0.3885 Y2.7062 
G00 Z0.0200 
G00 X-0.9599 Y1.4511 
G01 Z-0.0100 F10.00 
G01 X-0.9581 Y1.4493 
G01 X-0.9581 Y1.5741 
G01 X-0.9241 Y1.6081 
G01 X-0.8759 Y1.6081 
G01 X-0.8581 Y1.5902 
G01 X-0.8581 Y1.7267 
G01 X-0.8809 Y1.7039 
G01 X-0.9191 Y1.7039 
G01 X-0.9251 Y1.7099 
G01 X-0.9599 Y1.7099 
G01 X-0.9599 Y1.4511 
G00 Z0.0200 
G00 X-2.9618 Y2.1279 
G01 Z-0.0100 F10.00 
G01 X-2.9654 Y2.1279 
G01 X-3.1099 Y1.9834 
G01 X-3.1099 Y1.9798 
G01 X-2.9618 Y2.1279 
G00 Z0.0200 
G00 X-3.2961 Y2.3809 
G01 Z-0.0100 F10.00 
G01 X-3.2961 Y2.4191 
G01 X-3.2691 Y2.4461 
G01 X-3.2309 Y2.4461 
G01 X-3.2249 Y2.4401 
G01 X-3.1666 Y2.4401 
G01 X-3.1334 Y2.4401 
G01 X-2.9654 Y2.2721 
G01 X-2.9309 Y2.2721 
G01 X-2.9039 Y2.2451 
G01 X-2.9039 Y2.1858 
G01 X-2.8961 Y2.1936 
G01 X-2.8961 Y2.2451 
G01 X-2.8691 Y2.2721 
G01 X-2.8309 Y2.2721 
G01 X-2.8039 Y2.2451 
G01 X-2.8039 Y2.1549 
G01 X-2.8309 Y2.1279 
G01 X-2.8691 Y2.1279 
G01 X-2.8757 Y2.1345 
G01 X-3.0382 Y1.9721 
G01 X-3.0309 Y1.9721 
G01 X-3.0039 Y1.9451 
G01 X-3.0039 Y1.8549 
G01 X-3.0099 Y1.8489 
G01 X-3.0099 Y1.5401 
G01 X-2.9807 Y1.5401 
G01 X-2.9707 Y1.5501 
G01 X-2.9292 Y1.5501 
G01 X-2.9192 Y1.5401 
G01 X-2.9166 Y1.5401 
G01 X-2.8834 Y1.5401 
G01 X-2.6894 Y1.3461 
G01 X-2.6809 Y1.3461 
G01 X-2.6539 Y1.3191 
G01 X-2.6539 Y1.2809 
G01 X-2.6809 Y1.2539 
G01 X-2.7191 Y1.2539 
G01 X-2.7461 Y1.2809 
G01 X-2.7461 Y1.2894 
G01 X-2.9166 Y1.4599 
G01 X-2.9192 Y1.4599 
G01 X-2.9292 Y1.4499 
G01 X-2.9707 Y1.4499 
G01 X-2.9807 Y1.4599 
G01 X-3.0666 Y1.4599 
G01 X-3.0719 Y1.4652 
G01 X-3.0719 Y0.9581 
G01 X-2.9704 Y0.9581 
G01 X-2.7388 Y1.1434 
G01 X-2.7241 Y1.1581 
G01 X-2.7204 Y1.1581 
G01 X-2.6759 Y1.1581 
G01 X-2.4259 Y1.1581 
G01 X-2.4112 Y1.1434 
G01 X-2.1796 Y0.9581 
G01 X-2.0241 Y0.9581 
G01 X-1.8581 Y1.1241 
G01 X-1.8581 Y1.4741 
G01 X-1.8241 Y1.5081 
G01 X-1.7759 Y1.5081 
G01 X-1.7419 Y1.4741 
G01 X-1.7419 Y1.1581 
G01 X-1.4331 Y1.1581 
G01 X-1.4191 Y1.1721 
G01 X-1.3809 Y1.1721 
G01 X-1.3669 Y1.1581 
G01 X-1.3331 Y1.1581 
G01 X-1.3191 Y1.1721 
G01 X-1.2809 Y1.1721 
G01 X-1.2669 Y1.1581 
G01 X-1.2331 Y1.1581 
G01 X-1.2191 Y1.1721 
G01 X-1.1809 Y1.1721 
G01 X-1.1539 Y1.1451 
G01 X-1.1539 Y1.1361 
G01 X-1.1461 Y1.1282 
G01 X-1.1461 Y1.1451 
G01 X-1.1191 Y1.1721 
G01 X-1.0809 Y1.1721 
G01 X-1.0539 Y1.1451 
G01 X-1.0539 Y1.0549 
G01 X-1.0809 Y1.0279 
G01 X-1.1191 Y1.0279 
G01 X-1.1461 Y1.0549 
G01 X-1.1461 Y1.0718 
G01 X-1.1539 Y1.0639 
G01 X-1.1539 Y1.0549 
G01 X-1.1809 Y1.0279 
G01 X-1.2191 Y1.0279 
G01 X-1.2331 Y1.0419 
G01 X-1.2669 Y1.0419 
G01 X-1.2809 Y1.0279 
G01 X-1.3191 Y1.0279 
G01 X-1.3331 Y1.0419 
G01 X-1.3669 Y1.0419 
G01 X-1.3809 Y1.0279 
G01 X-1.4191 Y1.0279 
G01 X-1.4331 Y1.0419 
G01 X-1.7759 Y1.0419 
G01 X-1.7759 Y1.0419 
G01 X-1.9178 Y0.9000 
G01 X-1.5813 Y0.5634 
G01 X-1.4913 Y0.5634 
G01 X-1.4796 Y0.5517 
G01 X-1.4796 Y0.4617 
G01 X-1.2759 Y0.2581 
G01 X-0.9332 Y0.2581 
G01 X-0.9434 Y0.2683 
G01 X-0.9434 Y0.4017 
G01 X-0.9317 Y0.4134 
G01 X-0.6750 Y0.4134 
G01 X-0.6632 Y0.4017 
G01 X-0.6632 Y0.2683 
G01 X-0.6735 Y0.2581 
G01 X-0.5081 Y0.2581 
G01 X-0.5081 Y0.9919 
G01 X-0.7419 Y0.9919 
G01 X-0.7419 Y0.9259 
G01 X-0.7759 Y0.8919 
G01 X-0.8241 Y0.8919 
G01 X-0.8581 Y0.9259 
G01 X-0.8581 Y1.0259 
G01 X-0.8581 Y1.0507 
G01 X-0.8599 Y1.0489 
G01 X-0.8599 Y0.7901 
G01 X-0.8251 Y0.7901 
G01 X-0.8191 Y0.7961 
G01 X-0.7809 Y0.7961 
G01 X-0.7539 Y0.7691 
G01 X-0.7539 Y0.7309 
G01 X-0.7599 Y0.7249 
G01 X-0.7599 Y0.6688 
G01 X-0.7291 Y0.6560 
G01 X-0.6939 Y0.6209 
G01 X-0.6749 Y0.5749 
G01 X-0.6749 Y0.5251 
G01 X-0.6939 Y0.4791 
G01 X-0.7291 Y0.4439 
G01 X-0.7751 Y0.4249 
G01 X-0.8249 Y0.4249 
G01 X-0.8709 Y0.4439 
G01 X-0.9060 Y0.4791 
G01 X-0.9251 Y0.5251 
G01 X-0.9251 Y0.5749 
G01 X-0.9060 Y0.6209 
G01 X-0.8709 Y0.6560 
G01 X-0.8401 Y0.6688 
G01 X-0.8401 Y0.7099 
G01 X-0.8834 Y0.7099 
G01 X-0.9166 Y0.7099 
G01 X-0.9692 Y0.7099 
G01 X-0.9792 Y0.6999 
G01 X-1.0207 Y0.6999 
G01 X-1.0501 Y0.7292 
G01 X-1.0501 Y0.7707 
G01 X-1.0207 Y0.8001 
G01 X-0.9792 Y0.8001 
G01 X-0.9692 Y0.7901 
G01 X-0.9401 Y0.7901 
G01 X-0.9401 Y1.0489 
G01 X-0.9461 Y1.0549 
G01 X-0.9461 Y1.1451 
G01 X-0.9191 Y1.1721 
G01 X-0.8809 Y1.1721 
G01 X-0.8581 Y1.1493 
G01 X-0.8581 Y1.1919 
G01 X-0.9241 Y1.1919 
G01 X-0.9581 Y1.2259 
G01 X-0.9581 Y1.2741 
G01 X-0.9581 Y1.3507 
G01 X-0.9809 Y1.3279 
G01 X-1.0191 Y1.3279 
G01 X-1.0461 Y1.3549 
G01 X-1.0461 Y1.4451 
G01 X-1.0401 Y1.4511 
G01 X-1.0401 Y1.7192 
G01 X-1.0501 Y1.7292 
G01 X-1.0501 Y1.7707 
G01 X-1.0207 Y1.8001 
G01 X-0.9792 Y1.8001 
G01 X-0.9692 Y1.7901 
G01 X-0.9251 Y1.7901 
G01 X-0.9191 Y1.7961 
G01 X-0.8809 Y1.7961 
G01 X-0.8581 Y1.7733 
G01 X-0.8581 Y2.8600 
G01 X-3.1772 Y2.8600 
G01 X-3.5919 Y2.4747 
G01 X-3.5919 Y2.4289 
G01 X-3.5707 Y2.4501 
G01 X-3.5292 Y2.4501 
G01 X-3.5192 Y2.4401 
G01 X-3.3751 Y2.4401 
G01 X-3.3691 Y2.4461 
G01 X-3.3309 Y2.4461 
G01 X-3.3039 Y2.4191 
G01 X-3.3039 Y2.3809 
G01 X-3.3309 Y2.3539 
G01 X-3.3691 Y2.3539 
G01 X-3.3751 Y2.3599 
G01 X-3.5192 Y2.3599 
G01 X-3.5292 Y2.3499 
G01 X-3.5707 Y2.3499 
G01 X-3.5919 Y2.3711 
G01 X-3.5919 Y2.2581 
G01 X-3.1831 Y2.2581 
G01 X-3.1691 Y2.2721 
G01 X-3.1309 Y2.2721 
G01 X-3.1169 Y2.2581 
G01 X-3.0831 Y2.2581 
G01 X-3.0739 Y2.2672 
G01 X-3.1666 Y2.3599 
G01 X-3.2249 Y2.3599 
G01 X-3.2309 Y2.3539 
G01 X-3.2691 Y2.3539 
G01 X-3.2961 Y2.3809 
G00 Z0.0200 
G00 X-2.4961 Y1.2809 
G01 Z-0.0100 F10.00 
G01 X-2.4961 Y1.2894 
G01 X-2.8166 Y1.6099 
G01 X-2.9666 Y1.6099 
G01 X-2.9901 Y1.6334 
G01 X-2.9901 Y1.6666 
G01 X-2.9901 Y1.8489 
G01 X-2.9961 Y1.8549 
G01 X-2.9961 Y1.9451 
G01 X-2.9691 Y1.9721 
G01 X-2.9309 Y1.9721 
G01 X-2.9039 Y1.9451 
G01 X-2.9039 Y1.8549 
G01 X-2.9099 Y1.8489 
G01 X-2.9099 Y1.6901 
G01 X-2.8166 Y1.6901 
G01 X-2.7834 Y1.6901 
G01 X-2.4394 Y1.3461 
G01 X-2.4309 Y1.3461 
G01 X-2.4039 Y1.3191 
G01 X-2.4039 Y1.2809 
G01 X-2.4309 Y1.2539 
G01 X-2.4691 Y1.2539 
G01 X-2.4961 Y1.2809 
G00 Z0.0200 
G00 X-1.8461 Y1.6309 
G01 Z-0.0100 F10.00 
G01 X-1.8461 Y1.6691 
G01 X-1.8401 Y1.6751 
G01 X-1.8401 Y1.8599 
G01 X-1.9971 Y1.8599 
G01 X-2.0008 Y1.8563 
G01 X-2.0197 Y1.8484 
G01 X-2.0403 Y1.8484 
G01 X-2.0592 Y1.8563 
G01 X-2.0737 Y1.8708 
G01 X-2.0816 Y1.8897 
G01 X-2.0816 Y1.9103 
G01 X-2.0737 Y1.9292 
G01 X-2.0592 Y1.9437 
G01 X-2.0403 Y1.9516 
G01 X-2.0197 Y1.9516 
G01 X-2.0008 Y1.9437 
G01 X-1.9971 Y1.9401 
G01 X-1.8307 Y1.9401 
G01 X-1.8207 Y1.9501 
G01 X-1.7792 Y1.9501 
G01 X-1.7499 Y1.9207 
G01 X-1.7499 Y1.8792 
G01 X-1.7599 Y1.8693 
G01 X-1.7599 Y1.6751 
G01 X-1.7539 Y1.6691 
G01 X-1.7539 Y1.6309 
G01 X-1.7809 Y1.6039 
G01 X-1.8191 Y1.6039 
G01 X-1.8461 Y1.6309 
G00 Z0.0200 
G00 X-1.2501 Y1.8792 
G01 Z-0.0100 F10.00 
G01 X-1.2501 Y1.9207 
G01 X-1.2207 Y1.9501 
G01 X-1.1792 Y1.9501 
G01 X-1.1499 Y1.9207 
G01 X-1.1499 Y1.8792 
G01 X-1.1599 Y1.8693 
G01 X-1.1599 Y1.4511 
G01 X-1.1539 Y1.4451 
G01 X-1.1539 Y1.3549 
G01 X-1.1809 Y1.3279 
G01 X-1.2191 Y1.3279 
G01 X-1.2461 Y1.3549 
G01 X-1.2461 Y1.4451 
G01 X-1.2401 Y1.4511 
G01 X-1.2401 Y1.8693 
G01 X-1.2501 Y1.8792 
G00 Z0.0200 
G00 X-1.0501 Y2.3292 
G01 Z-0.0100 F10.00 
G01 X-1.0501 Y2.3707 
G01 X-1.0401 Y2.3807 
G01 X-1.0401 Y2.5249 
G01 X-1.0461 Y2.5309 
G01 X-1.0461 Y2.5691 
G01 X-1.0191 Y2.5961 
G01 X-0.9809 Y2.5961 
G01 X-0.9539 Y2.5691 
G01 X-0.9539 Y2.5309 
G01 X-0.9599 Y2.5249 
G01 X-0.9599 Y2.3807 
G01 X-0.9499 Y2.3707 
G01 X-0.9499 Y2.3292 
G01 X-0.9792 Y2.2999 
G01 X-1.0207 Y2.2999 
G01 X-1.0501 Y2.3292 
G00 Z0.0200 
G00 X-2.8691 Y1.9721 
G01 Z-0.0100 F10.00 
G01 X-2.8309 Y1.9721 
G01 X-2.8039 Y1.9451 
G01 X-2.8039 Y1.9401 
G01 X-2.2029 Y1.9401 
G01 X-2.1914 Y1.9516 
G01 X-2.1486 Y1.9516 
G01 X-2.1184 Y1.9214 
G01 X-2.1184 Y1.8786 
G01 X-2.1486 Y1.8484 
G01 X-2.1599 Y1.8484 
G01 X-2.1599 Y1.5307 
G01 X-2.1499 Y1.5207 
G01 X-2.1499 Y1.4792 
G01 X-2.1792 Y1.4499 
G01 X-2.2207 Y1.4499 
G01 X-2.2501 Y1.4792 
G01 X-2.2501 Y1.5207 
G01 X-2.2401 Y1.5307 
G01 X-2.2401 Y1.8599 
G01 X-2.8039 Y1.8599 
G01 X-2.8039 Y1.8549 
G01 X-2.8309 Y1.8279 
G01 X-2.8691 Y1.8279 
G01 X-2.8961 Y1.8549 
G01 X-2.8961 Y1.9451 
G01 X-2.8691 Y1.9721 
G00 Z0.0200 
G00 X-0.9539 Y1.1451 
G01 Z-0.0100 F10.00 
G01 X-0.9539 Y1.0549 
G01 X-0.9599 Y1.0489 
G01 X-0.9599 Y0.9334 
G01 X-0.9834 Y0.9099 
G01 X-1.0166 Y0.9099 
G01 X-1.5599 Y0.9099 
G01 X-1.5599 Y0.7807 
G01 X-1.5499 Y0.7707 
G01 X-1.5499 Y0.7292 
G01 X-1.5792 Y0.6999 
G01 X-1.6207 Y0.6999 
G01 X-1.6501 Y0.7292 
G01 X-1.6501 Y0.7707 
G01 X-1.6401 Y0.7807 
G01 X-1.6401 Y0.9334 
G01 X-1.6401 Y0.9666 
G01 X-1.6166 Y0.9901 
G01 X-1.0401 Y0.9901 
G01 X-1.0401 Y1.0489 
G01 X-1.0461 Y1.0549 
G01 X-1.0461 Y1.1451 
G01 X-1.0401 Y1.1511 
G01 X-1.0401 Y1.2099 
G01 X-1.0834 Y1.2099 
G01 X-1.3166 Y1.2099 
G01 X-1.4166 Y1.2099 
G01 X-1.4401 Y1.2334 
G01 X-1.4401 Y1.2666 
G01 X-1.4401 Y1.3489 
G01 X-1.4461 Y1.3549 
G01 X-1.4461 Y1.4451 
G01 X-1.4191 Y1.4721 
G01 X-1.3809 Y1.4721 
G01 X-1.3539 Y1.4451 
G01 X-1.3539 Y1.3549 
G01 X-1.3599 Y1.3489 
G01 X-1.3599 Y1.2901 
G01 X-1.3401 Y1.2901 
G01 X-1.3401 Y1.3489 
G01 X-1.3461 Y1.3549 
G01 X-1.3461 Y1.4451 
G01 X-1.3191 Y1.4721 
G01 X-1.2809 Y1.4721 
G01 X-1.2539 Y1.4451 
G01 X-1.2539 Y1.3549 
G01 X-1.2599 Y1.3489 
G01 X-1.2599 Y1.2901 
G01 X-1.1401 Y1.2901 
G01 X-1.1401 Y1.3489 
G01 X-1.1461 Y1.3549 
G01 X-1.1461 Y1.4451 
G01 X-1.1401 Y1.4511 
G01 X-1.1401 Y2.4099 
G01 X-1.1834 Y2.4099 
G01 X-1.2166 Y2.4099 
G01 X-1.2401 Y2.4334 
G01 X-1.2401 Y2.5249 
G01 X-1.2461 Y2.5309 
G01 X-1.2461 Y2.5691 
G01 X-1.2191 Y2.5961 
G01 X-1.1809 Y2.5961 
G01 X-1.1539 Y2.5691 
G01 X-1.1539 Y2.5309 
G01 X-1.1599 Y2.5249 
G01 X-1.1599 Y2.4901 
G01 X-1.1251 Y2.4901 
G01 X-1.1191 Y2.4961 
G01 X-1.0809 Y2.4961 
G01 X-1.0539 Y2.4691 
G01 X-1.0539 Y2.4309 
G01 X-1.0599 Y2.4249 
G01 X-1.0599 Y1.4511 
G01 X-1.0539 Y1.4451 
G01 X-1.0539 Y1.3549 
G01 X-1.0599 Y1.3489 
G01 X-1.0599 Y1.2901 
G01 X-1.0166 Y1.2901 
G01 X-0.9834 Y1.2901 
G01 X-0.9599 Y1.2666 
G01 X-0.9599 Y1.1511 
G01 X-0.9539 Y1.1451 
G00 Z0.0200 
G00 X-0.3864 Y2.7012 
G01 Z-0.0100 F10.00 
G01 X-0.4356 Y2.7012 
G01 X-0.4705 Y2.7360 
G01 X-0.4705 Y2.8640 
G01 X-0.4356 Y2.8988 
G01 X-0.3864 Y2.8988 
G01 X-0.3516 Y2.8640 
G01 X-0.3516 Y2.7360 
G01 X-0.3864 Y2.7012 
G00 Z0.0200 
G00 X-3.3961 Y1.4809 
G01 Z-0.0100 F10.00 
G01 X-3.3961 Y1.5191 
G01 X-3.3691 Y1.5461 
G01 X-3.3309 Y1.5461 
G01 X-3.3249 Y1.5401 
G01 X-3.2401 Y1.5401 
G01 X-3.2401 Y1.9166 
G01 X-3.2166 Y1.9401 
G01 X-3.1961 Y1.9401 
G01 X-3.1961 Y1.9451 
G01 X-3.1901 Y1.9511 
G01 X-3.1901 Y2.0166 
G01 X-3.1666 Y2.0401 
G01 X-3.0739 Y2.1328 
G01 X-3.0831 Y2.1419 
G01 X-3.1169 Y2.1419 
G01 X-3.1309 Y2.1279 
G01 X-3.1691 Y2.1279 
G01 X-3.1831 Y2.1419 
G01 X-3.6741 Y2.1419 
G01 X-3.7081 Y2.1759 
G01 X-3.7081 Y2.2241 
G01 X-3.7081 Y2.4759 
G01 X-3.7081 Y2.5241 
G01 X-3.6903 Y2.5418 
G01 X-3.6903 Y2.5419 
G01 X-3.6741 Y2.5581 
G01 X-3.6728 Y2.5581 
G01 X-3.2403 Y2.9599 
G01 X-3.2241 Y2.9762 
G01 X-3.2228 Y2.9762 
G01 X-3.1759 Y2.9762 
G01 X-0.7759 Y2.9762 
G01 X-0.6654 Y2.9762 
G01 X-0.6640 Y2.9776 
G01 X-0.5360 Y2.9776 
G01 X-0.5012 Y2.9427 
G01 X-0.5012 Y2.8935 
G01 X-0.5360 Y2.8586 
G01 X-0.6640 Y2.8586 
G01 X-0.6654 Y2.8600 
G01 X-0.7419 Y2.8600 
G01 X-0.7419 Y1.4581 
G01 X-0.4941 Y1.4581 
G01 X-0.4741 Y1.4781 
G01 X-0.4259 Y1.4781 
G01 X-0.3919 Y1.4441 
G01 X-0.3919 Y1.4241 
G01 X-0.3919 Y1.3759 
G01 X-0.4259 Y1.3419 
G01 X-0.7669 Y1.3419 
G01 X-0.7809 Y1.3279 
G01 X-0.8191 Y1.3279 
G01 X-0.8419 Y1.3507 
G01 X-0.8419 Y1.3081 
G01 X-0.8241 Y1.3081 
G01 X-0.7759 Y1.3081 
G01 X-0.7419 Y1.2741 
G01 X-0.7419 Y1.1081 
G01 X-0.5081 Y1.1081 
G01 X-0.5081 Y1.3041 
G01 X-0.4741 Y1.3381 
G01 X-0.4259 Y1.3381 
G01 X-0.3919 Y1.3041 
G01 X-0.3919 Y1.1081 
G01 X-0.3081 Y1.1081 
G01 X-0.3081 Y1.4759 
G01 X-0.4741 Y1.6419 
G01 X-0.6241 Y1.6419 
G01 X-0.6581 Y1.6759 
G01 X-0.6581 Y1.7241 
G01 X-0.6581 Y2.6185 
G01 X-0.6640 Y2.6185 
G01 X-0.6988 Y2.6533 
G01 X-0.6988 Y2.7026 
G01 X-0.6640 Y2.7374 
G01 X-0.5360 Y2.7374 
G01 X-0.5012 Y2.7026 
G01 X-0.5012 Y2.6533 
G01 X-0.5360 Y2.6185 
G01 X-0.5419 Y2.6185 
G01 X-0.5419 Y2.6032 
G01 X-0.5317 Y2.6134 
G01 X-0.2105 Y2.6134 
G01 X-0.1988 Y2.6017 
G01 X-0.1988 Y2.4683 
G01 X-0.2105 Y2.4566 
G01 X-0.2202 Y2.4566 
G01 X-0.2202 Y2.4134 
G01 X-0.1676 Y2.4134 
G01 X-0.1558 Y2.4017 
G01 X-0.1558 Y2.2683 
G01 X-0.1676 Y2.2566 
G01 X-0.5317 Y2.2566 
G01 X-0.5419 Y2.2668 
G01 X-0.5419 Y1.7581 
G01 X-0.4741 Y1.7581 
G01 X-0.4259 Y1.7581 
G01 X-0.1919 Y1.5241 
G01 X-0.1919 Y1.4759 
G01 X-0.1919 Y1.0259 
G01 X-0.2259 Y0.9919 
G01 X-0.2741 Y0.9919 
G01 X-0.3919 Y0.9919 
G01 X-0.3919 Y0.1759 
G01 X-0.4259 Y0.1419 
G01 X-0.4741 Y0.1419 
G01 X-1.2759 Y0.1419 
G01 X-1.3241 Y0.1419 
G01 X-1.5887 Y0.4066 
G01 X-2.2530 Y0.4066 
G01 X-2.2530 Y0.3183 
G01 X-2.2648 Y0.3066 
G01 X-3.6816 Y0.3066 
G01 X-3.6934 Y0.3183 
G01 X-3.6934 Y0.4183 
G01 X-3.6934 Y0.4183 
G01 X-3.6934 Y0.5517 
G01 X-3.6934 Y0.5517 
G01 X-3.6934 Y0.6183 
G01 X-3.6934 Y0.6183 
G01 X-3.6934 Y0.7517 
G01 X-3.6817 Y0.7634 
G01 X-2.0607 Y0.7634 
G01 X-2.0489 Y0.7517 
G01 X-2.0489 Y0.6183 
G01 X-2.0607 Y0.6066 
G01 X-2.0704 Y0.6066 
G01 X-2.0704 Y0.5634 
G01 X-1.7456 Y0.5634 
G01 X-2.0241 Y0.8419 
G01 X-2.2241 Y0.8419 
G01 X-2.2388 Y0.8567 
G01 X-2.4704 Y1.0419 
G01 X-2.6796 Y1.0419 
G01 X-2.9112 Y0.8566 
G01 X-2.9259 Y0.8419 
G01 X-3.0759 Y0.8419 
G01 X-3.1759 Y0.8419 
G01 X-3.2215 Y0.8419 
G01 X-3.2241 Y0.8419 
G01 X-3.2395 Y0.8573 
G01 X-3.5715 Y1.1419 
G01 X-3.5741 Y1.1419 
G01 X-3.5895 Y1.1573 
G01 X-3.5895 Y1.1573 
G01 X-3.6081 Y1.1759 
G01 X-3.6081 Y1.2241 
G01 X-3.6081 Y1.5241 
G01 X-3.6081 Y1.8241 
G01 X-3.5741 Y1.8581 
G01 X-3.5259 Y1.8581 
G01 X-3.4919 Y1.8241 
G01 X-3.4919 Y1.5241 
G01 X-3.4919 Y1.2267 
G01 X-3.1785 Y0.9581 
G01 X-3.1281 Y0.9581 
G01 X-3.1281 Y1.8307 
G01 X-3.1309 Y1.8279 
G01 X-3.1599 Y1.8279 
G01 X-3.1599 Y1.5307 
G01 X-3.1499 Y1.5207 
G01 X-3.1499 Y1.4792 
G01 X-3.1792 Y1.4499 
G01 X-3.2207 Y1.4499 
G01 X-3.2307 Y1.4599 
G01 X-3.3249 Y1.4599 
G01 X-3.3309 Y1.4539 
G01 X-3.3691 Y1.4539 
G01 X-3.3961 Y1.4809 
G00 Z0.0200 
G00 X-0.9500 Y1.1483 
G01 Z-0.0100 F10.00 
G01 X-0.9212 Y1.1771 
G01 X-0.8788 Y1.1771 
G01 X-0.8631 Y1.1613 
G01 X-0.8631 Y1.1869 
G01 X-0.9261 Y1.1869 
G01 X-0.9549 Y1.2157 
G01 X-0.9549 Y1.1532 
G01 X-0.9500 Y1.1483 
G00 Z0.0200 
G00 X-0.9261 Y1.6131 
G01 Z-0.0100 F10.00 
G01 X-0.8739 Y1.6131 
G01 X-0.8631 Y1.6023 
G01 X-0.8631 Y1.7147 
G01 X-0.8788 Y1.6989 
G01 X-0.9212 Y1.6989 
G01 X-0.9272 Y1.7049 
G01 X-0.9549 Y1.7049 
G01 X-0.9549 Y1.5843 
G01 X-0.9261 Y1.6131 
G00 Z0.0200 
G00 X-0.9631 Y1.3387 
G01 Z-0.0100 F10.00 
G01 X-0.9788 Y1.3229 
G01 X-1.0212 Y1.3229 
G01 X-1.0500 Y1.3517 
G01 X-1.0549 Y1.3468 
G01 X-1.0549 Y1.2951 
G01 X-1.0187 Y1.2951 
G01 X-0.9813 Y1.2951 
G01 X-0.9631 Y1.2769 
G01 X-0.9631 Y1.3387 
G00 Z0.0200 
G00 X-1.1500 Y1.3517 
G01 Z-0.0100 F10.00 
G01 X-1.1788 Y1.3229 
G01 X-1.2212 Y1.3229 
G01 X-1.2500 Y1.3517 
G01 X-1.2549 Y1.3468 
G01 X-1.2549 Y1.2951 
G01 X-1.1451 Y1.2951 
G01 X-1.1451 Y1.3468 
G01 X-1.1500 Y1.3517 
G00 Z0.0200 
G00 X-1.3500 Y1.3517 
G01 Z-0.0100 F10.00 
G01 X-1.3549 Y1.3468 
G01 X-1.3549 Y1.2951 
G01 X-1.3451 Y1.2951 
G01 X-1.3451 Y1.3468 
G01 X-1.3500 Y1.3517 
G00 Z0.0200 
G00 X-0.5131 Y1.1131 
G01 Z-0.0100 F10.00 
G01 X-0.5131 Y1.3061 
G01 X-0.4823 Y1.3369 
G01 X-0.7648 Y1.3369 
G01 X-0.7788 Y1.3229 
G01 X-0.8212 Y1.3229 
G01 X-0.8369 Y1.3387 
G01 X-0.8369 Y1.3131 
G01 X-0.8261 Y1.3131 
G01 X-0.7739 Y1.3131 
G01 X-0.7369 Y1.2761 
G01 X-0.7369 Y1.1131 
G01 X-0.5131 Y1.1131 
G00 Z0.0200 
G00 X-1.0551 Y0.7272 
G01 Z-0.0100 F10.00 
G01 X-1.0551 Y0.7728 
G01 X-1.0228 Y0.8051 
G01 X-0.9772 Y0.8051 
G01 X-0.9672 Y0.7951 
G01 X-0.9451 Y0.7951 
G01 X-0.9451 Y1.0468 
G01 X-0.9500 Y1.0517 
G01 X-0.9549 Y1.0468 
G01 X-0.9549 Y0.9313 
G01 X-0.9813 Y0.9049 
G01 X-1.0187 Y0.9049 
G01 X-1.5549 Y0.9049 
G01 X-1.5549 Y0.7828 
G01 X-1.5449 Y0.7728 
G01 X-1.5449 Y0.7272 
G01 X-1.5772 Y0.6949 
G01 X-1.6228 Y0.6949 
G01 X-1.6551 Y0.7272 
G01 X-1.6551 Y0.7728 
G01 X-1.6451 Y0.7828 
G01 X-1.6451 Y0.9313 
G01 X-1.6451 Y0.9687 
G01 X-1.6187 Y0.9951 
G01 X-1.0451 Y0.9951 
G01 X-1.0451 Y1.0468 
G01 X-1.0500 Y1.0517 
G01 X-1.0788 Y1.0229 
G01 X-1.1212 Y1.0229 
G01 X-1.1500 Y1.0517 
G01 X-1.1788 Y1.0229 
G01 X-1.2212 Y1.0229 
G01 X-1.2352 Y1.0369 
G01 X-1.2648 Y1.0369 
G01 X-1.2788 Y1.0229 
G01 X-1.3212 Y1.0229 
G01 X-1.3352 Y1.0369 
G01 X-1.3648 Y1.0369 
G01 X-1.3788 Y1.0229 
G01 X-1.4212 Y1.0229 
G01 X-1.4352 Y1.0369 
G01 X-1.7739 Y1.0369 
G01 X-1.7739 Y1.0369 
G01 X-1.9108 Y0.9000 
G01 X-1.5792 Y0.5684 
G01 X-1.4893 Y0.5684 
G01 X-1.4746 Y0.5537 
G01 X-1.4746 Y0.4638 
G01 X-1.2739 Y0.2631 
G01 X-0.9452 Y0.2631 
G01 X-0.9484 Y0.2663 
G01 X-0.9484 Y0.4037 
G01 X-0.9337 Y0.4184 
G01 X-0.6729 Y0.4184 
G01 X-0.6582 Y0.4037 
G01 X-0.6582 Y0.2663 
G01 X-0.6614 Y0.2631 
G01 X-0.5131 Y0.2631 
G01 X-0.5131 Y0.9869 
G01 X-0.7369 Y0.9869 
G01 X-0.7369 Y0.9239 
G01 X-0.7739 Y0.8869 
G01 X-0.8261 Y0.8869 
G01 X-0.8549 Y0.9157 
G01 X-0.8549 Y0.7951 
G01 X-0.8272 Y0.7951 
G01 X-0.8212 Y0.8011 
G01 X-0.7788 Y0.8011 
G01 X-0.7489 Y0.7712 
G01 X-0.7489 Y0.7288 
G01 X-0.7549 Y0.7228 
G01 X-0.7549 Y0.6721 
G01 X-0.7263 Y0.6603 
G01 X-0.6897 Y0.6237 
G01 X-0.6699 Y0.5759 
G01 X-0.6699 Y0.5241 
G01 X-0.6897 Y0.4763 
G01 X-0.7263 Y0.4397 
G01 X-0.7741 Y0.4199 
G01 X-0.8259 Y0.4199 
G01 X-0.8737 Y0.4397 
G01 X-0.9103 Y0.4763 
G01 X-0.9301 Y0.5241 
G01 X-0.9301 Y0.5759 
G01 X-0.9103 Y0.6237 
G01 X-0.8737 Y0.6603 
G01 X-0.8451 Y0.6721 
G01 X-0.8451 Y0.7049 
G01 X-0.8813 Y0.7049 
G01 X-0.9187 Y0.7049 
G01 X-0.9672 Y0.7049 
G01 X-0.9772 Y0.6949 
G01 X-1.0228 Y0.6949 
G01 X-1.0551 Y0.7272 
G00 Z0.0200 
G00 X-2.5011 Y1.2788 
G01 Z-0.0100 F10.00 
G01 X-2.5011 Y1.2873 
G01 X-2.8187 Y1.6049 
G01 X-2.9687 Y1.6049 
G01 X-2.9951 Y1.6313 
G01 X-2.9951 Y1.6687 
G01 X-2.9951 Y1.8468 
G01 X-3.0000 Y1.8517 
G01 X-3.0049 Y1.8468 
G01 X-3.0049 Y1.5451 
G01 X-2.9828 Y1.5451 
G01 X-2.9728 Y1.5551 
G01 X-2.9272 Y1.5551 
G01 X-2.9172 Y1.5451 
G01 X-2.8813 Y1.5451 
G01 X-2.6873 Y1.3511 
G01 X-2.6788 Y1.3511 
G01 X-2.6489 Y1.3212 
G01 X-2.6489 Y1.2788 
G01 X-2.6788 Y1.2489 
G01 X-2.7212 Y1.2489 
G01 X-2.7511 Y1.2788 
G01 X-2.7511 Y1.2873 
G01 X-2.9179 Y1.4542 
G01 X-2.9272 Y1.4449 
G01 X-2.9728 Y1.4449 
G01 X-2.9828 Y1.4549 
G01 X-3.0669 Y1.4549 
G01 X-3.0669 Y0.9631 
G01 X-2.9721 Y0.9631 
G01 X-2.7421 Y1.1471 
G01 X-2.7261 Y1.1631 
G01 X-2.7221 Y1.1631 
G01 X-2.6739 Y1.1631 
G01 X-2.4239 Y1.1631 
G01 X-2.4079 Y1.1471 
G01 X-2.1779 Y0.9631 
G01 X-2.0261 Y0.9631 
G01 X-1.8631 Y1.1261 
G01 X-1.8631 Y1.4761 
G01 X-1.8261 Y1.5131 
G01 X-1.7739 Y1.5131 
G01 X-1.7369 Y1.4761 
G01 X-1.7369 Y1.1631 
G01 X-1.4352 Y1.1631 
G01 X-1.4212 Y1.1771 
G01 X-1.3788 Y1.1771 
G01 X-1.3648 Y1.1631 
G01 X-1.3352 Y1.1631 
G01 X-1.3212 Y1.1771 
G01 X-1.2788 Y1.1771 
G01 X-1.2648 Y1.1631 
G01 X-1.2352 Y1.1631 
G01 X-1.2212 Y1.1771 
G01 X-1.1788 Y1.1771 
G01 X-1.1500 Y1.1483 
G01 X-1.1212 Y1.1771 
G01 X-1.0788 Y1.1771 
G01 X-1.0500 Y1.1483 
G01 X-1.0451 Y1.1532 
G01 X-1.0451 Y1.2049 
G01 X-1.0813 Y1.2049 
G01 X-1.3187 Y1.2049 
G01 X-1.4187 Y1.2049 
G01 X-1.4451 Y1.2313 
G01 X-1.4451 Y1.2687 
G01 X-1.4451 Y1.3468 
G01 X-1.4511 Y1.3528 
G01 X-1.4511 Y1.4472 
G01 X-1.4212 Y1.4771 
G01 X-1.3788 Y1.4771 
G01 X-1.3500 Y1.4483 
G01 X-1.3212 Y1.4771 
G01 X-1.2788 Y1.4771 
G01 X-1.2500 Y1.4483 
G01 X-1.2451 Y1.4532 
G01 X-1.2451 Y1.8672 
G01 X-1.2551 Y1.8772 
G01 X-1.2551 Y1.9228 
G01 X-1.2228 Y1.9551 
G01 X-1.1772 Y1.9551 
G01 X-1.1451 Y1.9230 
G01 X-1.1451 Y2.4049 
G01 X-1.1813 Y2.4049 
G01 X-1.2187 Y2.4049 
G01 X-1.2451 Y2.4313 
G01 X-1.2451 Y2.5228 
G01 X-1.2511 Y2.5288 
G01 X-1.2511 Y2.5712 
G01 X-1.2212 Y2.6011 
G01 X-1.1788 Y2.6011 
G01 X-1.1489 Y2.5712 
G01 X-1.1489 Y2.5288 
G01 X-1.1549 Y2.5228 
G01 X-1.1549 Y2.4951 
G01 X-1.1272 Y2.4951 
G01 X-1.1212 Y2.5011 
G01 X-1.0788 Y2.5011 
G01 X-1.0489 Y2.4712 
G01 X-1.0489 Y2.4288 
G01 X-1.0549 Y2.4228 
G01 X-1.0549 Y2.3730 
G01 X-1.0451 Y2.3828 
G01 X-1.0451 Y2.5228 
G01 X-1.0511 Y2.5288 
G01 X-1.0511 Y2.5712 
G01 X-1.0212 Y2.6011 
G01 X-0.9788 Y2.6011 
G01 X-0.9489 Y2.5712 
G01 X-0.9489 Y2.5288 
G01 X-0.9549 Y2.5228 
G01 X-0.9549 Y2.3828 
G01 X-0.9449 Y2.3728 
G01 X-0.9449 Y2.3272 
G01 X-0.9772 Y2.2949 
G01 X-1.0228 Y2.2949 
G01 X-1.0549 Y2.3270 
G01 X-1.0549 Y1.7730 
G01 X-1.0228 Y1.8051 
G01 X-0.9772 Y1.8051 
G01 X-0.9672 Y1.7951 
G01 X-0.9272 Y1.7951 
G01 X-0.9212 Y1.8011 
G01 X-0.8788 Y1.8011 
G01 X-0.8631 Y1.7853 
G01 X-0.8631 Y2.8550 
G01 X-3.1752 Y2.8550 
G01 X-3.5869 Y2.4725 
G01 X-3.5869 Y2.4410 
G01 X-3.5728 Y2.4551 
G01 X-3.5272 Y2.4551 
G01 X-3.5172 Y2.4451 
G01 X-3.3772 Y2.4451 
G01 X-3.3712 Y2.4511 
G01 X-3.3288 Y2.4511 
G01 X-3.3000 Y2.4223 
G01 X-3.2712 Y2.4511 
G01 X-3.2288 Y2.4511 
G01 X-3.2228 Y2.4451 
G01 X-3.1687 Y2.4451 
G01 X-3.1313 Y2.4451 
G01 X-2.9633 Y2.2771 
G01 X-2.9288 Y2.2771 
G01 X-2.9000 Y2.2483 
G01 X-2.8712 Y2.2771 
G01 X-2.8288 Y2.2771 
G01 X-2.7989 Y2.2472 
G01 X-2.7989 Y2.1528 
G01 X-2.8288 Y2.1229 
G01 X-2.8712 Y2.1229 
G01 X-2.8757 Y2.1275 
G01 X-3.0275 Y1.9757 
G01 X-3.0000 Y1.9483 
G01 X-2.9712 Y1.9771 
G01 X-2.9288 Y1.9771 
G01 X-2.9000 Y1.9483 
G01 X-2.8712 Y1.9771 
G01 X-2.8288 Y1.9771 
G01 X-2.7989 Y1.9472 
G01 X-2.7989 Y1.9451 
G01 X-2.2049 Y1.9451 
G01 X-2.1934 Y1.9566 
G01 X-2.1466 Y1.9566 
G01 X-2.1134 Y1.9234 
G01 X-2.1134 Y1.8766 
G01 X-2.1466 Y1.8434 
G01 X-2.1549 Y1.8434 
G01 X-2.1549 Y1.5328 
G01 X-2.1449 Y1.5228 
G01 X-2.1449 Y1.4772 
G01 X-2.1772 Y1.4449 
G01 X-2.2228 Y1.4449 
G01 X-2.2551 Y1.4772 
G01 X-2.2551 Y1.5228 
G01 X-2.2451 Y1.5328 
G01 X-2.2451 Y1.8549 
G01 X-2.7989 Y1.8549 
G01 X-2.7989 Y1.8528 
G01 X-2.8288 Y1.8229 
G01 X-2.8712 Y1.8229 
G01 X-2.9000 Y1.8517 
G01 X-2.9049 Y1.8468 
G01 X-2.9049 Y1.6951 
G01 X-2.8187 Y1.6951 
G01 X-2.7813 Y1.6951 
G01 X-2.4373 Y1.3511 
G01 X-2.4288 Y1.3511 
G01 X-2.3989 Y1.3212 
G01 X-2.3989 Y1.2788 
G01 X-2.4288 Y1.2489 
G01 X-2.4712 Y1.2489 
G01 X-2.5011 Y1.2788 
G00 Z0.0200 
G00 X-1.8511 Y1.6288 
G01 Z-0.0100 F10.00 
G01 X-1.8511 Y1.6712 
G01 X-1.8451 Y1.6772 
G01 X-1.8451 Y1.8549 
G01 X-1.9951 Y1.8549 
G01 X-1.9979 Y1.8520 
G01 X-2.0187 Y1.8434 
G01 X-2.0413 Y1.8434 
G01 X-2.0621 Y1.8520 
G01 X-2.0780 Y1.8679 
G01 X-2.0866 Y1.8887 
G01 X-2.0866 Y1.9113 
G01 X-2.0780 Y1.9321 
G01 X-2.0621 Y1.9480 
G01 X-2.0413 Y1.9566 
G01 X-2.0187 Y1.9566 
G01 X-1.9979 Y1.9480 
G01 X-1.9951 Y1.9451 
G01 X-1.8328 Y1.9451 
G01 X-1.8228 Y1.9551 
G01 X-1.7772 Y1.9551 
G01 X-1.7449 Y1.9228 
G01 X-1.7449 Y1.8772 
G01 X-1.7549 Y1.8672 
G01 X-1.7549 Y1.6772 
G01 X-1.7489 Y1.6712 
G01 X-1.7489 Y1.6288 
G01 X-1.7788 Y1.5989 
G01 X-1.8212 Y1.5989 
G01 X-1.8511 Y1.6288 
G00 Z0.0200 
G00 X-1.0500 Y1.4483 
G01 Z-0.0100 F10.00 
G01 X-1.0451 Y1.4532 
G01 X-1.0451 Y1.7172 
G01 X-1.0549 Y1.7270 
G01 X-1.0549 Y1.4532 
G01 X-1.0500 Y1.4483 
G00 Z0.0200 
G00 X-1.1549 Y1.8672 
G01 Z-0.0100 F10.00 
G01 X-1.1549 Y1.4532 
G01 X-1.1500 Y1.4483 
G01 X-1.1451 Y1.4532 
G01 X-1.1451 Y1.8770 
G01 X-1.1549 Y1.8672 
G00 Z0.0200 
G00 X-3.2228 Y2.3549 
G01 Z-0.0100 F10.00 
G01 X-3.2288 Y2.3489 
G01 X-3.2712 Y2.3489 
G01 X-3.3000 Y2.3777 
G01 X-3.3288 Y2.3489 
G01 X-3.3712 Y2.3489 
G01 X-3.3772 Y2.3549 
G01 X-3.5172 Y2.3549 
G01 X-3.5272 Y2.3449 
G01 X-3.5728 Y2.3449 
G01 X-3.5869 Y2.3590 
G01 X-3.5869 Y2.2631 
G01 X-3.1852 Y2.2631 
G01 X-3.1712 Y2.2771 
G01 X-3.1288 Y2.2771 
G01 X-3.1148 Y2.2631 
G01 X-3.0852 Y2.2631 
G01 X-3.0810 Y2.2672 
G01 X-3.1687 Y2.3549 
G01 X-3.2228 Y2.3549 
G00 Z0.0200 
G00 X-0.3843 Y2.6962 
G01 Z-0.0100 F10.00 
G01 X-0.4377 Y2.6962 
G01 X-0.4755 Y2.7339 
G01 X-0.4755 Y2.8661 
G01 X-0.4377 Y2.9038 
G01 X-0.3843 Y2.9038 
G01 X-0.3466 Y2.8661 
G01 X-0.3466 Y2.7339 
G01 X-0.3843 Y2.6962 
G00 Z0.0200 
G00 X-3.4011 Y1.4788 
G01 Z-0.0100 F10.00 
G01 X-3.4011 Y1.5212 
G01 X-3.3712 Y1.5511 
G01 X-3.3288 Y1.5511 
G01 X-3.3228 Y1.5451 
G01 X-3.2451 Y1.5451 
G01 X-3.2451 Y1.9187 
G01 X-3.2187 Y1.9451 
G01 X-3.2011 Y1.9451 
G01 X-3.2011 Y1.9472 
G01 X-3.1951 Y1.9532 
G01 X-3.1951 Y2.0187 
G01 X-3.1687 Y2.0451 
G01 X-3.0810 Y2.1328 
G01 X-3.0852 Y2.1369 
G01 X-3.1148 Y2.1369 
G01 X-3.1288 Y2.1229 
G01 X-3.1712 Y2.1229 
G01 X-3.1852 Y2.1369 
G01 X-3.6761 Y2.1369 
G01 X-3.7131 Y2.1739 
G01 X-3.7131 Y2.2261 
G01 X-3.7131 Y2.4739 
G01 X-3.7131 Y2.5261 
G01 X-3.6938 Y2.5454 
G01 X-3.6938 Y2.5455 
G01 X-3.6761 Y2.5631 
G01 X-3.6748 Y2.5631 
G01 X-3.2438 Y2.9635 
G01 X-3.2261 Y2.9812 
G01 X-3.2248 Y2.9812 
G01 X-3.1739 Y2.9812 
G01 X-0.7739 Y2.9812 
G01 X-0.6674 Y2.9812 
G01 X-0.6661 Y2.9826 
G01 X-0.5339 Y2.9826 
G01 X-0.4962 Y2.9448 
G01 X-0.4962 Y2.8914 
G01 X-0.5339 Y2.8536 
G01 X-0.6661 Y2.8536 
G01 X-0.6674 Y2.8550 
G01 X-0.7369 Y2.8550 
G01 X-0.7369 Y1.4631 
G01 X-0.4961 Y1.4631 
G01 X-0.4761 Y1.4831 
G01 X-0.4239 Y1.4831 
G01 X-0.3869 Y1.4461 
G01 X-0.3869 Y1.4261 
G01 X-0.3869 Y1.3739 
G01 X-0.4208 Y1.3400 
G01 X-0.3869 Y1.3061 
G01 X-0.3869 Y1.1131 
G01 X-0.3131 Y1.1131 
G01 X-0.3131 Y1.4739 
G01 X-0.4761 Y1.6369 
G01 X-0.6261 Y1.6369 
G01 X-0.6631 Y1.6739 
G01 X-0.6631 Y1.7261 
G01 X-0.6631 Y2.6135 
G01 X-0.6661 Y2.6135 
G01 X-0.7038 Y2.6513 
G01 X-0.7038 Y2.7046 
G01 X-0.6661 Y2.7424 
G01 X-0.5339 Y2.7424 
G01 X-0.4962 Y2.7046 
G01 X-0.4962 Y2.6513 
G01 X-0.5290 Y2.6184 
G01 X-0.2085 Y2.6184 
G01 X-0.1938 Y2.6037 
G01 X-0.1938 Y2.4663 
G01 X-0.2085 Y2.4516 
G01 X-0.2152 Y2.4516 
G01 X-0.2152 Y2.4184 
G01 X-0.1655 Y2.4184 
G01 X-0.1508 Y2.4037 
G01 X-0.1508 Y2.2663 
G01 X-0.1655 Y2.2516 
G01 X-0.5337 Y2.2516 
G01 X-0.5369 Y2.2548 
G01 X-0.5369 Y1.7631 
G01 X-0.4761 Y1.7631 
G01 X-0.4239 Y1.7631 
G01 X-0.1869 Y1.5261 
G01 X-0.1869 Y1.4739 
G01 X-0.1869 Y1.0239 
G01 X-0.2239 Y0.9869 
G01 X-0.2761 Y0.9869 
G01 X-0.3869 Y0.9869 
G01 X-0.3869 Y0.1739 
G01 X-0.4239 Y0.1369 
G01 X-0.4761 Y0.1369 
G01 X-1.2739 Y0.1369 
G01 X-1.3261 Y0.1369 
G01 X-1.5908 Y0.4016 
G01 X-2.2480 Y0.4016 
G01 X-2.2480 Y0.3163 
G01 X-2.2627 Y0.3016 
G01 X-3.6837 Y0.3016 
G01 X-3.6984 Y0.3163 
G01 X-3.6984 Y0.4163 
G01 X-3.6984 Y0.4163 
G01 X-3.6984 Y0.5537 
G01 X-3.6984 Y0.5537 
G01 X-3.6984 Y0.6163 
G01 X-3.6984 Y0.6163 
G01 X-3.6984 Y0.7537 
G01 X-3.6837 Y0.7684 
G01 X-2.0586 Y0.7684 
G01 X-2.0439 Y0.7537 
G01 X-2.0439 Y0.6163 
G01 X-2.0586 Y0.6016 
G01 X-2.0654 Y0.6016 
G01 X-2.0654 Y0.5684 
G01 X-1.7576 Y0.5684 
G01 X-2.0261 Y0.8369 
G01 X-2.2261 Y0.8369 
G01 X-2.2421 Y0.8529 
G01 X-2.4721 Y1.0369 
G01 X-2.6779 Y1.0369 
G01 X-2.9079 Y0.8529 
G01 X-2.9239 Y0.8369 
G01 X-3.0739 Y0.8369 
G01 X-3.1739 Y0.8369 
G01 X-3.2233 Y0.8369 
G01 X-3.2261 Y0.8369 
G01 X-3.2429 Y0.8536 
G01 X-3.5733 Y1.1369 
G01 X-3.5761 Y1.1369 
G01 X-3.5929 Y1.1537 
G01 X-3.5929 Y1.1537 
G01 X-3.6131 Y1.1739 
G01 X-3.6131 Y1.2261 
G01 X-3.6131 Y1.5261 
G01 X-3.6131 Y1.8261 
G01 X-3.5761 Y1.8631 
G01 X-3.5239 Y1.8631 
G01 X-3.4869 Y1.8261 
G01 X-3.4869 Y1.5261 
G01 X-3.4869 Y1.2290 
G01 X-3.1767 Y0.9631 
G01 X-3.1331 Y0.9631 
G01 X-3.1331 Y1.8229 
G01 X-3.1549 Y1.8229 
G01 X-3.1549 Y1.5328 
G01 X-3.1449 Y1.5228 
G01 X-3.1449 Y1.4772 
G01 X-3.1772 Y1.4449 
G01 X-3.2228 Y1.4449 
G01 X-3.2328 Y1.4549 
G01 X-3.3228 Y1.4549 
G01 X-3.3288 Y1.4489 
G01 X-3.3712 Y1.4489 
G01 X-3.4011 Y1.4788 
G00 Z0.0200 
G00 X-0.9234 Y1.1819 
G01 Z-0.0100 F10.00 
G01 X-0.9282 Y1.1819 
G01 X-0.9499 Y1.2036 
G01 X-0.9499 Y1.1554 
G01 X-0.9234 Y1.1819 
G00 Z0.0200 
G00 X-0.9282 Y1.6181 
G01 Z-0.0100 F10.00 
G01 X-0.8718 Y1.6181 
G01 X-0.8681 Y1.6144 
G01 X-0.8681 Y1.7026 
G01 X-0.8768 Y1.6939 
G01 X-0.9232 Y1.6939 
G01 X-0.9292 Y1.6999 
G01 X-0.9499 Y1.6999 
G01 X-0.9499 Y1.5964 
G01 X-0.9282 Y1.6181 
G00 Z0.0200 
G00 X-0.9681 Y1.3266 
G01 Z-0.0100 F10.00 
G01 X-0.9768 Y1.3179 
G01 X-1.0232 Y1.3179 
G01 X-1.0499 Y1.3446 
G01 X-1.0499 Y1.3001 
G01 X-1.0207 Y1.3001 
G01 X-0.9792 Y1.3001 
G01 X-0.9681 Y1.2889 
G01 X-0.9681 Y1.3266 
G00 Z0.0200 
G00 X-1.1768 Y1.3179 
G01 Z-0.0100 F10.00 
G01 X-1.2232 Y1.3179 
G01 X-1.2499 Y1.3446 
G01 X-1.2499 Y1.3001 
G01 X-1.1501 Y1.3001 
G01 X-1.1501 Y1.3446 
G01 X-1.1768 Y1.3179 
G00 Z0.0200 
G00 X-0.8292 Y0.8001 
G01 Z-0.0100 F10.00 
G01 X-0.8232 Y0.8061 
G01 X-0.7768 Y0.8061 
G01 X-0.7439 Y0.7732 
G01 X-0.7439 Y0.7268 
G01 X-0.7499 Y0.7208 
G01 X-0.7499 Y0.6755 
G01 X-0.7235 Y0.6645 
G01 X-0.6855 Y0.6265 
G01 X-0.6649 Y0.5769 
G01 X-0.6649 Y0.5231 
G01 X-0.6855 Y0.4735 
G01 X-0.7235 Y0.4355 
G01 X-0.7526 Y0.4234 
G01 X-0.6708 Y0.4234 
G01 X-0.6532 Y0.4058 
G01 X-0.6532 Y0.2681 
G01 X-0.5181 Y0.2681 
G01 X-0.5181 Y0.9819 
G01 X-0.7319 Y0.9819 
G01 X-0.7319 Y0.9218 
G01 X-0.7718 Y0.8819 
G01 X-0.8282 Y0.8819 
G01 X-0.8499 Y0.9036 
G01 X-0.8499 Y0.8001 
G01 X-0.8292 Y0.8001 
G00 Z0.0200 
G00 X-1.0601 Y0.7251 
G01 Z-0.0100 F10.00 
G01 X-1.0601 Y0.7749 
G01 X-1.0249 Y0.8101 
G01 X-0.9751 Y0.8101 
G01 X-0.9651 Y0.8001 
G01 X-0.9501 Y0.8001 
G01 X-0.9501 Y0.9291 
G01 X-0.9792 Y0.8999 
G01 X-1.0207 Y0.8999 
G01 X-1.5499 Y0.8999 
G01 X-1.5499 Y0.7849 
G01 X-1.5399 Y0.7749 
G01 X-1.5399 Y0.7251 
G01 X-1.5751 Y0.6899 
G01 X-1.6249 Y0.6899 
G01 X-1.6601 Y0.7251 
G01 X-1.6601 Y0.7749 
G01 X-1.6501 Y0.7849 
G01 X-1.6501 Y0.9292 
G01 X-1.6501 Y0.9707 
G01 X-1.6207 Y1.0001 
G01 X-1.0501 Y1.0001 
G01 X-1.0501 Y1.0446 
G01 X-1.0768 Y1.0179 
G01 X-1.1232 Y1.0179 
G01 X-1.1500 Y1.0447 
G01 X-1.1768 Y1.0179 
G01 X-1.2232 Y1.0179 
G01 X-1.2372 Y1.0319 
G01 X-1.2628 Y1.0319 
G01 X-1.2768 Y1.0179 
G01 X-1.3232 Y1.0179 
G01 X-1.3372 Y1.0319 
G01 X-1.3628 Y1.0319 
G01 X-1.3768 Y1.0179 
G01 X-1.4232 Y1.0179 
G01 X-1.4372 Y1.0319 
G01 X-1.7718 Y1.0319 
G01 X-1.7718 Y1.0319 
G01 X-1.9037 Y0.9000 
G01 X-1.5771 Y0.5734 
G01 X-1.4872 Y0.5734 
G01 X-1.4696 Y0.5558 
G01 X-1.4696 Y0.4659 
G01 X-1.2718 Y0.2681 
G01 X-0.9534 Y0.2681 
G01 X-0.9534 Y0.4058 
G01 X-0.9358 Y0.4234 
G01 X-0.8474 Y0.4234 
G01 X-0.8765 Y0.4355 
G01 X-0.9145 Y0.4735 
G01 X-0.9351 Y0.5231 
G01 X-0.9351 Y0.5769 
G01 X-0.9145 Y0.6265 
G01 X-0.8765 Y0.6645 
G01 X-0.8501 Y0.6755 
G01 X-0.8501 Y0.6999 
G01 X-0.8792 Y0.6999 
G01 X-0.9207 Y0.6999 
G01 X-0.9651 Y0.6999 
G01 X-0.9751 Y0.6899 
G01 X-1.0249 Y0.6899 
G01 X-1.0601 Y0.7251 
G00 Z0.0200 
G00 X-0.8319 Y1.3266 
G01 Z-0.0100 F10.00 
G01 X-0.8319 Y1.3181 
G01 X-0.8282 Y1.3181 
G01 X-0.8234 Y1.3181 
G01 X-0.8319 Y1.3266 
G00 Z0.0200 
G00 X-0.5181 Y1.1181 
G01 Z-0.0100 F10.00 
G01 X-0.5181 Y1.3082 
G01 X-0.4944 Y1.3319 
G01 X-0.7628 Y1.3319 
G01 X-0.7766 Y1.3181 
G01 X-0.7718 Y1.3181 
G01 X-0.7319 Y1.2782 
G01 X-0.7319 Y1.1181 
G01 X-0.5181 Y1.1181 
G00 Z0.0200 
G00 X-0.8766 Y1.1819 
G01 Z-0.0100 F10.00 
G01 X-0.8681 Y1.1734 
G01 X-0.8681 Y1.1819 
G01 X-0.8766 Y1.1819 
G00 Z0.0200 
G00 X-3.2732 Y2.4561 
G01 Z-0.0100 F10.00 
G01 X-3.2268 Y2.4561 
G01 X-3.2208 Y2.4501 
G01 X-3.1707 Y2.4501 
G01 X-3.1292 Y2.4501 
G01 X-2.9612 Y2.2821 
G01 X-2.9268 Y2.2821 
G01 X-2.9000 Y2.2553 
G01 X-2.8732 Y2.2821 
G01 X-2.8268 Y2.2821 
G01 X-2.7939 Y2.2492 
G01 X-2.7939 Y2.1508 
G01 X-2.8268 Y2.1179 
G01 X-2.8732 Y2.1179 
G01 X-2.8757 Y2.1204 
G01 X-3.0204 Y1.9757 
G01 X-3.0000 Y1.9553 
G01 X-2.9732 Y1.9821 
G01 X-2.9268 Y1.9821 
G01 X-2.9000 Y1.9553 
G01 X-2.8732 Y1.9821 
G01 X-2.8268 Y1.9821 
G01 X-2.7948 Y1.9501 
G01 X-2.2070 Y1.9501 
G01 X-2.1955 Y1.9616 
G01 X-2.1445 Y1.9616 
G01 X-2.1084 Y1.9255 
G01 X-2.1084 Y1.8745 
G01 X-2.1445 Y1.8384 
G01 X-2.1499 Y1.8384 
G01 X-2.1499 Y1.5349 
G01 X-2.1399 Y1.5249 
G01 X-2.1399 Y1.4751 
G01 X-2.1751 Y1.4399 
G01 X-2.2249 Y1.4399 
G01 X-2.2601 Y1.4751 
G01 X-2.2601 Y1.5249 
G01 X-2.2501 Y1.5349 
G01 X-2.2501 Y1.8499 
G01 X-2.7948 Y1.8499 
G01 X-2.8268 Y1.8179 
G01 X-2.8732 Y1.8179 
G01 X-2.8999 Y1.8446 
G01 X-2.8999 Y1.7001 
G01 X-2.8207 Y1.7001 
G01 X-2.7792 Y1.7001 
G01 X-2.4353 Y1.3561 
G01 X-2.4268 Y1.3561 
G01 X-2.3939 Y1.3232 
G01 X-2.3939 Y1.2768 
G01 X-2.4268 Y1.2439 
G01 X-2.4732 Y1.2439 
G01 X-2.5061 Y1.2768 
G01 X-2.5061 Y1.2853 
G01 X-2.8207 Y1.5999 
G01 X-2.9707 Y1.5999 
G01 X-2.9999 Y1.6291 
G01 X-2.9999 Y1.5501 
G01 X-2.9849 Y1.5501 
G01 X-2.9749 Y1.5601 
G01 X-2.9251 Y1.5601 
G01 X-2.9151 Y1.5501 
G01 X-2.8792 Y1.5501 
G01 X-2.6852 Y1.3561 
G01 X-2.6768 Y1.3561 
G01 X-2.6439 Y1.3232 
G01 X-2.6439 Y1.2768 
G01 X-2.6768 Y1.2439 
G01 X-2.7232 Y1.2439 
G01 X-2.7561 Y1.2768 
G01 X-2.7561 Y1.2852 
G01 X-2.9179 Y1.4471 
G01 X-2.9251 Y1.4399 
G01 X-2.9749 Y1.4399 
G01 X-2.9849 Y1.4499 
G01 X-3.0619 Y1.4499 
G01 X-3.0619 Y0.9681 
G01 X-2.9739 Y0.9681 
G01 X-2.7455 Y1.1508 
G01 X-2.7282 Y1.1681 
G01 X-2.7239 Y1.1681 
G01 X-2.6718 Y1.1681 
G01 X-2.4218 Y1.1681 
G01 X-2.4045 Y1.1508 
G01 X-2.1761 Y0.9681 
G01 X-2.0282 Y0.9681 
G01 X-1.8681 Y1.1282 
G01 X-1.8681 Y1.4782 
G01 X-1.8282 Y1.5181 
G01 X-1.7718 Y1.5181 
G01 X-1.7319 Y1.4782 
G01 X-1.7319 Y1.1681 
G01 X-1.4372 Y1.1681 
G01 X-1.4232 Y1.1821 
G01 X-1.3768 Y1.1821 
G01 X-1.3628 Y1.1681 
G01 X-1.3372 Y1.1681 
G01 X-1.3232 Y1.1821 
G01 X-1.2768 Y1.1821 
G01 X-1.2628 Y1.1681 
G01 X-1.2372 Y1.1681 
G01 X-1.2232 Y1.1821 
G01 X-1.1768 Y1.1821 
G01 X-1.1500 Y1.1553 
G01 X-1.1232 Y1.1821 
G01 X-1.0768 Y1.1821 
G01 X-1.0501 Y1.1554 
G01 X-1.0501 Y1.1999 
G01 X-1.0792 Y1.1999 
G01 X-1.3207 Y1.1999 
G01 X-1.4207 Y1.1999 
G01 X-1.4501 Y1.2292 
G01 X-1.4501 Y1.2707 
G01 X-1.4501 Y1.3448 
G01 X-1.4561 Y1.3508 
G01 X-1.4561 Y1.4492 
G01 X-1.4232 Y1.4821 
G01 X-1.3768 Y1.4821 
G01 X-1.3500 Y1.4553 
G01 X-1.3232 Y1.4821 
G01 X-1.2768 Y1.4821 
G01 X-1.2501 Y1.4554 
G01 X-1.2501 Y1.8651 
G01 X-1.2601 Y1.8751 
G01 X-1.2601 Y1.9249 
G01 X-1.2249 Y1.9601 
G01 X-1.1751 Y1.9601 
G01 X-1.1501 Y1.9351 
G01 X-1.1501 Y2.3999 
G01 X-1.1792 Y2.3999 
G01 X-1.2207 Y2.3999 
G01 X-1.2501 Y2.4292 
G01 X-1.2501 Y2.5208 
G01 X-1.2561 Y2.5268 
G01 X-1.2561 Y2.5732 
G01 X-1.2232 Y2.6061 
G01 X-1.1768 Y2.6061 
G01 X-1.1439 Y2.5732 
G01 X-1.1439 Y2.5268 
G01 X-1.1499 Y2.5208 
G01 X-1.1499 Y2.5001 
G01 X-1.1292 Y2.5001 
G01 X-1.1232 Y2.5061 
G01 X-1.0768 Y2.5061 
G01 X-1.0501 Y2.4794 
G01 X-1.0501 Y2.5208 
G01 X-1.0561 Y2.5268 
G01 X-1.0561 Y2.5732 
G01 X-1.0232 Y2.6061 
G01 X-0.9768 Y2.6061 
G01 X-0.9439 Y2.5732 
G01 X-0.9439 Y2.5268 
G01 X-0.9499 Y2.5208 
G01 X-0.9499 Y2.3849 
G01 X-0.9399 Y2.3749 
G01 X-0.9399 Y2.3251 
G01 X-0.9751 Y2.2899 
G01 X-1.0249 Y2.2899 
G01 X-1.0499 Y2.3149 
G01 X-1.0499 Y1.7851 
G01 X-1.0249 Y1.8101 
G01 X-0.9751 Y1.8101 
G01 X-0.9651 Y1.8001 
G01 X-0.9292 Y1.8001 
G01 X-0.9232 Y1.8061 
G01 X-0.8768 Y1.8061 
G01 X-0.8681 Y1.7974 
G01 X-0.8681 Y2.8500 
G01 X-3.1733 Y2.8500 
G01 X-3.5819 Y2.4703 
G01 X-3.5819 Y2.4531 
G01 X-3.5749 Y2.4601 
G01 X-3.5251 Y2.4601 
G01 X-3.5151 Y2.4501 
G01 X-3.3792 Y2.4501 
G01 X-3.3732 Y2.4561 
G01 X-3.3268 Y2.4561 
G01 X-3.3000 Y2.4293 
G01 X-3.2732 Y2.4561 
G00 Z0.0200 
G00 X-1.8561 Y1.6268 
G01 Z-0.0100 F10.00 
G01 X-1.8561 Y1.6732 
G01 X-1.8501 Y1.6792 
G01 X-1.8501 Y1.8499 
G01 X-1.9930 Y1.8499 
G01 X-1.9951 Y1.8478 
G01 X-2.0177 Y1.8384 
G01 X-2.0423 Y1.8384 
G01 X-2.0649 Y1.8478 
G01 X-2.0822 Y1.8651 
G01 X-2.0916 Y1.8877 
G01 X-2.0916 Y1.9123 
G01 X-2.0822 Y1.9349 
G01 X-2.0649 Y1.9522 
G01 X-2.0423 Y1.9616 
G01 X-2.0177 Y1.9616 
G01 X-1.9951 Y1.9522 
G01 X-1.9930 Y1.9501 
G01 X-1.8349 Y1.9501 
G01 X-1.8249 Y1.9601 
G01 X-1.7751 Y1.9601 
G01 X-1.7399 Y1.9249 
G01 X-1.7399 Y1.8751 
G01 X-1.7499 Y1.8651 
G01 X-1.7499 Y1.6792 
G01 X-1.7439 Y1.6732 
G01 X-1.7439 Y1.6268 
G01 X-1.7768 Y1.5939 
G01 X-1.8232 Y1.5939 
G01 X-1.8561 Y1.6268 
G00 Z0.0200 
G00 X-3.2208 Y2.3499 
G01 Z-0.0100 F10.00 
G01 X-3.2268 Y2.3439 
G01 X-3.2732 Y2.3439 
G01 X-3.3000 Y2.3707 
G01 X-3.3268 Y2.3439 
G01 X-3.3732 Y2.3439 
G01 X-3.3792 Y2.3499 
G01 X-3.5151 Y2.3499 
G01 X-3.5251 Y2.3399 
G01 X-3.5749 Y2.3399 
G01 X-3.5819 Y2.3469 
G01 X-3.5819 Y2.2681 
G01 X-3.1872 Y2.2681 
G01 X-3.1732 Y2.2821 
G01 X-3.1268 Y2.2821 
G01 X-3.1128 Y2.2681 
G01 X-3.0889 Y2.2681 
G01 X-3.1707 Y2.3499 
G01 X-3.2208 Y2.3499 
G00 Z0.0200 
G00 X-0.3823 Y2.6912 
G01 Z-0.0100 F10.00 
G01 X-0.4398 Y2.6912 
G01 X-0.4805 Y2.7319 
G01 X-0.4805 Y2.8681 
G01 X-0.4398 Y2.9088 
G01 X-0.3823 Y2.9088 
G01 X-0.3416 Y2.8681 
G01 X-0.3416 Y2.7319 
G01 X-0.3823 Y2.6912 
G00 Z0.0200 
G00 X-3.4061 Y1.4768 
G01 Z-0.0100 F10.00 
G01 X-3.4061 Y1.5232 
G01 X-3.3732 Y1.5561 
G01 X-3.3268 Y1.5561 
G01 X-3.3208 Y1.5501 
G01 X-3.2501 Y1.5501 
G01 X-3.2501 Y1.9207 
G01 X-3.2207 Y1.9501 
G01 X-3.2052 Y1.9501 
G01 X-3.2001 Y1.9552 
G01 X-3.2001 Y2.0207 
G01 X-3.1707 Y2.0501 
G01 X-3.0889 Y2.1319 
G01 X-3.1128 Y2.1319 
G01 X-3.1268 Y2.1179 
G01 X-3.1732 Y2.1179 
G01 X-3.1872 Y2.1319 
G01 X-3.6782 Y2.1319 
G01 X-3.7181 Y2.1718 
G01 X-3.7181 Y2.2282 
G01 X-3.7181 Y2.4718 
G01 X-3.7181 Y2.5282 
G01 X-3.6973 Y2.5490 
G01 X-3.6972 Y2.5491 
G01 X-3.6782 Y2.5681 
G01 X-3.6767 Y2.5681 
G01 X-3.2472 Y2.9672 
G01 X-3.2282 Y2.9862 
G01 X-3.2267 Y2.9862 
G01 X-3.1718 Y2.9862 
G01 X-0.7718 Y2.9862 
G01 X-0.6695 Y2.9862 
G01 X-0.6681 Y2.9876 
G01 X-0.5319 Y2.9876 
G01 X-0.4912 Y2.9469 
G01 X-0.4912 Y2.8893 
G01 X-0.5319 Y2.8486 
G01 X-0.6681 Y2.8486 
G01 X-0.6695 Y2.8500 
G01 X-0.7319 Y2.8500 
G01 X-0.7319 Y1.4681 
G01 X-0.4982 Y1.4681 
G01 X-0.4782 Y1.4881 
G01 X-0.4218 Y1.4881 
G01 X-0.3819 Y1.4482 
G01 X-0.3819 Y1.4282 
G01 X-0.3819 Y1.3718 
G01 X-0.4137 Y1.3400 
G01 X-0.3819 Y1.3082 
G01 X-0.3819 Y1.1181 
G01 X-0.3181 Y1.1181 
G01 X-0.3181 Y1.4718 
G01 X-0.4782 Y1.6319 
G01 X-0.6282 Y1.6319 
G01 X-0.6681 Y1.6718 
G01 X-0.6681 Y1.7282 
G01 X-0.6681 Y2.6085 
G01 X-0.6681 Y2.6085 
G01 X-0.7088 Y2.6492 
G01 X-0.7088 Y2.7067 
G01 X-0.6681 Y2.7474 
G01 X-0.5319 Y2.7474 
G01 X-0.4912 Y2.7067 
G01 X-0.4912 Y2.6492 
G01 X-0.5169 Y2.6234 
G01 X-0.2064 Y2.6234 
G01 X-0.1888 Y2.6058 
G01 X-0.1888 Y2.4642 
G01 X-0.2064 Y2.4466 
G01 X-0.2102 Y2.4466 
G01 X-0.2102 Y2.4234 
G01 X-0.1634 Y2.4234 
G01 X-0.1458 Y2.4058 
G01 X-0.1458 Y2.2642 
G01 X-0.1634 Y2.2466 
G01 X-0.5319 Y2.2466 
G01 X-0.5319 Y1.7681 
G01 X-0.4782 Y1.7681 
G01 X-0.4218 Y1.7681 
G01 X-0.1819 Y1.5282 
G01 X-0.1819 Y1.4718 
G01 X-0.1819 Y1.0218 
G01 X-0.2218 Y0.9819 
G01 X-0.2782 Y0.9819 
G01 X-0.3819 Y0.9819 
G01 X-0.3819 Y0.1718 
G01 X-0.4218 Y0.1319 
G01 X-0.4782 Y0.1319 
G01 X-1.2718 Y0.1319 
G01 X-1.3282 Y0.1319 
G01 X-1.5929 Y0.3966 
G01 X-2.2430 Y0.3966 
G01 X-2.2430 Y0.3142 
G01 X-2.2606 Y0.2966 
G01 X-3.6858 Y0.2966 
G01 X-3.7034 Y0.3142 
G01 X-3.7034 Y0.4142 
G01 X-3.7034 Y0.4142 
G01 X-3.7034 Y0.5558 
G01 X-3.7034 Y0.5558 
G01 X-3.7034 Y0.6142 
G01 X-3.7034 Y0.6142 
G01 X-3.7034 Y0.7558 
G01 X-3.6858 Y0.7734 
G01 X-2.0565 Y0.7734 
G01 X-2.0389 Y0.7558 
G01 X-2.0389 Y0.6142 
G01 X-2.0565 Y0.5966 
G01 X-2.0604 Y0.5966 
G01 X-2.0604 Y0.5734 
G01 X-1.7697 Y0.5734 
G01 X-2.0282 Y0.8319 
G01 X-2.2282 Y0.8319 
G01 X-2.2455 Y0.8492 
G01 X-2.4739 Y1.0319 
G01 X-2.6761 Y1.0319 
G01 X-2.9045 Y0.8492 
G01 X-2.9218 Y0.8319 
G01 X-3.0718 Y0.8319 
G01 X-3.1718 Y0.8319 
G01 X-3.2252 Y0.8319 
G01 X-3.2282 Y0.8319 
G01 X-3.2463 Y0.8500 
G01 X-3.5752 Y1.1319 
G01 X-3.5782 Y1.1319 
G01 X-3.5963 Y1.1500 
G01 X-3.5963 Y1.1500 
G01 X-3.6181 Y1.1718 
G01 X-3.6181 Y1.2282 
G01 X-3.6181 Y1.5282 
G01 X-3.6181 Y1.8282 
G01 X-3.5782 Y1.8681 
G01 X-3.5218 Y1.8681 
G01 X-3.4819 Y1.8282 
G01 X-3.4819 Y1.5282 
G01 X-3.4819 Y1.2313 
G01 X-3.1748 Y0.9681 
G01 X-3.1381 Y0.9681 
G01 X-3.1381 Y1.8179 
G01 X-3.1499 Y1.8179 
G01 X-3.1499 Y1.5349 
G01 X-3.1399 Y1.5249 
G01 X-3.1399 Y1.4751 
G01 X-3.1751 Y1.4399 
G01 X-3.2249 Y1.4399 
G01 X-3.2349 Y1.4499 
G01 X-3.3208 Y1.4499 
G01 X-3.3268 Y1.4439 
G01 X-3.3732 Y1.4439 
G01 X-3.4061 Y1.4768 
(File Footer)
G00 Z0.0200 
G00 Z0.5000 
M05
M02
