( This gcode generated by /opt/eagle/ulp/pcb-gcode.ulp )
( Copyright 2005 by John Johnson. See readme.txt for licensing terms. )

( This file generated from the board /home/srussell/Documents/Capacitive Distance Sensor/Final.brd )
( This file generated  6/05/2007 14:53:52  )

( T01 0.023622 )
( T02 0.032000 )
( T03 0.039370 )
( T04 0.040000 )
( T05 0.110236 )
G20

G90
M05
G00 X5.5000 Y3.4000 Z7.6000 
M06 T01  ; 0.0236 
G00 Z0.0200 
M03
G04 P3.000000
G82 X-0.2000 Y0.2000 Z-0.1200 F5.00  R0.0200 P10.000000
G82 X-0.2000 Y2.9000 
G82 X-3.6500 Y0.2000 
G82 X-3.6500 Y2.9000 
M05
G00 X5.5000 Y3.4000 Z7.6000 
M06 T02  ; 0.0320 
G00 Z0.0200 
M03
G04 P3.000000
G82 X-0.4500 Y1.2800 Z-0.1200 F5.00  R0.0200 P10.000000
G82 X-0.4500 Y1.4200 
G82 X-0.8000 Y0.7500 
G82 X-0.8000 Y0.9500 
G82 X-0.8000 Y1.1000 
G82 X-0.8000 Y1.4000 
G82 X-0.9000 Y1.1000 
G82 X-0.9000 Y1.4000 
G82 X-0.9000 Y1.5500 
G82 X-0.9000 Y1.7500 
G82 X-1.0000 Y1.1000 
G82 X-1.0000 Y1.4000 
G82 X-1.0000 Y2.5500 
G82 X-1.1000 Y1.1000 
G82 X-1.1000 Y1.4000 
G82 X-1.1000 Y2.4500 
G82 X-1.2000 Y1.1000 
G82 X-1.2000 Y1.4000 
G82 X-1.2000 Y2.5500 
G82 X-1.3000 Y1.1000 
G82 X-1.3000 Y1.4000 
G82 X-1.4000 Y1.1000 
G82 X-1.4000 Y1.4000 
G82 X-1.8000 Y1.4500 
G82 X-1.8000 Y1.6500 
G82 X-2.0300 Y1.9000 
G82 X-2.1700 Y1.9000 
G82 X-2.4500 Y1.1000 
G82 X-2.4500 Y1.3000 
G82 X-2.7000 Y1.1000 
G82 X-2.7000 Y1.3000 
G82 X-2.8500 Y1.9000 
G82 X-2.8500 Y2.2000 
G82 X-2.9500 Y1.9000 
G82 X-2.9500 Y2.2000 
G82 X-3.0500 Y1.9000 
G82 X-3.0500 Y2.2000 
G82 X-3.1500 Y1.9000 
G82 X-3.1500 Y2.2000 
G82 X-3.2500 Y2.4000 
G82 X-3.3500 Y1.5000 
G82 X-3.3500 Y2.4000 
G82 X-3.5500 Y1.5000 
M05
G00 X5.5000 Y3.4000 Z7.6000 
M06 T03  ; 0.0394 
G00 Z0.0200 
M03
G04 P3.000000
G82 X-0.4110 Y2.8000 Z-0.1200 F5.00  R0.0200 P10.000000
G82 X-0.6000 Y2.6780 
G82 X-0.6000 Y2.9181 
M05
G00 X5.5000 Y3.4000 Z7.6000 
M06 T04  ; 0.0400 
G00 Z0.0200 
M03
G04 P3.000000
G82 X-1.0000 Y0.7500 Z-0.1200 F5.00  R0.0200 P10.000000
G82 X-1.0000 Y1.7500 
G82 X-1.0000 Y2.3500 
G82 X-1.2000 Y1.9000 
G82 X-1.6000 Y0.7500 
G82 X-1.8000 Y1.9000 
G82 X-2.2000 Y0.9000 
G82 X-2.2000 Y1.5000 
G82 X-2.9500 Y0.9000 
G82 X-2.9500 Y1.5000 
G82 X-3.2000 Y0.9000 
G82 X-3.2000 Y1.5000 
G82 X-3.5500 Y1.8000 
G82 X-3.5500 Y2.4000 
M05
G00 X5.5000 Y3.4000 Z7.6000 
M06 T05  ; 0.1102 
G00 Z0.0200 
M03
G04 P3.000000
G82 X-0.8000 Y0.5500 Z-0.1200 F5.00  R0.0200 P10.000000
(File Footer)
T01 
G00 Z0.5000 
M05
M02
