( This gcode generated by /opt/eagle/ulp/pcb-gcode.ulp )
( Copyright 2005 by John Johnson. See readme.txt for licensing terms. )

( This file generated from the board /home/srussell/Documents/Capacitive Distance Sensor/Final.brd )
( This file generated  6/05/2007 14:53:51  )

G20

G90
G00 Z0.5000 
G00 X0 Y0
M03
G04 P3.000000
G00 Z0.0200 
G00 X0.0201 Y-0.0200 
G01 Z-0.0100 F10.00 
G01 X-3.9196 Y-0.0200 
G00 Z0.0200 
G00 X0.0201 Y-0.0100 
G01 Z-0.0100 F10.00 
G01 X-3.9196 Y-0.0100 
G00 Z0.0200 
G00 X0.0201 Y0.0000 
G01 Z-0.0100 F10.00 
G01 X-3.9196 Y0.0000 
G00 Z0.0200 
G00 X0.0201 Y0.0100 
G01 Z-0.0100 F10.00 
G01 X-3.9196 Y0.0100 
G00 Z0.0200 
G00 X0.0201 Y0.0200 
G01 Z-0.0100 F10.00 
G01 X-3.9196 Y0.0200 
G00 Z0.0200 
G00 X0.0201 Y0.0300 
G01 Z-0.0100 F10.00 
G01 X-3.9196 Y0.0300 
G00 Z0.0200 
G00 X0.0201 Y0.0400 
G01 Z-0.0100 F10.00 
G01 X-3.9196 Y0.0400 
G00 Z0.0200 
G00 X0.0201 Y0.0500 
G01 Z-0.0100 F10.00 
G01 X-3.9196 Y0.0500 
G00 Z0.0200 
G00 X0.0201 Y0.0600 
G01 Z-0.0100 F10.00 
G01 X-3.9196 Y0.0600 
G00 Z0.0200 
G00 X0.0201 Y0.0700 
G01 Z-0.0100 F10.00 
G01 X-3.9196 Y0.0700 
G00 Z0.0200 
G00 X0.0201 Y0.0800 
G01 Z-0.0100 F10.00 
G01 X-3.9196 Y0.0800 
G00 Z0.0200 
G00 X0.0201 Y0.0900 
G01 Z-0.0100 F10.00 
G01 X-3.9196 Y0.0900 
G00 Z0.0200 
G00 X0.0201 Y0.1000 
G01 Z-0.0100 F10.00 
G01 X-3.9196 Y0.1000 
G00 Z0.0200 
G00 X0.0201 Y0.1100 
G01 Z-0.0100 F10.00 
G01 X-3.9196 Y0.1100 
G00 Z0.0200 
G00 X0.0201 Y0.1200 
G01 Z-0.0100 F10.00 
G01 X-3.9196 Y0.1200 
G00 Z0.0200 
G00 X0.0201 Y0.1300 
G01 Z-0.0100 F10.00 
G01 X-3.9196 Y0.1300 
G00 Z0.0200 
G00 X0.0201 Y0.1400 
G01 Z-0.0100 F10.00 
G01 X-3.9196 Y0.1400 
G00 Z0.0200 
G00 X0.0201 Y0.1500 
G01 Z-0.0100 F10.00 
G01 X-3.9196 Y0.1500 
G00 Z0.0200 
G00 X0.0201 Y0.1600 
G01 Z-0.0100 F10.00 
G01 X-0.4291 Y0.1600 
G00 Z0.0200 
G00 X-1.3209 Y0.1600 
G01 Z-0.0100 F10.00 
G01 X-3.9196 Y0.1600 
G00 Z0.0200 
G00 X0.0201 Y0.1700 
G01 Z-0.0100 F10.00 
G01 X-0.4191 Y0.1700 
G00 Z0.0200 
G00 X-1.3309 Y0.1700 
G01 Z-0.0100 F10.00 
G01 X-3.9196 Y0.1700 
G00 Z0.0200 
G00 X0.0201 Y0.1800 
G01 Z-0.0100 F10.00 
G01 X-0.4091 Y0.1800 
G00 Z0.0200 
G00 X-1.3409 Y0.1800 
G01 Z-0.0100 F10.00 
G01 X-3.9196 Y0.1800 
G00 Z0.0200 
G00 X0.0201 Y0.1900 
G01 Z-0.0100 F10.00 
G01 X-0.4069 Y0.1900 
G00 Z0.0200 
G00 X-1.3509 Y0.1900 
G01 Z-0.0100 F10.00 
G01 X-3.9196 Y0.1900 
G00 Z0.0200 
G00 X0.0201 Y0.2000 
G01 Z-0.0100 F10.00 
G01 X-0.4069 Y0.2000 
G00 Z0.0200 
G00 X-1.3609 Y0.2000 
G01 Z-0.0100 F10.00 
G01 X-3.9196 Y0.2000 
G00 Z0.0200 
G00 X0.0201 Y0.2100 
G01 Z-0.0100 F10.00 
G01 X-0.4069 Y0.2100 
G00 Z0.0200 
G00 X-1.3709 Y0.2100 
G01 Z-0.0100 F10.00 
G01 X-3.9196 Y0.2100 
G00 Z0.0200 
G00 X0.0201 Y0.2200 
G01 Z-0.0100 F10.00 
G01 X-0.4069 Y0.2200 
G00 Z0.0200 
G00 X-1.3809 Y0.2200 
G01 Z-0.0100 F10.00 
G01 X-3.9196 Y0.2200 
G00 Z0.0200 
G00 X0.0201 Y0.2300 
G01 Z-0.0100 F10.00 
G01 X-0.4069 Y0.2300 
G00 Z0.0200 
G00 X-1.3909 Y0.2300 
G01 Z-0.0100 F10.00 
G01 X-3.9196 Y0.2300 
G00 Z0.0200 
G00 X0.0201 Y0.2400 
G01 Z-0.0100 F10.00 
G01 X-0.4069 Y0.2400 
G00 Z0.0200 
G00 X-1.4009 Y0.2400 
G01 Z-0.0100 F10.00 
G01 X-3.9196 Y0.2400 
G00 Z0.0200 
G00 X0.0201 Y0.2500 
G01 Z-0.0100 F10.00 
G01 X-0.4069 Y0.2500 
G00 Z0.0200 
G00 X-0.4931 Y0.2500 
G01 Z-0.0100 F10.00 
G01 X-1.2891 Y0.2500 
G00 Z0.0200 
G00 X-1.4109 Y0.2500 
G01 Z-0.0100 F10.00 
G01 X-3.9196 Y0.2500 
G00 Z0.0200 
G00 X0.0201 Y0.2600 
G01 Z-0.0100 F10.00 
G01 X-0.4069 Y0.2600 
G00 Z0.0200 
G00 X-0.4931 Y0.2600 
G01 Z-0.0100 F10.00 
G01 X-1.2991 Y0.2600 
G00 Z0.0200 
G00 X-1.4209 Y0.2600 
G01 Z-0.0100 F10.00 
G01 X-3.9196 Y0.2600 
G00 Z0.0200 
G00 X0.0201 Y0.2700 
G01 Z-0.0100 F10.00 
G01 X-0.4069 Y0.2700 
G00 Z0.0200 
G00 X-0.4931 Y0.2700 
G01 Z-0.0100 F10.00 
G01 X-1.3091 Y0.2700 
G00 Z0.0200 
G00 X-1.4309 Y0.2700 
G01 Z-0.0100 F10.00 
G01 X-3.9196 Y0.2700 
G00 Z0.0200 
G00 X0.0201 Y0.2800 
G01 Z-0.0100 F10.00 
G01 X-0.4069 Y0.2800 
G00 Z0.0200 
G00 X-0.4931 Y0.2800 
G01 Z-0.0100 F10.00 
G01 X-0.6782 Y0.2800 
G00 Z0.0200 
G00 X-0.9284 Y0.2800 
G01 Z-0.0100 F10.00 
G01 X-1.3191 Y0.2800 
G00 Z0.0200 
G00 X-1.4409 Y0.2800 
G01 Z-0.0100 F10.00 
G01 X-3.9196 Y0.2800 
G00 Z0.0200 
G00 X0.0201 Y0.2900 
G01 Z-0.0100 F10.00 
G01 X-0.4069 Y0.2900 
G00 Z0.0200 
G00 X-0.4931 Y0.2900 
G01 Z-0.0100 F10.00 
G01 X-0.6782 Y0.2900 
G00 Z0.0200 
G00 X-0.9284 Y0.2900 
G01 Z-0.0100 F10.00 
G01 X-1.3291 Y0.2900 
G00 Z0.0200 
G00 X-1.4509 Y0.2900 
G01 Z-0.0100 F10.00 
G01 X-3.9196 Y0.2900 
G00 Z0.0200 
G00 X0.0201 Y0.3000 
G01 Z-0.0100 F10.00 
G01 X-0.4069 Y0.3000 
G00 Z0.0200 
G00 X-0.4931 Y0.3000 
G01 Z-0.0100 F10.00 
G01 X-0.6782 Y0.3000 
G00 Z0.0200 
G00 X-0.9284 Y0.3000 
G01 Z-0.0100 F10.00 
G01 X-1.3391 Y0.3000 
G00 Z0.0200 
G00 X-1.4609 Y0.3000 
G01 Z-0.0100 F10.00 
G01 X-3.9196 Y0.3000 
G00 Z0.0200 
G00 X0.0201 Y0.3100 
G01 Z-0.0100 F10.00 
G01 X-0.4069 Y0.3100 
G00 Z0.0200 
G00 X-0.4931 Y0.3100 
G01 Z-0.0100 F10.00 
G01 X-0.6782 Y0.3100 
G00 Z0.0200 
G00 X-0.9284 Y0.3100 
G01 Z-0.0100 F10.00 
G01 X-1.3491 Y0.3100 
G00 Z0.0200 
G00 X-1.4709 Y0.3100 
G01 Z-0.0100 F10.00 
G01 X-3.9196 Y0.3100 
G00 Z0.0200 
G00 X0.0201 Y0.3200 
G01 Z-0.0100 F10.00 
G01 X-0.4069 Y0.3200 
G00 Z0.0200 
G00 X-0.4931 Y0.3200 
G01 Z-0.0100 F10.00 
G01 X-0.6782 Y0.3200 
G00 Z0.0200 
G00 X-0.9284 Y0.3200 
G01 Z-0.0100 F10.00 
G01 X-1.3591 Y0.3200 
G00 Z0.0200 
G00 X-1.4809 Y0.3200 
G01 Z-0.0100 F10.00 
G01 X-3.9196 Y0.3200 
G00 Z0.0200 
G00 X0.0201 Y0.3300 
G01 Z-0.0100 F10.00 
G01 X-0.4069 Y0.3300 
G00 Z0.0200 
G00 X-0.4931 Y0.3300 
G01 Z-0.0100 F10.00 
G01 X-0.6782 Y0.3300 
G00 Z0.0200 
G00 X-0.9284 Y0.3300 
G01 Z-0.0100 F10.00 
G01 X-1.3691 Y0.3300 
G00 Z0.0200 
G00 X-1.4909 Y0.3300 
G01 Z-0.0100 F10.00 
G01 X-2.2680 Y0.3300 
G00 Z0.0200 
G00 X-3.6784 Y0.3300 
G01 Z-0.0100 F10.00 
G01 X-3.9196 Y0.3300 
G00 Z0.0200 
G00 X0.0201 Y0.3400 
G01 Z-0.0100 F10.00 
G01 X-0.4069 Y0.3400 
G00 Z0.0200 
G00 X-0.4931 Y0.3400 
G01 Z-0.0100 F10.00 
G01 X-0.6782 Y0.3400 
G00 Z0.0200 
G00 X-0.9284 Y0.3400 
G01 Z-0.0100 F10.00 
G01 X-1.3791 Y0.3400 
G00 Z0.0200 
G00 X-1.5009 Y0.3400 
G01 Z-0.0100 F10.00 
G01 X-2.2680 Y0.3400 
G00 Z0.0200 
G00 X-3.6784 Y0.3400 
G01 Z-0.0100 F10.00 
G01 X-3.9196 Y0.3400 
G00 Z0.0200 
G00 X0.0201 Y0.3500 
G01 Z-0.0100 F10.00 
G01 X-0.4069 Y0.3500 
G00 Z0.0200 
G00 X-0.4931 Y0.3500 
G01 Z-0.0100 F10.00 
G01 X-0.6782 Y0.3500 
G00 Z0.0200 
G00 X-0.9284 Y0.3500 
G01 Z-0.0100 F10.00 
G01 X-1.3891 Y0.3500 
G00 Z0.0200 
G00 X-1.5109 Y0.3500 
G01 Z-0.0100 F10.00 
G01 X-2.2680 Y0.3500 
G00 Z0.0200 
G00 X-3.6784 Y0.3500 
G01 Z-0.0100 F10.00 
G01 X-3.9196 Y0.3500 
G00 Z0.0200 
G00 X0.0201 Y0.3600 
G01 Z-0.0100 F10.00 
G01 X-0.4069 Y0.3600 
G00 Z0.0200 
G00 X-0.4931 Y0.3600 
G01 Z-0.0100 F10.00 
G01 X-0.6782 Y0.3600 
G00 Z0.0200 
G00 X-0.9284 Y0.3600 
G01 Z-0.0100 F10.00 
G01 X-1.3991 Y0.3600 
G00 Z0.0200 
G00 X-1.5209 Y0.3600 
G01 Z-0.0100 F10.00 
G01 X-2.2680 Y0.3600 
G00 Z0.0200 
G00 X-3.6784 Y0.3600 
G01 Z-0.0100 F10.00 
G01 X-3.9196 Y0.3600 
G00 Z0.0200 
G00 X0.0201 Y0.3700 
G01 Z-0.0100 F10.00 
G01 X-0.4069 Y0.3700 
G00 Z0.0200 
G00 X-0.4931 Y0.3700 
G01 Z-0.0100 F10.00 
G01 X-0.6782 Y0.3700 
G00 Z0.0200 
G00 X-0.9284 Y0.3700 
G01 Z-0.0100 F10.00 
G01 X-1.4091 Y0.3700 
G00 Z0.0200 
G00 X-1.5309 Y0.3700 
G01 Z-0.0100 F10.00 
G01 X-2.2680 Y0.3700 
G00 Z0.0200 
G00 X-3.6784 Y0.3700 
G01 Z-0.0100 F10.00 
G01 X-3.9196 Y0.3700 
G00 Z0.0200 
G00 X0.0201 Y0.3800 
G01 Z-0.0100 F10.00 
G01 X-0.4069 Y0.3800 
G00 Z0.0200 
G00 X-0.4931 Y0.3800 
G01 Z-0.0100 F10.00 
G01 X-0.6782 Y0.3800 
G00 Z0.0200 
G00 X-0.9284 Y0.3800 
G01 Z-0.0100 F10.00 
G01 X-1.4191 Y0.3800 
G00 Z0.0200 
G00 X-1.5409 Y0.3800 
G01 Z-0.0100 F10.00 
G01 X-2.2680 Y0.3800 
G00 Z0.0200 
G00 X-3.6784 Y0.3800 
G01 Z-0.0100 F10.00 
G01 X-3.9196 Y0.3800 
G00 Z0.0200 
G00 X0.0201 Y0.3900 
G01 Z-0.0100 F10.00 
G01 X-0.4069 Y0.3900 
G00 Z0.0200 
G00 X-0.4931 Y0.3900 
G01 Z-0.0100 F10.00 
G01 X-0.6782 Y0.3900 
G00 Z0.0200 
G00 X-0.9284 Y0.3900 
G01 Z-0.0100 F10.00 
G01 X-1.4291 Y0.3900 
G00 Z0.0200 
G00 X-1.5509 Y0.3900 
G01 Z-0.0100 F10.00 
G01 X-2.2680 Y0.3900 
G00 Z0.0200 
G00 X-3.6784 Y0.3900 
G01 Z-0.0100 F10.00 
G01 X-3.9196 Y0.3900 
G00 Z0.0200 
G00 X0.0201 Y0.4000 
G01 Z-0.0100 F10.00 
G01 X-0.4069 Y0.4000 
G00 Z0.0200 
G00 X-0.4931 Y0.4000 
G01 Z-0.0100 F10.00 
G01 X-1.4391 Y0.4000 
G00 Z0.0200 
G00 X-1.5609 Y0.4000 
G01 Z-0.0100 F10.00 
G01 X-2.2680 Y0.4000 
G00 Z0.0200 
G00 X-3.6784 Y0.4000 
G01 Z-0.0100 F10.00 
G01 X-3.9196 Y0.4000 
G00 Z0.0200 
G00 X0.0201 Y0.4100 
G01 Z-0.0100 F10.00 
G01 X-0.4069 Y0.4100 
G00 Z0.0200 
G00 X-0.4931 Y0.4100 
G01 Z-0.0100 F10.00 
G01 X-1.4491 Y0.4100 
G00 Z0.0200 
G00 X-1.5709 Y0.4100 
G01 Z-0.0100 F10.00 
G01 X-2.2680 Y0.4100 
G00 Z0.0200 
G00 X-3.6784 Y0.4100 
G01 Z-0.0100 F10.00 
G01 X-3.9196 Y0.4100 
G00 Z0.0200 
G00 X0.0201 Y0.4200 
G01 Z-0.0100 F10.00 
G01 X-0.4069 Y0.4200 
G00 Z0.0200 
G00 X-0.4931 Y0.4200 
G01 Z-0.0100 F10.00 
G01 X-1.4591 Y0.4200 
G00 Z0.0200 
G00 X-1.5809 Y0.4200 
G01 Z-0.0100 F10.00 
G01 X-2.2680 Y0.4200 
G00 Z0.0200 
G00 X-3.6784 Y0.4200 
G01 Z-0.0100 F10.00 
G01 X-3.9196 Y0.4200 
G00 Z0.0200 
G00 X0.0201 Y0.4300 
G01 Z-0.0100 F10.00 
G01 X-0.4069 Y0.4300 
G00 Z0.0200 
G00 X-0.4931 Y0.4300 
G01 Z-0.0100 F10.00 
G01 X-1.4691 Y0.4300 
G00 Z0.0200 
G00 X-3.6784 Y0.4300 
G01 Z-0.0100 F10.00 
G01 X-3.9196 Y0.4300 
G00 Z0.0200 
G00 X0.0201 Y0.4400 
G01 Z-0.0100 F10.00 
G01 X-0.4069 Y0.4400 
G00 Z0.0200 
G00 X-0.4931 Y0.4400 
G01 Z-0.0100 F10.00 
G01 X-0.7779 Y0.4400 
G00 Z0.0200 
G00 X-0.8221 Y0.4400 
G01 Z-0.0100 F10.00 
G01 X-1.4791 Y0.4400 
G00 Z0.0200 
G00 X-3.6784 Y0.4400 
G01 Z-0.0100 F10.00 
G01 X-3.9196 Y0.4400 
G00 Z0.0200 
G00 X0.0201 Y0.4500 
G01 Z-0.0100 F10.00 
G01 X-0.4069 Y0.4500 
G00 Z0.0200 
G00 X-0.4931 Y0.4500 
G01 Z-0.0100 F10.00 
G01 X-0.7537 Y0.4500 
G00 Z0.0200 
G00 X-0.8463 Y0.4500 
G01 Z-0.0100 F10.00 
G01 X-1.4891 Y0.4500 
G00 Z0.0200 
G00 X-3.6784 Y0.4500 
G01 Z-0.0100 F10.00 
G01 X-3.9196 Y0.4500 
G00 Z0.0200 
G00 X0.0201 Y0.4600 
G01 Z-0.0100 F10.00 
G01 X-0.4069 Y0.4600 
G00 Z0.0200 
G00 X-0.4931 Y0.4600 
G01 Z-0.0100 F10.00 
G01 X-0.7343 Y0.4600 
G00 Z0.0200 
G00 X-0.8657 Y0.4600 
G01 Z-0.0100 F10.00 
G01 X-1.4946 Y0.4600 
G00 Z0.0200 
G00 X-3.6784 Y0.4600 
G01 Z-0.0100 F10.00 
G01 X-3.9196 Y0.4600 
G00 Z0.0200 
G00 X0.0201 Y0.4700 
G01 Z-0.0100 F10.00 
G01 X-0.4069 Y0.4700 
G00 Z0.0200 
G00 X-0.4931 Y0.4700 
G01 Z-0.0100 F10.00 
G01 X-0.7243 Y0.4700 
G00 Z0.0200 
G00 X-0.8757 Y0.4700 
G01 Z-0.0100 F10.00 
G01 X-1.4946 Y0.4700 
G00 Z0.0200 
G00 X-3.6784 Y0.4700 
G01 Z-0.0100 F10.00 
G01 X-3.9196 Y0.4700 
G00 Z0.0200 
G00 X0.0201 Y0.4800 
G01 Z-0.0100 F10.00 
G01 X-0.4069 Y0.4800 
G00 Z0.0200 
G00 X-0.4931 Y0.4800 
G01 Z-0.0100 F10.00 
G01 X-0.7143 Y0.4800 
G00 Z0.0200 
G00 X-0.8857 Y0.4800 
G01 Z-0.0100 F10.00 
G01 X-1.4946 Y0.4800 
G00 Z0.0200 
G00 X-3.6784 Y0.4800 
G01 Z-0.0100 F10.00 
G01 X-3.9196 Y0.4800 
G00 Z0.0200 
G00 X0.0201 Y0.4900 
G01 Z-0.0100 F10.00 
G01 X-0.4069 Y0.4900 
G00 Z0.0200 
G00 X-0.4931 Y0.4900 
G01 Z-0.0100 F10.00 
G01 X-0.7057 Y0.4900 
G00 Z0.0200 
G00 X-0.8943 Y0.4900 
G01 Z-0.0100 F10.00 
G01 X-1.4946 Y0.4900 
G00 Z0.0200 
G00 X-3.6784 Y0.4900 
G01 Z-0.0100 F10.00 
G01 X-3.9196 Y0.4900 
G00 Z0.0200 
G00 X0.0201 Y0.5000 
G01 Z-0.0100 F10.00 
G01 X-0.4069 Y0.5000 
G00 Z0.0200 
G00 X-0.4931 Y0.5000 
G01 Z-0.0100 F10.00 
G01 X-0.7015 Y0.5000 
G00 Z0.0200 
G00 X-0.8984 Y0.5000 
G01 Z-0.0100 F10.00 
G01 X-1.4946 Y0.5000 
G00 Z0.0200 
G00 X-3.6784 Y0.5000 
G01 Z-0.0100 F10.00 
G01 X-3.9196 Y0.5000 
G00 Z0.0200 
G00 X0.0201 Y0.5100 
G01 Z-0.0100 F10.00 
G01 X-0.4069 Y0.5100 
G00 Z0.0200 
G00 X-0.4931 Y0.5100 
G01 Z-0.0100 F10.00 
G01 X-0.6974 Y0.5100 
G00 Z0.0200 
G00 X-0.9026 Y0.5100 
G01 Z-0.0100 F10.00 
G01 X-1.4946 Y0.5100 
G00 Z0.0200 
G00 X-3.6784 Y0.5100 
G01 Z-0.0100 F10.00 
G01 X-3.9196 Y0.5100 
G00 Z0.0200 
G00 X0.0201 Y0.5200 
G01 Z-0.0100 F10.00 
G01 X-0.4069 Y0.5200 
G00 Z0.0200 
G00 X-0.4931 Y0.5200 
G01 Z-0.0100 F10.00 
G01 X-0.6933 Y0.5200 
G00 Z0.0200 
G00 X-0.9067 Y0.5200 
G01 Z-0.0100 F10.00 
G01 X-1.4946 Y0.5200 
G00 Z0.0200 
G00 X-3.6784 Y0.5200 
G01 Z-0.0100 F10.00 
G01 X-3.9196 Y0.5200 
G00 Z0.0200 
G00 X0.0201 Y0.5300 
G01 Z-0.0100 F10.00 
G01 X-0.4069 Y0.5300 
G00 Z0.0200 
G00 X-0.4931 Y0.5300 
G01 Z-0.0100 F10.00 
G01 X-0.6899 Y0.5300 
G00 Z0.0200 
G00 X-0.9101 Y0.5300 
G01 Z-0.0100 F10.00 
G01 X-1.4946 Y0.5300 
G00 Z0.0200 
G00 X-3.6784 Y0.5300 
G01 Z-0.0100 F10.00 
G01 X-3.9196 Y0.5300 
G00 Z0.0200 
G00 X0.0201 Y0.5400 
G01 Z-0.0100 F10.00 
G01 X-0.4069 Y0.5400 
G00 Z0.0200 
G00 X-0.4931 Y0.5400 
G01 Z-0.0100 F10.00 
G01 X-0.6899 Y0.5400 
G00 Z0.0200 
G00 X-0.9101 Y0.5400 
G01 Z-0.0100 F10.00 
G01 X-1.4946 Y0.5400 
G00 Z0.0200 
G00 X-3.6784 Y0.5400 
G01 Z-0.0100 F10.00 
G01 X-3.9196 Y0.5400 
G00 Z0.0200 
G00 X0.0201 Y0.5500 
G01 Z-0.0100 F10.00 
G01 X-0.4069 Y0.5500 
G00 Z0.0200 
G00 X-0.4931 Y0.5500 
G01 Z-0.0100 F10.00 
G01 X-0.6899 Y0.5500 
G00 Z0.0200 
G00 X-0.9101 Y0.5500 
G01 Z-0.0100 F10.00 
G01 X-1.5891 Y0.5500 
G00 Z0.0200 
G00 X-1.7109 Y0.5500 
G01 Z-0.0100 F10.00 
G01 X-2.0854 Y0.5500 
G00 Z0.0200 
G00 X-3.6784 Y0.5500 
G01 Z-0.0100 F10.00 
G01 X-3.9196 Y0.5500 
G00 Z0.0200 
G00 X0.0201 Y0.5600 
G01 Z-0.0100 F10.00 
G01 X-0.4069 Y0.5600 
G00 Z0.0200 
G00 X-0.4931 Y0.5600 
G01 Z-0.0100 F10.00 
G01 X-0.6899 Y0.5600 
G00 Z0.0200 
G00 X-0.9101 Y0.5600 
G01 Z-0.0100 F10.00 
G01 X-1.5991 Y0.5600 
G00 Z0.0200 
G00 X-1.7209 Y0.5600 
G01 Z-0.0100 F10.00 
G01 X-2.0854 Y0.5600 
G00 Z0.0200 
G00 X-3.6784 Y0.5600 
G01 Z-0.0100 F10.00 
G01 X-3.9196 Y0.5600 
G00 Z0.0200 
G00 X0.0201 Y0.5700 
G01 Z-0.0100 F10.00 
G01 X-0.4069 Y0.5700 
G00 Z0.0200 
G00 X-0.4931 Y0.5700 
G01 Z-0.0100 F10.00 
G01 X-0.6899 Y0.5700 
G00 Z0.0200 
G00 X-0.9101 Y0.5700 
G01 Z-0.0100 F10.00 
G01 X-1.6091 Y0.5700 
G00 Z0.0200 
G00 X-1.7309 Y0.5700 
G01 Z-0.0100 F10.00 
G01 X-2.0854 Y0.5700 
G00 Z0.0200 
G00 X-3.6784 Y0.5700 
G01 Z-0.0100 F10.00 
G01 X-3.9196 Y0.5700 
G00 Z0.0200 
G00 X0.0201 Y0.5800 
G01 Z-0.0100 F10.00 
G01 X-0.4069 Y0.5800 
G00 Z0.0200 
G00 X-0.4931 Y0.5800 
G01 Z-0.0100 F10.00 
G01 X-0.6933 Y0.5800 
G00 Z0.0200 
G00 X-0.9067 Y0.5800 
G01 Z-0.0100 F10.00 
G01 X-1.6191 Y0.5800 
G00 Z0.0200 
G00 X-1.7409 Y0.5800 
G01 Z-0.0100 F10.00 
G01 X-2.0854 Y0.5800 
G00 Z0.0200 
G00 X-3.6784 Y0.5800 
G01 Z-0.0100 F10.00 
G01 X-3.9196 Y0.5800 
G00 Z0.0200 
G00 X0.0201 Y0.5900 
G01 Z-0.0100 F10.00 
G01 X-0.4069 Y0.5900 
G00 Z0.0200 
G00 X-0.4931 Y0.5900 
G01 Z-0.0100 F10.00 
G01 X-0.6974 Y0.5900 
G00 Z0.0200 
G00 X-0.9026 Y0.5900 
G01 Z-0.0100 F10.00 
G01 X-1.6291 Y0.5900 
G00 Z0.0200 
G00 X-1.7509 Y0.5900 
G01 Z-0.0100 F10.00 
G01 X-2.0854 Y0.5900 
G00 Z0.0200 
G00 X-3.6784 Y0.5900 
G01 Z-0.0100 F10.00 
G01 X-3.9196 Y0.5900 
G00 Z0.0200 
G00 X0.0201 Y0.6000 
G01 Z-0.0100 F10.00 
G01 X-0.4069 Y0.6000 
G00 Z0.0200 
G00 X-0.4931 Y0.6000 
G01 Z-0.0100 F10.00 
G01 X-0.7015 Y0.6000 
G00 Z0.0200 
G00 X-0.8985 Y0.6000 
G01 Z-0.0100 F10.00 
G01 X-1.6391 Y0.6000 
G00 Z0.0200 
G00 X-1.7609 Y0.6000 
G01 Z-0.0100 F10.00 
G01 X-2.0854 Y0.6000 
G00 Z0.0200 
G00 X-3.6784 Y0.6000 
G01 Z-0.0100 F10.00 
G01 X-3.9196 Y0.6000 
G00 Z0.0200 
G00 X0.0201 Y0.6100 
G01 Z-0.0100 F10.00 
G01 X-0.4069 Y0.6100 
G00 Z0.0200 
G00 X-0.4931 Y0.6100 
G01 Z-0.0100 F10.00 
G01 X-0.7057 Y0.6100 
G00 Z0.0200 
G00 X-0.8943 Y0.6100 
G01 Z-0.0100 F10.00 
G01 X-1.6491 Y0.6100 
G00 Z0.0200 
G00 X-1.7709 Y0.6100 
G01 Z-0.0100 F10.00 
G01 X-2.0854 Y0.6100 
G00 Z0.0200 
G00 X-3.6784 Y0.6100 
G01 Z-0.0100 F10.00 
G01 X-3.9196 Y0.6100 
G00 Z0.0200 
G00 X0.0201 Y0.6200 
G01 Z-0.0100 F10.00 
G01 X-0.4069 Y0.6200 
G00 Z0.0200 
G00 X-0.4931 Y0.6200 
G01 Z-0.0100 F10.00 
G01 X-0.7143 Y0.6200 
G00 Z0.0200 
G00 X-0.8857 Y0.6200 
G01 Z-0.0100 F10.00 
G01 X-1.6591 Y0.6200 
G00 Z0.0200 
G00 X-1.7809 Y0.6200 
G01 Z-0.0100 F10.00 
G01 X-2.0854 Y0.6200 
G00 Z0.0200 
G00 X-3.6784 Y0.6200 
G01 Z-0.0100 F10.00 
G01 X-3.9196 Y0.6200 
G00 Z0.0200 
G00 X0.0201 Y0.6300 
G01 Z-0.0100 F10.00 
G01 X-0.4069 Y0.6300 
G00 Z0.0200 
G00 X-0.4931 Y0.6300 
G01 Z-0.0100 F10.00 
G01 X-0.7243 Y0.6300 
G00 Z0.0200 
G00 X-0.8757 Y0.6300 
G01 Z-0.0100 F10.00 
G01 X-1.6691 Y0.6300 
G00 Z0.0200 
G00 X-1.7909 Y0.6300 
G01 Z-0.0100 F10.00 
G01 X-2.0639 Y0.6300 
G00 Z0.0200 
G00 X-3.6784 Y0.6300 
G01 Z-0.0100 F10.00 
G01 X-3.9196 Y0.6300 
G00 Z0.0200 
G00 X0.0201 Y0.6400 
G01 Z-0.0100 F10.00 
G01 X-0.4069 Y0.6400 
G00 Z0.0200 
G00 X-0.4931 Y0.6400 
G01 Z-0.0100 F10.00 
G01 X-0.7343 Y0.6400 
G00 Z0.0200 
G00 X-0.8657 Y0.6400 
G01 Z-0.0100 F10.00 
G01 X-1.6791 Y0.6400 
G00 Z0.0200 
G00 X-1.8009 Y0.6400 
G01 Z-0.0100 F10.00 
G01 X-2.0639 Y0.6400 
G00 Z0.0200 
G00 X-3.6784 Y0.6400 
G01 Z-0.0100 F10.00 
G01 X-3.9196 Y0.6400 
G00 Z0.0200 
G00 X0.0201 Y0.6500 
G01 Z-0.0100 F10.00 
G01 X-0.4069 Y0.6500 
G00 Z0.0200 
G00 X-0.4931 Y0.6500 
G01 Z-0.0100 F10.00 
G01 X-0.7537 Y0.6500 
G00 Z0.0200 
G00 X-0.8463 Y0.6500 
G01 Z-0.0100 F10.00 
G01 X-1.6891 Y0.6500 
G00 Z0.0200 
G00 X-1.8109 Y0.6500 
G01 Z-0.0100 F10.00 
G01 X-2.0639 Y0.6500 
G00 Z0.0200 
G00 X-3.6784 Y0.6500 
G01 Z-0.0100 F10.00 
G01 X-3.9196 Y0.6500 
G00 Z0.0200 
G00 X0.0201 Y0.6600 
G01 Z-0.0100 F10.00 
G01 X-0.4069 Y0.6600 
G00 Z0.0200 
G00 X-0.4931 Y0.6600 
G01 Z-0.0100 F10.00 
G01 X-0.7749 Y0.6600 
G00 Z0.0200 
G00 X-0.8251 Y0.6600 
G01 Z-0.0100 F10.00 
G01 X-1.6991 Y0.6600 
G00 Z0.0200 
G00 X-1.8209 Y0.6600 
G01 Z-0.0100 F10.00 
G01 X-2.0639 Y0.6600 
G00 Z0.0200 
G00 X-3.6784 Y0.6600 
G01 Z-0.0100 F10.00 
G01 X-3.9196 Y0.6600 
G00 Z0.0200 
G00 X0.0201 Y0.6700 
G01 Z-0.0100 F10.00 
G01 X-0.4069 Y0.6700 
G00 Z0.0200 
G00 X-0.4931 Y0.6700 
G01 Z-0.0100 F10.00 
G01 X-0.7749 Y0.6700 
G00 Z0.0200 
G00 X-0.8251 Y0.6700 
G01 Z-0.0100 F10.00 
G01 X-1.7091 Y0.6700 
G00 Z0.0200 
G00 X-1.8309 Y0.6700 
G01 Z-0.0100 F10.00 
G01 X-2.0639 Y0.6700 
G00 Z0.0200 
G00 X-3.6784 Y0.6700 
G01 Z-0.0100 F10.00 
G01 X-3.9196 Y0.6700 
G00 Z0.0200 
G00 X0.0201 Y0.6800 
G01 Z-0.0100 F10.00 
G01 X-0.4069 Y0.6800 
G00 Z0.0200 
G00 X-0.4931 Y0.6800 
G01 Z-0.0100 F10.00 
G01 X-0.7749 Y0.6800 
G00 Z0.0200 
G00 X-0.8251 Y0.6800 
G01 Z-0.0100 F10.00 
G01 X-1.7191 Y0.6800 
G00 Z0.0200 
G00 X-1.8409 Y0.6800 
G01 Z-0.0100 F10.00 
G01 X-2.0639 Y0.6800 
G00 Z0.0200 
G00 X-3.6784 Y0.6800 
G01 Z-0.0100 F10.00 
G01 X-3.9196 Y0.6800 
G00 Z0.0200 
G00 X0.0201 Y0.6900 
G01 Z-0.0100 F10.00 
G01 X-0.4069 Y0.6900 
G00 Z0.0200 
G00 X-0.4931 Y0.6900 
G01 Z-0.0100 F10.00 
G01 X-0.7749 Y0.6900 
G00 Z0.0200 
G00 X-0.8251 Y0.6900 
G01 Z-0.0100 F10.00 
G01 X-1.7291 Y0.6900 
G00 Z0.0200 
G00 X-1.8509 Y0.6900 
G01 Z-0.0100 F10.00 
G01 X-2.0639 Y0.6900 
G00 Z0.0200 
G00 X-3.6784 Y0.6900 
G01 Z-0.0100 F10.00 
G01 X-3.9196 Y0.6900 
G00 Z0.0200 
G00 X0.0201 Y0.7000 
G01 Z-0.0100 F10.00 
G01 X-0.4069 Y0.7000 
G00 Z0.0200 
G00 X-0.4931 Y0.7000 
G01 Z-0.0100 F10.00 
G01 X-0.7749 Y0.7000 
G00 Z0.0200 
G00 X-0.8251 Y0.7000 
G01 Z-0.0100 F10.00 
G01 X-1.7391 Y0.7000 
G00 Z0.0200 
G00 X-1.8609 Y0.7000 
G01 Z-0.0100 F10.00 
G01 X-2.0639 Y0.7000 
G00 Z0.0200 
G00 X-3.6784 Y0.7000 
G01 Z-0.0100 F10.00 
G01 X-3.9196 Y0.7000 
G00 Z0.0200 
G00 X0.0201 Y0.7100 
G01 Z-0.0100 F10.00 
G01 X-0.4069 Y0.7100 
G00 Z0.0200 
G00 X-0.4931 Y0.7100 
G01 Z-0.0100 F10.00 
G01 X-0.7749 Y0.7100 
G00 Z0.0200 
G00 X-0.8251 Y0.7100 
G01 Z-0.0100 F10.00 
G01 X-1.7491 Y0.7100 
G00 Z0.0200 
G00 X-1.8709 Y0.7100 
G01 Z-0.0100 F10.00 
G01 X-2.0639 Y0.7100 
G00 Z0.0200 
G00 X-3.6784 Y0.7100 
G01 Z-0.0100 F10.00 
G01 X-3.9196 Y0.7100 
G00 Z0.0200 
G00 X0.0201 Y0.7200 
G01 Z-0.0100 F10.00 
G01 X-0.4069 Y0.7200 
G00 Z0.0200 
G00 X-0.4931 Y0.7200 
G01 Z-0.0100 F10.00 
G01 X-0.7749 Y0.7200 
G00 Z0.0200 
G00 X-0.8251 Y0.7200 
G01 Z-0.0100 F10.00 
G01 X-0.9804 Y0.7200 
G00 Z0.0200 
G00 X-1.0196 Y0.7200 
G01 Z-0.0100 F10.00 
G01 X-1.5804 Y0.7200 
G00 Z0.0200 
G00 X-1.6196 Y0.7200 
G01 Z-0.0100 F10.00 
G01 X-1.7591 Y0.7200 
G00 Z0.0200 
G00 X-1.8809 Y0.7200 
G01 Z-0.0100 F10.00 
G01 X-2.0639 Y0.7200 
G00 Z0.0200 
G00 X-3.6784 Y0.7200 
G01 Z-0.0100 F10.00 
G01 X-3.9196 Y0.7200 
G00 Z0.0200 
G00 X0.0201 Y0.7300 
G01 Z-0.0100 F10.00 
G01 X-0.4069 Y0.7300 
G00 Z0.0200 
G00 X-0.4931 Y0.7300 
G01 Z-0.0100 F10.00 
G01 X-0.7749 Y0.7300 
G00 Z0.0200 
G00 X-1.0296 Y0.7300 
G01 Z-0.0100 F10.00 
G01 X-1.5704 Y0.7300 
G00 Z0.0200 
G00 X-1.6296 Y0.7300 
G01 Z-0.0100 F10.00 
G01 X-1.7691 Y0.7300 
G00 Z0.0200 
G00 X-1.8909 Y0.7300 
G01 Z-0.0100 F10.00 
G01 X-2.0639 Y0.7300 
G00 Z0.0200 
G00 X-3.6784 Y0.7300 
G01 Z-0.0100 F10.00 
G01 X-3.9196 Y0.7300 
G00 Z0.0200 
G00 X0.0201 Y0.7400 
G01 Z-0.0100 F10.00 
G01 X-0.4069 Y0.7400 
G00 Z0.0200 
G00 X-0.4931 Y0.7400 
G01 Z-0.0100 F10.00 
G01 X-0.7689 Y0.7400 
G00 Z0.0200 
G00 X-1.0351 Y0.7400 
G01 Z-0.0100 F10.00 
G01 X-1.5649 Y0.7400 
G00 Z0.0200 
G00 X-1.6351 Y0.7400 
G01 Z-0.0100 F10.00 
G01 X-1.7791 Y0.7400 
G00 Z0.0200 
G00 X-1.9009 Y0.7400 
G01 Z-0.0100 F10.00 
G01 X-2.0639 Y0.7400 
G00 Z0.0200 
G00 X-3.6784 Y0.7400 
G01 Z-0.0100 F10.00 
G01 X-3.9196 Y0.7400 
G00 Z0.0200 
G00 X0.0201 Y0.7500 
G01 Z-0.0100 F10.00 
G01 X-0.4069 Y0.7500 
G00 Z0.0200 
G00 X-0.4931 Y0.7500 
G01 Z-0.0100 F10.00 
G01 X-0.7689 Y0.7500 
G00 Z0.0200 
G00 X-1.0351 Y0.7500 
G01 Z-0.0100 F10.00 
G01 X-1.5649 Y0.7500 
G00 Z0.0200 
G00 X-1.6351 Y0.7500 
G01 Z-0.0100 F10.00 
G01 X-1.7891 Y0.7500 
G00 Z0.0200 
G00 X-1.9109 Y0.7500 
G01 Z-0.0100 F10.00 
G01 X-3.9196 Y0.7500 
G00 Z0.0200 
G00 X0.0201 Y0.7600 
G01 Z-0.0100 F10.00 
G01 X-0.4069 Y0.7600 
G00 Z0.0200 
G00 X-0.4931 Y0.7600 
G01 Z-0.0100 F10.00 
G01 X-0.7689 Y0.7600 
G00 Z0.0200 
G00 X-1.0351 Y0.7600 
G01 Z-0.0100 F10.00 
G01 X-1.5649 Y0.7600 
G00 Z0.0200 
G00 X-1.6351 Y0.7600 
G01 Z-0.0100 F10.00 
G01 X-1.7991 Y0.7600 
G00 Z0.0200 
G00 X-1.9209 Y0.7600 
G01 Z-0.0100 F10.00 
G01 X-3.9196 Y0.7600 
G00 Z0.0200 
G00 X0.0201 Y0.7700 
G01 Z-0.0100 F10.00 
G01 X-0.4069 Y0.7700 
G00 Z0.0200 
G00 X-0.4931 Y0.7700 
G01 Z-0.0100 F10.00 
G01 X-0.7760 Y0.7700 
G00 Z0.0200 
G00 X-1.0296 Y0.7700 
G01 Z-0.0100 F10.00 
G01 X-1.5704 Y0.7700 
G00 Z0.0200 
G00 X-1.6296 Y0.7700 
G01 Z-0.0100 F10.00 
G01 X-1.8091 Y0.7700 
G00 Z0.0200 
G00 X-1.9309 Y0.7700 
G01 Z-0.0100 F10.00 
G01 X-3.9196 Y0.7700 
G00 Z0.0200 
G00 X0.0201 Y0.7800 
G01 Z-0.0100 F10.00 
G01 X-0.4069 Y0.7800 
G00 Z0.0200 
G00 X-0.4931 Y0.7800 
G01 Z-0.0100 F10.00 
G01 X-0.7860 Y0.7800 
G00 Z0.0200 
G00 X-0.8140 Y0.7800 
G01 Z-0.0100 F10.00 
G01 X-0.8749 Y0.7800 
G00 Z0.0200 
G00 X-0.9251 Y0.7800 
G01 Z-0.0100 F10.00 
G01 X-0.9804 Y0.7800 
G00 Z0.0200 
G00 X-1.0196 Y0.7800 
G01 Z-0.0100 F10.00 
G01 X-1.5749 Y0.7800 
G00 Z0.0200 
G00 X-1.6251 Y0.7800 
G01 Z-0.0100 F10.00 
G01 X-1.8191 Y0.7800 
G00 Z0.0200 
G00 X-1.9409 Y0.7800 
G01 Z-0.0100 F10.00 
G01 X-3.9196 Y0.7800 
G00 Z0.0200 
G00 X0.0201 Y0.7900 
G01 Z-0.0100 F10.00 
G01 X-0.4069 Y0.7900 
G00 Z0.0200 
G00 X-0.4931 Y0.7900 
G01 Z-0.0100 F10.00 
G01 X-0.8749 Y0.7900 
G00 Z0.0200 
G00 X-0.9251 Y0.7900 
G01 Z-0.0100 F10.00 
G01 X-1.5749 Y0.7900 
G00 Z0.0200 
G00 X-1.6251 Y0.7900 
G01 Z-0.0100 F10.00 
G01 X-1.8291 Y0.7900 
G00 Z0.0200 
G00 X-1.9509 Y0.7900 
G01 Z-0.0100 F10.00 
G01 X-3.9196 Y0.7900 
G00 Z0.0200 
G00 X0.0201 Y0.8000 
G01 Z-0.0100 F10.00 
G01 X-0.4069 Y0.8000 
G00 Z0.0200 
G00 X-0.4931 Y0.8000 
G01 Z-0.0100 F10.00 
G01 X-0.8749 Y0.8000 
G00 Z0.0200 
G00 X-0.9251 Y0.8000 
G01 Z-0.0100 F10.00 
G01 X-1.5749 Y0.8000 
G00 Z0.0200 
G00 X-1.6251 Y0.8000 
G01 Z-0.0100 F10.00 
G01 X-1.8391 Y0.8000 
G00 Z0.0200 
G00 X-1.9609 Y0.8000 
G01 Z-0.0100 F10.00 
G01 X-3.9196 Y0.8000 
G00 Z0.0200 
G00 X0.0201 Y0.8100 
G01 Z-0.0100 F10.00 
G01 X-0.4069 Y0.8100 
G00 Z0.0200 
G00 X-0.4931 Y0.8100 
G01 Z-0.0100 F10.00 
G01 X-0.8749 Y0.8100 
G00 Z0.0200 
G00 X-0.9251 Y0.8100 
G01 Z-0.0100 F10.00 
G01 X-1.5749 Y0.8100 
G00 Z0.0200 
G00 X-1.6251 Y0.8100 
G01 Z-0.0100 F10.00 
G01 X-1.8491 Y0.8100 
G00 Z0.0200 
G00 X-1.9709 Y0.8100 
G01 Z-0.0100 F10.00 
G01 X-3.9196 Y0.8100 
G00 Z0.0200 
G00 X0.0201 Y0.8200 
G01 Z-0.0100 F10.00 
G01 X-0.4069 Y0.8200 
G00 Z0.0200 
G00 X-0.4931 Y0.8200 
G01 Z-0.0100 F10.00 
G01 X-0.8749 Y0.8200 
G00 Z0.0200 
G00 X-0.9251 Y0.8200 
G01 Z-0.0100 F10.00 
G01 X-1.5749 Y0.8200 
G00 Z0.0200 
G00 X-1.6251 Y0.8200 
G01 Z-0.0100 F10.00 
G01 X-1.8591 Y0.8200 
G00 Z0.0200 
G00 X-1.9809 Y0.8200 
G01 Z-0.0100 F10.00 
G01 X-3.9196 Y0.8200 
G00 Z0.0200 
G00 X0.0201 Y0.8300 
G01 Z-0.0100 F10.00 
G01 X-0.4069 Y0.8300 
G00 Z0.0200 
G00 X-0.4931 Y0.8300 
G01 Z-0.0100 F10.00 
G01 X-0.8749 Y0.8300 
G00 Z0.0200 
G00 X-0.9251 Y0.8300 
G01 Z-0.0100 F10.00 
G01 X-1.5749 Y0.8300 
G00 Z0.0200 
G00 X-1.6251 Y0.8300 
G01 Z-0.0100 F10.00 
G01 X-1.8691 Y0.8300 
G00 Z0.0200 
G00 X-1.9909 Y0.8300 
G01 Z-0.0100 F10.00 
G01 X-3.9196 Y0.8300 
G00 Z0.0200 
G00 X0.0201 Y0.8400 
G01 Z-0.0100 F10.00 
G01 X-0.4069 Y0.8400 
G00 Z0.0200 
G00 X-0.4931 Y0.8400 
G01 Z-0.0100 F10.00 
G01 X-0.8749 Y0.8400 
G00 Z0.0200 
G00 X-0.9251 Y0.8400 
G01 Z-0.0100 F10.00 
G01 X-1.5749 Y0.8400 
G00 Z0.0200 
G00 X-1.6251 Y0.8400 
G01 Z-0.0100 F10.00 
G01 X-1.8791 Y0.8400 
G00 Z0.0200 
G00 X-2.0009 Y0.8400 
G01 Z-0.0100 F10.00 
G01 X-3.9196 Y0.8400 
G00 Z0.0200 
G00 X0.0201 Y0.8500 
G01 Z-0.0100 F10.00 
G01 X-0.4069 Y0.8500 
G00 Z0.0200 
G00 X-0.4931 Y0.8500 
G01 Z-0.0100 F10.00 
G01 X-0.8749 Y0.8500 
G00 Z0.0200 
G00 X-0.9251 Y0.8500 
G01 Z-0.0100 F10.00 
G01 X-1.5749 Y0.8500 
G00 Z0.0200 
G00 X-1.6251 Y0.8500 
G01 Z-0.0100 F10.00 
G01 X-1.8891 Y0.8500 
G00 Z0.0200 
G00 X-2.0109 Y0.8500 
G01 Z-0.0100 F10.00 
G01 X-3.9196 Y0.8500 
G00 Z0.0200 
G00 X0.0201 Y0.8600 
G01 Z-0.0100 F10.00 
G01 X-0.4069 Y0.8600 
G00 Z0.0200 
G00 X-0.4931 Y0.8600 
G01 Z-0.0100 F10.00 
G01 X-0.8749 Y0.8600 
G00 Z0.0200 
G00 X-0.9251 Y0.8600 
G01 Z-0.0100 F10.00 
G01 X-1.5749 Y0.8600 
G00 Z0.0200 
G00 X-1.6251 Y0.8600 
G01 Z-0.0100 F10.00 
G01 X-1.8991 Y0.8600 
G00 Z0.0200 
G00 X-2.2209 Y0.8600 
G01 Z-0.0100 F10.00 
G01 X-2.9291 Y0.8600 
G00 Z0.0200 
G00 X-3.2209 Y0.8600 
G01 Z-0.0100 F10.00 
G01 X-3.9196 Y0.8600 
G00 Z0.0200 
G00 X0.0201 Y0.8700 
G01 Z-0.0100 F10.00 
G01 X-0.4069 Y0.8700 
G00 Z0.0200 
G00 X-0.4931 Y0.8700 
G01 Z-0.0100 F10.00 
G01 X-0.8749 Y0.8700 
G00 Z0.0200 
G00 X-0.9251 Y0.8700 
G01 Z-0.0100 F10.00 
G01 X-1.5749 Y0.8700 
G00 Z0.0200 
G00 X-1.6251 Y0.8700 
G01 Z-0.0100 F10.00 
G01 X-1.9091 Y0.8700 
G00 Z0.0200 
G00 X-2.2315 Y0.8700 
G01 Z-0.0100 F10.00 
G01 X-2.9185 Y0.8700 
G00 Z0.0200 
G00 X-3.2312 Y0.8700 
G01 Z-0.0100 F10.00 
G01 X-3.9196 Y0.8700 
G00 Z0.0200 
G00 X0.0201 Y0.8800 
G01 Z-0.0100 F10.00 
G01 X-0.4069 Y0.8800 
G00 Z0.0200 
G00 X-0.4931 Y0.8800 
G01 Z-0.0100 F10.00 
G01 X-0.8749 Y0.8800 
G00 Z0.0200 
G00 X-0.9251 Y0.8800 
G01 Z-0.0100 F10.00 
G01 X-1.5749 Y0.8800 
G00 Z0.0200 
G00 X-1.6251 Y0.8800 
G01 Z-0.0100 F10.00 
G01 X-1.9191 Y0.8800 
G00 Z0.0200 
G00 X-2.2440 Y0.8800 
G01 Z-0.0100 F10.00 
G01 X-2.9060 Y0.8800 
G00 Z0.0200 
G00 X-3.2429 Y0.8800 
G01 Z-0.0100 F10.00 
G01 X-3.9196 Y0.8800 
G00 Z0.0200 
G00 X0.0201 Y0.8900 
G01 Z-0.0100 F10.00 
G01 X-0.4069 Y0.8900 
G00 Z0.0200 
G00 X-0.4931 Y0.8900 
G01 Z-0.0100 F10.00 
G01 X-0.8749 Y0.8900 
G00 Z0.0200 
G00 X-0.9251 Y0.8900 
G01 Z-0.0100 F10.00 
G01 X-1.5749 Y0.8900 
G00 Z0.0200 
G00 X-1.6251 Y0.8900 
G01 Z-0.0100 F10.00 
G01 X-1.9291 Y0.8900 
G00 Z0.0200 
G00 X-2.2565 Y0.8900 
G01 Z-0.0100 F10.00 
G01 X-2.8935 Y0.8900 
G00 Z0.0200 
G00 X-3.2545 Y0.8900 
G01 Z-0.0100 F10.00 
G01 X-3.9196 Y0.8900 
G00 Z0.0200 
G00 X0.0201 Y0.9000 
G01 Z-0.0100 F10.00 
G01 X-0.4069 Y0.9000 
G00 Z0.0200 
G00 X-0.4931 Y0.9000 
G01 Z-0.0100 F10.00 
G01 X-0.8749 Y0.9000 
G00 Z0.0200 
G00 X-0.9251 Y0.9000 
G01 Z-0.0100 F10.00 
G01 X-1.5749 Y0.9000 
G00 Z0.0200 
G00 X-1.6251 Y0.9000 
G01 Z-0.0100 F10.00 
G01 X-1.9391 Y0.9000 
G00 Z0.0200 
G00 X-2.2690 Y0.9000 
G01 Z-0.0100 F10.00 
G01 X-2.8810 Y0.9000 
G00 Z0.0200 
G00 X-3.2662 Y0.9000 
G01 Z-0.0100 F10.00 
G01 X-3.9196 Y0.9000 
G00 Z0.0200 
G00 X0.0201 Y0.9100 
G01 Z-0.0100 F10.00 
G01 X-0.4069 Y0.9100 
G00 Z0.0200 
G00 X-0.4931 Y0.9100 
G01 Z-0.0100 F10.00 
G01 X-0.7791 Y0.9100 
G00 Z0.0200 
G00 X-0.8209 Y0.9100 
G01 Z-0.0100 F10.00 
G01 X-0.8749 Y0.9100 
G00 Z0.0200 
G00 X-0.9251 Y0.9100 
G01 Z-0.0100 F10.00 
G01 X-1.5749 Y0.9100 
G00 Z0.0200 
G00 X-1.6251 Y0.9100 
G01 Z-0.0100 F10.00 
G01 X-1.9291 Y0.9100 
G00 Z0.0200 
G00 X-2.2815 Y0.9100 
G01 Z-0.0100 F10.00 
G01 X-2.8685 Y0.9100 
G00 Z0.0200 
G00 X-3.2779 Y0.9100 
G01 Z-0.0100 F10.00 
G01 X-3.9196 Y0.9100 
G00 Z0.0200 
G00 X0.0201 Y0.9200 
G01 Z-0.0100 F10.00 
G01 X-0.4069 Y0.9200 
G00 Z0.0200 
G00 X-0.4931 Y0.9200 
G01 Z-0.0100 F10.00 
G01 X-0.7691 Y0.9200 
G00 Z0.0200 
G00 X-0.8309 Y0.9200 
G01 Z-0.0100 F10.00 
G01 X-0.8749 Y0.9200 
G00 Z0.0200 
G00 X-0.9251 Y0.9200 
G01 Z-0.0100 F10.00 
G01 X-1.5749 Y0.9200 
G00 Z0.0200 
G00 X-1.6251 Y0.9200 
G01 Z-0.0100 F10.00 
G01 X-1.9191 Y0.9200 
G00 Z0.0200 
G00 X-2.2940 Y0.9200 
G01 Z-0.0100 F10.00 
G01 X-2.8560 Y0.9200 
G00 Z0.0200 
G00 X-3.2895 Y0.9200 
G01 Z-0.0100 F10.00 
G01 X-3.9196 Y0.9200 
G00 Z0.0200 
G00 X0.0201 Y0.9300 
G01 Z-0.0100 F10.00 
G01 X-0.4069 Y0.9300 
G00 Z0.0200 
G00 X-0.4931 Y0.9300 
G01 Z-0.0100 F10.00 
G01 X-0.7591 Y0.9300 
G00 Z0.0200 
G00 X-0.8409 Y0.9300 
G01 Z-0.0100 F10.00 
G01 X-0.8749 Y0.9300 
G00 Z0.0200 
G00 X-0.9251 Y0.9300 
G01 Z-0.0100 F10.00 
G01 X-0.9845 Y0.9300 
G00 Z0.0200 
G00 X-1.6251 Y0.9300 
G01 Z-0.0100 F10.00 
G01 X-1.9091 Y0.9300 
G00 Z0.0200 
G00 X-2.3065 Y0.9300 
G01 Z-0.0100 F10.00 
G01 X-2.8435 Y0.9300 
G00 Z0.0200 
G00 X-3.3012 Y0.9300 
G01 Z-0.0100 F10.00 
G01 X-3.9196 Y0.9300 
G00 Z0.0200 
G00 X0.0201 Y0.9400 
G01 Z-0.0100 F10.00 
G01 X-0.4069 Y0.9400 
G00 Z0.0200 
G00 X-0.4931 Y0.9400 
G01 Z-0.0100 F10.00 
G01 X-0.7569 Y0.9400 
G00 Z0.0200 
G00 X-0.8431 Y0.9400 
G01 Z-0.0100 F10.00 
G01 X-0.8749 Y0.9400 
G00 Z0.0200 
G00 X-0.9251 Y0.9400 
G01 Z-0.0100 F10.00 
G01 X-0.9749 Y0.9400 
G00 Z0.0200 
G00 X-1.6251 Y0.9400 
G01 Z-0.0100 F10.00 
G01 X-1.8991 Y0.9400 
G00 Z0.0200 
G00 X-2.3190 Y0.9400 
G01 Z-0.0100 F10.00 
G01 X-2.8310 Y0.9400 
G00 Z0.0200 
G00 X-3.3129 Y0.9400 
G01 Z-0.0100 F10.00 
G01 X-3.9196 Y0.9400 
G00 Z0.0200 
G00 X0.0201 Y0.9500 
G01 Z-0.0100 F10.00 
G01 X-0.4069 Y0.9500 
G00 Z0.0200 
G00 X-0.4931 Y0.9500 
G01 Z-0.0100 F10.00 
G01 X-0.7569 Y0.9500 
G00 Z0.0200 
G00 X-0.8431 Y0.9500 
G01 Z-0.0100 F10.00 
G01 X-0.8749 Y0.9500 
G00 Z0.0200 
G00 X-0.9251 Y0.9500 
G01 Z-0.0100 F10.00 
G01 X-0.9749 Y0.9500 
G00 Z0.0200 
G00 X-1.6251 Y0.9500 
G01 Z-0.0100 F10.00 
G01 X-1.8891 Y0.9500 
G00 Z0.0200 
G00 X-2.0109 Y0.9500 
G01 Z-0.0100 F10.00 
G01 X-2.1935 Y0.9500 
G00 Z0.0200 
G00 X-2.3315 Y0.9500 
G01 Z-0.0100 F10.00 
G01 X-2.8185 Y0.9500 
G00 Z0.0200 
G00 X-2.9565 Y0.9500 
G01 Z-0.0100 F10.00 
G01 X-3.0869 Y0.9500 
G00 Z0.0200 
G00 X-3.1131 Y0.9500 
G01 Z-0.0100 F10.00 
G01 X-3.1921 Y0.9500 
G00 Z0.0200 
G00 X-3.3245 Y0.9500 
G01 Z-0.0100 F10.00 
G01 X-3.9196 Y0.9500 
G00 Z0.0200 
G00 X0.0201 Y0.9600 
G01 Z-0.0100 F10.00 
G01 X-0.4069 Y0.9600 
G00 Z0.0200 
G00 X-0.4931 Y0.9600 
G01 Z-0.0100 F10.00 
G01 X-0.7569 Y0.9600 
G00 Z0.0200 
G00 X-0.8431 Y0.9600 
G01 Z-0.0100 F10.00 
G01 X-0.8749 Y0.9600 
G00 Z0.0200 
G00 X-0.9251 Y0.9600 
G01 Z-0.0100 F10.00 
G01 X-0.9749 Y0.9600 
G00 Z0.0200 
G00 X-1.6251 Y0.9600 
G01 Z-0.0100 F10.00 
G01 X-1.8791 Y0.9600 
G00 Z0.0200 
G00 X-2.0009 Y0.9600 
G01 Z-0.0100 F10.00 
G01 X-2.2060 Y0.9600 
G00 Z0.0200 
G00 X-2.3440 Y0.9600 
G01 Z-0.0100 F10.00 
G01 X-2.8060 Y0.9600 
G00 Z0.0200 
G00 X-2.9440 Y0.9600 
G01 Z-0.0100 F10.00 
G01 X-3.0869 Y0.9600 
G00 Z0.0200 
G00 X-3.1131 Y0.9600 
G01 Z-0.0100 F10.00 
G01 X-3.2038 Y0.9600 
G00 Z0.0200 
G00 X-3.3362 Y0.9600 
G01 Z-0.0100 F10.00 
G01 X-3.9196 Y0.9600 
G00 Z0.0200 
G00 X0.0201 Y0.9700 
G01 Z-0.0100 F10.00 
G01 X-0.4069 Y0.9700 
G00 Z0.0200 
G00 X-0.4931 Y0.9700 
G01 Z-0.0100 F10.00 
G01 X-0.7569 Y0.9700 
G00 Z0.0200 
G00 X-0.8431 Y0.9700 
G01 Z-0.0100 F10.00 
G01 X-0.8749 Y0.9700 
G00 Z0.0200 
G00 X-0.9251 Y0.9700 
G01 Z-0.0100 F10.00 
G01 X-0.9749 Y0.9700 
G00 Z0.0200 
G00 X-1.6155 Y0.9700 
G01 Z-0.0100 F10.00 
G01 X-1.8691 Y0.9700 
G00 Z0.0200 
G00 X-1.9909 Y0.9700 
G01 Z-0.0100 F10.00 
G01 X-2.2185 Y0.9700 
G00 Z0.0200 
G00 X-2.3565 Y0.9700 
G01 Z-0.0100 F10.00 
G01 X-2.7935 Y0.9700 
G00 Z0.0200 
G00 X-2.9315 Y0.9700 
G01 Z-0.0100 F10.00 
G01 X-3.0869 Y0.9700 
G00 Z0.0200 
G00 X-3.1131 Y0.9700 
G01 Z-0.0100 F10.00 
G01 X-3.2155 Y0.9700 
G00 Z0.0200 
G00 X-3.3479 Y0.9700 
G01 Z-0.0100 F10.00 
G01 X-3.9196 Y0.9700 
G00 Z0.0200 
G00 X0.0201 Y0.9800 
G01 Z-0.0100 F10.00 
G01 X-0.4069 Y0.9800 
G00 Z0.0200 
G00 X-0.4931 Y0.9800 
G01 Z-0.0100 F10.00 
G01 X-0.7569 Y0.9800 
G00 Z0.0200 
G00 X-0.8431 Y0.9800 
G01 Z-0.0100 F10.00 
G01 X-0.8749 Y0.9800 
G00 Z0.0200 
G00 X-0.9251 Y0.9800 
G01 Z-0.0100 F10.00 
G01 X-0.9749 Y0.9800 
G00 Z0.0200 
G00 X-1.0251 Y0.9800 
G01 Z-0.0100 F10.00 
G01 X-1.8591 Y0.9800 
G00 Z0.0200 
G00 X-1.9809 Y0.9800 
G01 Z-0.0100 F10.00 
G01 X-2.2310 Y0.9800 
G00 Z0.0200 
G00 X-2.3690 Y0.9800 
G01 Z-0.0100 F10.00 
G01 X-2.7810 Y0.9800 
G00 Z0.0200 
G00 X-2.9190 Y0.9800 
G01 Z-0.0100 F10.00 
G01 X-3.0869 Y0.9800 
G00 Z0.0200 
G00 X-3.1131 Y0.9800 
G01 Z-0.0100 F10.00 
G01 X-3.2271 Y0.9800 
G00 Z0.0200 
G00 X-3.3595 Y0.9800 
G01 Z-0.0100 F10.00 
G01 X-3.9196 Y0.9800 
G00 Z0.0200 
G00 X0.0201 Y0.9900 
G01 Z-0.0100 F10.00 
G01 X-0.4069 Y0.9900 
G00 Z0.0200 
G00 X-0.4931 Y0.9900 
G01 Z-0.0100 F10.00 
G01 X-0.7569 Y0.9900 
G00 Z0.0200 
G00 X-0.8431 Y0.9900 
G01 Z-0.0100 F10.00 
G01 X-0.8749 Y0.9900 
G00 Z0.0200 
G00 X-0.9251 Y0.9900 
G01 Z-0.0100 F10.00 
G01 X-0.9749 Y0.9900 
G00 Z0.0200 
G00 X-1.0251 Y0.9900 
G01 Z-0.0100 F10.00 
G01 X-1.8491 Y0.9900 
G00 Z0.0200 
G00 X-1.9709 Y0.9900 
G01 Z-0.0100 F10.00 
G01 X-2.2435 Y0.9900 
G00 Z0.0200 
G00 X-2.3815 Y0.9900 
G01 Z-0.0100 F10.00 
G01 X-2.7685 Y0.9900 
G00 Z0.0200 
G00 X-2.9065 Y0.9900 
G01 Z-0.0100 F10.00 
G01 X-3.0869 Y0.9900 
G00 Z0.0200 
G00 X-3.1131 Y0.9900 
G01 Z-0.0100 F10.00 
G01 X-3.2388 Y0.9900 
G00 Z0.0200 
G00 X-3.3712 Y0.9900 
G01 Z-0.0100 F10.00 
G01 X-3.9196 Y0.9900 
G00 Z0.0200 
G00 X0.0201 Y1.0000 
G01 Z-0.0100 F10.00 
G01 X-0.4069 Y1.0000 
G00 Z0.0200 
G00 X-0.4931 Y1.0000 
G01 Z-0.0100 F10.00 
G01 X-0.7569 Y1.0000 
G00 Z0.0200 
G00 X-0.8431 Y1.0000 
G01 Z-0.0100 F10.00 
G01 X-0.8749 Y1.0000 
G00 Z0.0200 
G00 X-0.9251 Y1.0000 
G01 Z-0.0100 F10.00 
G01 X-0.9749 Y1.0000 
G00 Z0.0200 
G00 X-1.0251 Y1.0000 
G01 Z-0.0100 F10.00 
G01 X-1.8391 Y1.0000 
G00 Z0.0200 
G00 X-1.9609 Y1.0000 
G01 Z-0.0100 F10.00 
G01 X-2.2560 Y1.0000 
G00 Z0.0200 
G00 X-2.3940 Y1.0000 
G01 Z-0.0100 F10.00 
G01 X-2.7560 Y1.0000 
G00 Z0.0200 
G00 X-2.8940 Y1.0000 
G01 Z-0.0100 F10.00 
G01 X-3.0869 Y1.0000 
G00 Z0.0200 
G00 X-3.1131 Y1.0000 
G01 Z-0.0100 F10.00 
G01 X-3.2505 Y1.0000 
G00 Z0.0200 
G00 X-3.3829 Y1.0000 
G01 Z-0.0100 F10.00 
G01 X-3.9196 Y1.0000 
G00 Z0.0200 
G00 X0.0201 Y1.0100 
G01 Z-0.0100 F10.00 
G01 X-0.2291 Y1.0100 
G00 Z0.0200 
G00 X-0.8431 Y1.0100 
G01 Z-0.0100 F10.00 
G01 X-0.8749 Y1.0100 
G00 Z0.0200 
G00 X-0.9251 Y1.0100 
G01 Z-0.0100 F10.00 
G01 X-0.9749 Y1.0100 
G00 Z0.0200 
G00 X-1.0251 Y1.0100 
G01 Z-0.0100 F10.00 
G01 X-1.8291 Y1.0100 
G00 Z0.0200 
G00 X-1.9509 Y1.0100 
G01 Z-0.0100 F10.00 
G01 X-2.2685 Y1.0100 
G00 Z0.0200 
G00 X-2.4065 Y1.0100 
G01 Z-0.0100 F10.00 
G01 X-2.7435 Y1.0100 
G00 Z0.0200 
G00 X-2.8815 Y1.0100 
G01 Z-0.0100 F10.00 
G01 X-3.0869 Y1.0100 
G00 Z0.0200 
G00 X-3.1131 Y1.0100 
G01 Z-0.0100 F10.00 
G01 X-3.2621 Y1.0100 
G00 Z0.0200 
G00 X-3.3945 Y1.0100 
G01 Z-0.0100 F10.00 
G01 X-3.9196 Y1.0100 
G00 Z0.0200 
G00 X0.0201 Y1.0200 
G01 Z-0.0100 F10.00 
G01 X-0.2191 Y1.0200 
G00 Z0.0200 
G00 X-0.8431 Y1.0200 
G01 Z-0.0100 F10.00 
G01 X-0.8749 Y1.0200 
G00 Z0.0200 
G00 X-0.9251 Y1.0200 
G01 Z-0.0100 F10.00 
G01 X-0.9749 Y1.0200 
G00 Z0.0200 
G00 X-1.0251 Y1.0200 
G01 Z-0.0100 F10.00 
G01 X-1.8191 Y1.0200 
G00 Z0.0200 
G00 X-1.9409 Y1.0200 
G01 Z-0.0100 F10.00 
G01 X-2.2810 Y1.0200 
G00 Z0.0200 
G00 X-2.4190 Y1.0200 
G01 Z-0.0100 F10.00 
G01 X-2.7310 Y1.0200 
G00 Z0.0200 
G00 X-2.8690 Y1.0200 
G01 Z-0.0100 F10.00 
G01 X-3.0869 Y1.0200 
G00 Z0.0200 
G00 X-3.1131 Y1.0200 
G01 Z-0.0100 F10.00 
G01 X-3.2738 Y1.0200 
G00 Z0.0200 
G00 X-3.4062 Y1.0200 
G01 Z-0.0100 F10.00 
G01 X-3.9196 Y1.0200 
G00 Z0.0200 
G00 X0.0201 Y1.0300 
G01 Z-0.0100 F10.00 
G01 X-0.2091 Y1.0300 
G00 Z0.0200 
G00 X-0.8431 Y1.0300 
G01 Z-0.0100 F10.00 
G01 X-0.8749 Y1.0300 
G00 Z0.0200 
G00 X-0.9251 Y1.0300 
G01 Z-0.0100 F10.00 
G01 X-0.9749 Y1.0300 
G00 Z0.0200 
G00 X-1.0251 Y1.0300 
G01 Z-0.0100 F10.00 
G01 X-1.8091 Y1.0300 
G00 Z0.0200 
G00 X-1.9309 Y1.0300 
G01 Z-0.0100 F10.00 
G01 X-2.2935 Y1.0300 
G00 Z0.0200 
G00 X-2.4315 Y1.0300 
G01 Z-0.0100 F10.00 
G01 X-2.7185 Y1.0300 
G00 Z0.0200 
G00 X-2.8565 Y1.0300 
G01 Z-0.0100 F10.00 
G01 X-3.0869 Y1.0300 
G00 Z0.0200 
G00 X-3.1131 Y1.0300 
G01 Z-0.0100 F10.00 
G01 X-3.2855 Y1.0300 
G00 Z0.0200 
G00 X-3.4179 Y1.0300 
G01 Z-0.0100 F10.00 
G01 X-3.9196 Y1.0300 
G00 Z0.0200 
G00 X0.0201 Y1.0400 
G01 Z-0.0100 F10.00 
G01 X-0.2069 Y1.0400 
G00 Z0.0200 
G00 X-0.8431 Y1.0400 
G01 Z-0.0100 F10.00 
G01 X-0.8749 Y1.0400 
G00 Z0.0200 
G00 X-0.9251 Y1.0400 
G01 Z-0.0100 F10.00 
G01 X-0.9749 Y1.0400 
G00 Z0.0200 
G00 X-1.0251 Y1.0400 
G01 Z-0.0100 F10.00 
G01 X-1.7991 Y1.0400 
G00 Z0.0200 
G00 X-1.9209 Y1.0400 
G01 Z-0.0100 F10.00 
G01 X-2.3060 Y1.0400 
G00 Z0.0200 
G00 X-2.4440 Y1.0400 
G01 Z-0.0100 F10.00 
G01 X-2.7060 Y1.0400 
G00 Z0.0200 
G00 X-2.8440 Y1.0400 
G01 Z-0.0100 F10.00 
G01 X-3.0869 Y1.0400 
G00 Z0.0200 
G00 X-3.1131 Y1.0400 
G01 Z-0.0100 F10.00 
G01 X-3.2971 Y1.0400 
G00 Z0.0200 
G00 X-3.4295 Y1.0400 
G01 Z-0.0100 F10.00 
G01 X-3.9196 Y1.0400 
G00 Z0.0200 
G00 X0.0201 Y1.0500 
G01 Z-0.0100 F10.00 
G01 X-0.2069 Y1.0500 
G00 Z0.0200 
G00 X-0.8431 Y1.0500 
G01 Z-0.0100 F10.00 
G01 X-0.8749 Y1.0500 
G00 Z0.0200 
G00 X-0.9251 Y1.0500 
G01 Z-0.0100 F10.00 
G01 X-0.9749 Y1.0500 
G00 Z0.0200 
G00 X-1.0251 Y1.0500 
G01 Z-0.0100 F10.00 
G01 X-1.0800 Y1.0500 
G00 Z0.0200 
G00 X-1.1200 Y1.0500 
G01 Z-0.0100 F10.00 
G01 X-1.1800 Y1.0500 
G00 Z0.0200 
G00 X-1.2200 Y1.0500 
G01 Z-0.0100 F10.00 
G01 X-1.2800 Y1.0500 
G00 Z0.0200 
G00 X-1.3200 Y1.0500 
G01 Z-0.0100 F10.00 
G01 X-1.3800 Y1.0500 
G00 Z0.0200 
G00 X-1.4200 Y1.0500 
G01 Z-0.0100 F10.00 
G01 X-1.7891 Y1.0500 
G00 Z0.0200 
G00 X-1.9109 Y1.0500 
G01 Z-0.0100 F10.00 
G01 X-2.3185 Y1.0500 
G00 Z0.0200 
G00 X-2.4565 Y1.0500 
G01 Z-0.0100 F10.00 
G01 X-2.6935 Y1.0500 
G00 Z0.0200 
G00 X-2.8315 Y1.0500 
G01 Z-0.0100 F10.00 
G01 X-3.0869 Y1.0500 
G00 Z0.0200 
G00 X-3.1131 Y1.0500 
G01 Z-0.0100 F10.00 
G01 X-3.3088 Y1.0500 
G00 Z0.0200 
G00 X-3.4412 Y1.0500 
G01 Z-0.0100 F10.00 
G01 X-3.9196 Y1.0500 
G00 Z0.0200 
G00 X0.0201 Y1.0600 
G01 Z-0.0100 F10.00 
G01 X-0.2069 Y1.0600 
G00 Z0.0200 
G00 X-0.8431 Y1.0600 
G01 Z-0.0100 F10.00 
G01 X-0.8700 Y1.0600 
G00 Z0.0200 
G00 X-0.9300 Y1.0600 
G01 Z-0.0100 F10.00 
G01 X-0.9700 Y1.0600 
G00 Z0.0200 
G00 X-1.0300 Y1.0600 
G01 Z-0.0100 F10.00 
G01 X-1.0700 Y1.0600 
G00 Z0.0200 
G00 X-1.1300 Y1.0600 
G01 Z-0.0100 F10.00 
G01 X-1.1700 Y1.0600 
G00 Z0.0200 
G00 X-1.9009 Y1.0600 
G01 Z-0.0100 F10.00 
G01 X-2.3310 Y1.0600 
G00 Z0.0200 
G00 X-2.8190 Y1.0600 
G01 Z-0.0100 F10.00 
G01 X-3.0869 Y1.0600 
G00 Z0.0200 
G00 X-3.1131 Y1.0600 
G01 Z-0.0100 F10.00 
G01 X-3.3205 Y1.0600 
G00 Z0.0200 
G00 X-3.4529 Y1.0600 
G01 Z-0.0100 F10.00 
G01 X-3.9196 Y1.0600 
G00 Z0.0200 
G00 X0.0201 Y1.0700 
G01 Z-0.0100 F10.00 
G01 X-0.2069 Y1.0700 
G00 Z0.0200 
G00 X-0.8409 Y1.0700 
G01 Z-0.0100 F10.00 
G01 X-0.8689 Y1.0700 
G00 Z0.0200 
G00 X-0.9311 Y1.0700 
G01 Z-0.0100 F10.00 
G01 X-0.9689 Y1.0700 
G00 Z0.0200 
G00 X-1.0311 Y1.0700 
G01 Z-0.0100 F10.00 
G01 X-1.0689 Y1.0700 
G00 Z0.0200 
G00 X-1.1311 Y1.0700 
G01 Z-0.0100 F10.00 
G01 X-1.1689 Y1.0700 
G00 Z0.0200 
G00 X-1.8909 Y1.0700 
G01 Z-0.0100 F10.00 
G01 X-2.3435 Y1.0700 
G00 Z0.0200 
G00 X-2.8065 Y1.0700 
G01 Z-0.0100 F10.00 
G01 X-3.0869 Y1.0700 
G00 Z0.0200 
G00 X-3.1131 Y1.0700 
G01 Z-0.0100 F10.00 
G01 X-3.3321 Y1.0700 
G00 Z0.0200 
G00 X-3.4645 Y1.0700 
G01 Z-0.0100 F10.00 
G01 X-3.9196 Y1.0700 
G00 Z0.0200 
G00 X0.0201 Y1.0800 
G01 Z-0.0100 F10.00 
G01 X-0.2069 Y1.0800 
G00 Z0.0200 
G00 X-0.8409 Y1.0800 
G01 Z-0.0100 F10.00 
G01 X-0.8689 Y1.0800 
G00 Z0.0200 
G00 X-0.9311 Y1.0800 
G01 Z-0.0100 F10.00 
G01 X-0.9689 Y1.0800 
G00 Z0.0200 
G00 X-1.0311 Y1.0800 
G01 Z-0.0100 F10.00 
G01 X-1.0689 Y1.0800 
G00 Z0.0200 
G00 X-1.1311 Y1.0800 
G01 Z-0.0100 F10.00 
G01 X-1.1591 Y1.0800 
G00 Z0.0200 
G00 X-1.8809 Y1.0800 
G01 Z-0.0100 F10.00 
G01 X-2.3560 Y1.0800 
G00 Z0.0200 
G00 X-2.7940 Y1.0800 
G01 Z-0.0100 F10.00 
G01 X-3.0869 Y1.0800 
G00 Z0.0200 
G00 X-3.1131 Y1.0800 
G01 Z-0.0100 F10.00 
G01 X-3.3438 Y1.0800 
G00 Z0.0200 
G00 X-3.4762 Y1.0800 
G01 Z-0.0100 F10.00 
G01 X-3.9196 Y1.0800 
G00 Z0.0200 
G00 X0.0201 Y1.0900 
G01 Z-0.0100 F10.00 
G01 X-0.2069 Y1.0900 
G00 Z0.0200 
G00 X-0.8431 Y1.0900 
G01 Z-0.0100 F10.00 
G01 X-0.8689 Y1.0900 
G00 Z0.0200 
G00 X-0.9311 Y1.0900 
G01 Z-0.0100 F10.00 
G01 X-0.9689 Y1.0900 
G00 Z0.0200 
G00 X-1.0311 Y1.0900 
G01 Z-0.0100 F10.00 
G01 X-1.0689 Y1.0900 
G00 Z0.0200 
G00 X-1.1311 Y1.0900 
G01 Z-0.0100 F10.00 
G01 X-1.1569 Y1.0900 
G00 Z0.0200 
G00 X-1.8709 Y1.0900 
G01 Z-0.0100 F10.00 
G01 X-2.3685 Y1.0900 
G00 Z0.0200 
G00 X-2.7815 Y1.0900 
G01 Z-0.0100 F10.00 
G01 X-3.0869 Y1.0900 
G00 Z0.0200 
G00 X-3.1131 Y1.0900 
G01 Z-0.0100 F10.00 
G01 X-3.3555 Y1.0900 
G00 Z0.0200 
G00 X-3.4879 Y1.0900 
G01 Z-0.0100 F10.00 
G01 X-3.9196 Y1.0900 
G00 Z0.0200 
G00 X0.0201 Y1.1000 
G01 Z-0.0100 F10.00 
G01 X-0.2069 Y1.1000 
G00 Z0.0200 
G00 X-0.2931 Y1.1000 
G01 Z-0.0100 F10.00 
G01 X-0.4069 Y1.1000 
G00 Z0.0200 
G00 X-0.4931 Y1.1000 
G01 Z-0.0100 F10.00 
G01 X-0.7569 Y1.1000 
G00 Z0.0200 
G00 X-0.8431 Y1.1000 
G01 Z-0.0100 F10.00 
G01 X-0.8689 Y1.1000 
G00 Z0.0200 
G00 X-0.9311 Y1.1000 
G01 Z-0.0100 F10.00 
G01 X-0.9689 Y1.1000 
G00 Z0.0200 
G00 X-1.0311 Y1.1000 
G01 Z-0.0100 F10.00 
G01 X-1.0689 Y1.1000 
G00 Z0.0200 
G00 X-1.1311 Y1.1000 
G01 Z-0.0100 F10.00 
G01 X-1.1569 Y1.1000 
G00 Z0.0200 
G00 X-1.8609 Y1.1000 
G01 Z-0.0100 F10.00 
G01 X-2.3810 Y1.1000 
G00 Z0.0200 
G00 X-2.7690 Y1.1000 
G01 Z-0.0100 F10.00 
G01 X-3.0869 Y1.1000 
G00 Z0.0200 
G00 X-3.1131 Y1.1000 
G01 Z-0.0100 F10.00 
G01 X-3.3671 Y1.1000 
G00 Z0.0200 
G00 X-3.4995 Y1.1000 
G01 Z-0.0100 F10.00 
G01 X-3.9196 Y1.1000 
G00 Z0.0200 
G00 X0.0201 Y1.1100 
G01 Z-0.0100 F10.00 
G01 X-0.2069 Y1.1100 
G00 Z0.0200 
G00 X-0.2931 Y1.1100 
G01 Z-0.0100 F10.00 
G01 X-0.4069 Y1.1100 
G00 Z0.0200 
G00 X-0.4931 Y1.1100 
G01 Z-0.0100 F10.00 
G01 X-0.7569 Y1.1100 
G00 Z0.0200 
G00 X-0.8431 Y1.1100 
G01 Z-0.0100 F10.00 
G01 X-0.8689 Y1.1100 
G00 Z0.0200 
G00 X-0.9311 Y1.1100 
G01 Z-0.0100 F10.00 
G01 X-0.9689 Y1.1100 
G00 Z0.0200 
G00 X-1.0311 Y1.1100 
G01 Z-0.0100 F10.00 
G01 X-1.0689 Y1.1100 
G00 Z0.0200 
G00 X-1.1311 Y1.1100 
G01 Z-0.0100 F10.00 
G01 X-1.1569 Y1.1100 
G00 Z0.0200 
G00 X-1.8509 Y1.1100 
G01 Z-0.0100 F10.00 
G01 X-2.3935 Y1.1100 
G00 Z0.0200 
G00 X-2.7565 Y1.1100 
G01 Z-0.0100 F10.00 
G01 X-3.0869 Y1.1100 
G00 Z0.0200 
G00 X-3.1131 Y1.1100 
G01 Z-0.0100 F10.00 
G01 X-3.3788 Y1.1100 
G00 Z0.0200 
G00 X-3.5112 Y1.1100 
G01 Z-0.0100 F10.00 
G01 X-3.9196 Y1.1100 
G00 Z0.0200 
G00 X0.0201 Y1.1200 
G01 Z-0.0100 F10.00 
G01 X-0.2069 Y1.1200 
G00 Z0.0200 
G00 X-0.2931 Y1.1200 
G01 Z-0.0100 F10.00 
G01 X-0.4069 Y1.1200 
G00 Z0.0200 
G00 X-0.4931 Y1.1200 
G01 Z-0.0100 F10.00 
G01 X-0.7569 Y1.1200 
G00 Z0.0200 
G00 X-0.8431 Y1.1200 
G01 Z-0.0100 F10.00 
G01 X-0.8689 Y1.1200 
G00 Z0.0200 
G00 X-0.9311 Y1.1200 
G01 Z-0.0100 F10.00 
G01 X-0.9689 Y1.1200 
G00 Z0.0200 
G00 X-1.0311 Y1.1200 
G01 Z-0.0100 F10.00 
G01 X-1.0689 Y1.1200 
G00 Z0.0200 
G00 X-1.1311 Y1.1200 
G01 Z-0.0100 F10.00 
G01 X-1.1591 Y1.1200 
G00 Z0.0200 
G00 X-1.8431 Y1.1200 
G01 Z-0.0100 F10.00 
G01 X-2.4060 Y1.1200 
G00 Z0.0200 
G00 X-2.7440 Y1.1200 
G01 Z-0.0100 F10.00 
G01 X-3.0869 Y1.1200 
G00 Z0.0200 
G00 X-3.1131 Y1.1200 
G01 Z-0.0100 F10.00 
G01 X-3.3905 Y1.1200 
G00 Z0.0200 
G00 X-3.5229 Y1.1200 
G01 Z-0.0100 F10.00 
G01 X-3.9196 Y1.1200 
G00 Z0.0200 
G00 X0.0201 Y1.1300 
G01 Z-0.0100 F10.00 
G01 X-0.2069 Y1.1300 
G00 Z0.0200 
G00 X-0.2931 Y1.1300 
G01 Z-0.0100 F10.00 
G01 X-0.4069 Y1.1300 
G00 Z0.0200 
G00 X-0.4931 Y1.1300 
G01 Z-0.0100 F10.00 
G01 X-0.7569 Y1.1300 
G00 Z0.0200 
G00 X-0.8431 Y1.1300 
G01 Z-0.0100 F10.00 
G01 X-0.8689 Y1.1300 
G00 Z0.0200 
G00 X-0.9311 Y1.1300 
G01 Z-0.0100 F10.00 
G01 X-0.9689 Y1.1300 
G00 Z0.0200 
G00 X-1.0311 Y1.1300 
G01 Z-0.0100 F10.00 
G01 X-1.0689 Y1.1300 
G00 Z0.0200 
G00 X-1.1311 Y1.1300 
G01 Z-0.0100 F10.00 
G01 X-1.1689 Y1.1300 
G00 Z0.0200 
G00 X-1.8431 Y1.1300 
G01 Z-0.0100 F10.00 
G01 X-2.4185 Y1.1300 
G00 Z0.0200 
G00 X-2.7315 Y1.1300 
G01 Z-0.0100 F10.00 
G01 X-3.0869 Y1.1300 
G00 Z0.0200 
G00 X-3.1131 Y1.1300 
G01 Z-0.0100 F10.00 
G01 X-3.4021 Y1.1300 
G00 Z0.0200 
G00 X-3.5345 Y1.1300 
G01 Z-0.0100 F10.00 
G01 X-3.9196 Y1.1300 
G00 Z0.0200 
G00 X0.0201 Y1.1400 
G01 Z-0.0100 F10.00 
G01 X-0.2069 Y1.1400 
G00 Z0.0200 
G00 X-0.2931 Y1.1400 
G01 Z-0.0100 F10.00 
G01 X-0.4069 Y1.1400 
G00 Z0.0200 
G00 X-0.4931 Y1.1400 
G01 Z-0.0100 F10.00 
G01 X-0.7569 Y1.1400 
G00 Z0.0200 
G00 X-0.8431 Y1.1400 
G01 Z-0.0100 F10.00 
G01 X-0.8700 Y1.1400 
G00 Z0.0200 
G00 X-0.9300 Y1.1400 
G01 Z-0.0100 F10.00 
G01 X-0.9700 Y1.1400 
G00 Z0.0200 
G00 X-1.0300 Y1.1400 
G01 Z-0.0100 F10.00 
G01 X-1.0700 Y1.1400 
G00 Z0.0200 
G00 X-1.1300 Y1.1400 
G01 Z-0.0100 F10.00 
G01 X-1.1700 Y1.1400 
G00 Z0.0200 
G00 X-1.8431 Y1.1400 
G01 Z-0.0100 F10.00 
G01 X-2.4291 Y1.1400 
G00 Z0.0200 
G00 X-2.7209 Y1.1400 
G01 Z-0.0100 F10.00 
G01 X-3.0869 Y1.1400 
G00 Z0.0200 
G00 X-3.1131 Y1.1400 
G01 Z-0.0100 F10.00 
G01 X-3.4138 Y1.1400 
G00 Z0.0200 
G00 X-3.5462 Y1.1400 
G01 Z-0.0100 F10.00 
G01 X-3.9196 Y1.1400 
G00 Z0.0200 
G00 X0.0201 Y1.1500 
G01 Z-0.0100 F10.00 
G01 X-0.2069 Y1.1500 
G00 Z0.0200 
G00 X-0.2931 Y1.1500 
G01 Z-0.0100 F10.00 
G01 X-0.4069 Y1.1500 
G00 Z0.0200 
G00 X-0.4931 Y1.1500 
G01 Z-0.0100 F10.00 
G01 X-0.7569 Y1.1500 
G00 Z0.0200 
G00 X-0.8431 Y1.1500 
G01 Z-0.0100 F10.00 
G01 X-0.8800 Y1.1500 
G00 Z0.0200 
G00 X-0.9200 Y1.1500 
G01 Z-0.0100 F10.00 
G01 X-0.9749 Y1.1500 
G00 Z0.0200 
G00 X-1.0251 Y1.1500 
G01 Z-0.0100 F10.00 
G01 X-1.0800 Y1.1500 
G00 Z0.0200 
G00 X-1.1200 Y1.1500 
G01 Z-0.0100 F10.00 
G01 X-1.1800 Y1.1500 
G00 Z0.0200 
G00 X-1.2200 Y1.1500 
G01 Z-0.0100 F10.00 
G01 X-1.2800 Y1.1500 
G00 Z0.0200 
G00 X-1.3200 Y1.1500 
G01 Z-0.0100 F10.00 
G01 X-1.3800 Y1.1500 
G00 Z0.0200 
G00 X-1.4200 Y1.1500 
G01 Z-0.0100 F10.00 
G01 X-1.7569 Y1.1500 
G00 Z0.0200 
G00 X-1.8431 Y1.1500 
G01 Z-0.0100 F10.00 
G01 X-3.0869 Y1.1500 
G00 Z0.0200 
G00 X-3.1131 Y1.1500 
G01 Z-0.0100 F10.00 
G01 X-3.4255 Y1.1500 
G00 Z0.0200 
G00 X-3.5579 Y1.1500 
G01 Z-0.0100 F10.00 
G01 X-3.9196 Y1.1500 
G00 Z0.0200 
G00 X0.0201 Y1.1600 
G01 Z-0.0100 F10.00 
G01 X-0.2069 Y1.1600 
G00 Z0.0200 
G00 X-0.2931 Y1.1600 
G01 Z-0.0100 F10.00 
G01 X-0.4069 Y1.1600 
G00 Z0.0200 
G00 X-0.4931 Y1.1600 
G01 Z-0.0100 F10.00 
G01 X-0.7569 Y1.1600 
G00 Z0.0200 
G00 X-0.8431 Y1.1600 
G01 Z-0.0100 F10.00 
G01 X-0.9749 Y1.1600 
G00 Z0.0200 
G00 X-1.0251 Y1.1600 
G01 Z-0.0100 F10.00 
G01 X-1.7569 Y1.1600 
G00 Z0.0200 
G00 X-1.8431 Y1.1600 
G01 Z-0.0100 F10.00 
G01 X-3.0869 Y1.1600 
G00 Z0.0200 
G00 X-3.1131 Y1.1600 
G01 Z-0.0100 F10.00 
G01 X-3.4371 Y1.1600 
G00 Z0.0200 
G00 X-3.5709 Y1.1600 
G01 Z-0.0100 F10.00 
G01 X-3.9196 Y1.1600 
G00 Z0.0200 
G00 X0.0201 Y1.1700 
G01 Z-0.0100 F10.00 
G01 X-0.2069 Y1.1700 
G00 Z0.0200 
G00 X-0.2931 Y1.1700 
G01 Z-0.0100 F10.00 
G01 X-0.4069 Y1.1700 
G00 Z0.0200 
G00 X-0.4931 Y1.1700 
G01 Z-0.0100 F10.00 
G01 X-0.7569 Y1.1700 
G00 Z0.0200 
G00 X-0.8431 Y1.1700 
G01 Z-0.0100 F10.00 
G01 X-0.9749 Y1.1700 
G00 Z0.0200 
G00 X-1.0251 Y1.1700 
G01 Z-0.0100 F10.00 
G01 X-1.7569 Y1.1700 
G00 Z0.0200 
G00 X-1.8431 Y1.1700 
G01 Z-0.0100 F10.00 
G01 X-3.0869 Y1.1700 
G00 Z0.0200 
G00 X-3.1131 Y1.1700 
G01 Z-0.0100 F10.00 
G01 X-3.4488 Y1.1700 
G00 Z0.0200 
G00 X-3.5809 Y1.1700 
G01 Z-0.0100 F10.00 
G01 X-3.9196 Y1.1700 
G00 Z0.0200 
G00 X0.0201 Y1.1800 
G01 Z-0.0100 F10.00 
G01 X-0.2069 Y1.1800 
G00 Z0.0200 
G00 X-0.2931 Y1.1800 
G01 Z-0.0100 F10.00 
G01 X-0.4069 Y1.1800 
G00 Z0.0200 
G00 X-0.4931 Y1.1800 
G01 Z-0.0100 F10.00 
G01 X-0.7569 Y1.1800 
G00 Z0.0200 
G00 X-0.8431 Y1.1800 
G01 Z-0.0100 F10.00 
G01 X-0.9749 Y1.1800 
G00 Z0.0200 
G00 X-1.0251 Y1.1800 
G01 Z-0.0100 F10.00 
G01 X-1.7569 Y1.1800 
G00 Z0.0200 
G00 X-1.8431 Y1.1800 
G01 Z-0.0100 F10.00 
G01 X-3.0869 Y1.1800 
G00 Z0.0200 
G00 X-3.1131 Y1.1800 
G01 Z-0.0100 F10.00 
G01 X-3.4605 Y1.1800 
G00 Z0.0200 
G00 X-3.5909 Y1.1800 
G01 Z-0.0100 F10.00 
G01 X-3.9196 Y1.1800 
G00 Z0.0200 
G00 X0.0201 Y1.1900 
G01 Z-0.0100 F10.00 
G01 X-0.2069 Y1.1900 
G00 Z0.0200 
G00 X-0.2931 Y1.1900 
G01 Z-0.0100 F10.00 
G01 X-0.4069 Y1.1900 
G00 Z0.0200 
G00 X-0.4931 Y1.1900 
G01 Z-0.0100 F10.00 
G01 X-0.7569 Y1.1900 
G00 Z0.0200 
G00 X-0.8431 Y1.1900 
G01 Z-0.0100 F10.00 
G01 X-0.9749 Y1.1900 
G00 Z0.0200 
G00 X-1.0251 Y1.1900 
G01 Z-0.0100 F10.00 
G01 X-1.7569 Y1.1900 
G00 Z0.0200 
G00 X-1.8431 Y1.1900 
G01 Z-0.0100 F10.00 
G01 X-3.0869 Y1.1900 
G00 Z0.0200 
G00 X-3.1131 Y1.1900 
G01 Z-0.0100 F10.00 
G01 X-3.4721 Y1.1900 
G00 Z0.0200 
G00 X-3.5931 Y1.1900 
G01 Z-0.0100 F10.00 
G01 X-3.9196 Y1.1900 
G00 Z0.0200 
G00 X0.0201 Y1.2000 
G01 Z-0.0100 F10.00 
G01 X-0.2069 Y1.2000 
G00 Z0.0200 
G00 X-0.2931 Y1.2000 
G01 Z-0.0100 F10.00 
G01 X-0.4069 Y1.2000 
G00 Z0.0200 
G00 X-0.4931 Y1.2000 
G01 Z-0.0100 F10.00 
G01 X-0.7569 Y1.2000 
G00 Z0.0200 
G00 X-0.8431 Y1.2000 
G01 Z-0.0100 F10.00 
G01 X-0.9749 Y1.2000 
G00 Z0.0200 
G00 X-1.0251 Y1.2000 
G01 Z-0.0100 F10.00 
G01 X-1.7569 Y1.2000 
G00 Z0.0200 
G00 X-1.8431 Y1.2000 
G01 Z-0.0100 F10.00 
G01 X-3.0869 Y1.2000 
G00 Z0.0200 
G00 X-3.1131 Y1.2000 
G01 Z-0.0100 F10.00 
G01 X-3.4838 Y1.2000 
G00 Z0.0200 
G00 X-3.5931 Y1.2000 
G01 Z-0.0100 F10.00 
G01 X-3.9196 Y1.2000 
G00 Z0.0200 
G00 X0.0201 Y1.2100 
G01 Z-0.0100 F10.00 
G01 X-0.2069 Y1.2100 
G00 Z0.0200 
G00 X-0.2931 Y1.2100 
G01 Z-0.0100 F10.00 
G01 X-0.4069 Y1.2100 
G00 Z0.0200 
G00 X-0.4931 Y1.2100 
G01 Z-0.0100 F10.00 
G01 X-0.7569 Y1.2100 
G00 Z0.0200 
G00 X-0.9209 Y1.2100 
G01 Z-0.0100 F10.00 
G01 X-0.9749 Y1.2100 
G00 Z0.0200 
G00 X-1.0251 Y1.2100 
G01 Z-0.0100 F10.00 
G01 X-1.7569 Y1.2100 
G00 Z0.0200 
G00 X-1.8431 Y1.2100 
G01 Z-0.0100 F10.00 
G01 X-3.0869 Y1.2100 
G00 Z0.0200 
G00 X-3.1131 Y1.2100 
G01 Z-0.0100 F10.00 
G01 X-3.4955 Y1.2100 
G00 Z0.0200 
G00 X-3.5931 Y1.2100 
G01 Z-0.0100 F10.00 
G01 X-3.9196 Y1.2100 
G00 Z0.0200 
G00 X0.0201 Y1.2200 
G01 Z-0.0100 F10.00 
G01 X-0.2069 Y1.2200 
G00 Z0.0200 
G00 X-0.2931 Y1.2200 
G01 Z-0.0100 F10.00 
G01 X-0.4069 Y1.2200 
G00 Z0.0200 
G00 X-0.4931 Y1.2200 
G01 Z-0.0100 F10.00 
G01 X-0.7569 Y1.2200 
G00 Z0.0200 
G00 X-0.9309 Y1.2200 
G01 Z-0.0100 F10.00 
G01 X-0.9749 Y1.2200 
G00 Z0.0200 
G00 X-1.0251 Y1.2200 
G01 Z-0.0100 F10.00 
G01 X-1.7569 Y1.2200 
G00 Z0.0200 
G00 X-1.8431 Y1.2200 
G01 Z-0.0100 F10.00 
G01 X-3.0869 Y1.2200 
G00 Z0.0200 
G00 X-3.1131 Y1.2200 
G01 Z-0.0100 F10.00 
G01 X-3.5069 Y1.2200 
G00 Z0.0200 
G00 X-3.5931 Y1.2200 
G01 Z-0.0100 F10.00 
G01 X-3.9196 Y1.2200 
G00 Z0.0200 
G00 X0.0201 Y1.2300 
G01 Z-0.0100 F10.00 
G01 X-0.2069 Y1.2300 
G00 Z0.0200 
G00 X-0.2931 Y1.2300 
G01 Z-0.0100 F10.00 
G01 X-0.4069 Y1.2300 
G00 Z0.0200 
G00 X-0.4931 Y1.2300 
G01 Z-0.0100 F10.00 
G01 X-0.7569 Y1.2300 
G00 Z0.0200 
G00 X-0.9409 Y1.2300 
G01 Z-0.0100 F10.00 
G01 X-0.9749 Y1.2300 
G00 Z0.0200 
G00 X-1.4155 Y1.2300 
G01 Z-0.0100 F10.00 
G01 X-1.7569 Y1.2300 
G00 Z0.0200 
G00 X-1.8431 Y1.2300 
G01 Z-0.0100 F10.00 
G01 X-3.0869 Y1.2300 
G00 Z0.0200 
G00 X-3.1131 Y1.2300 
G01 Z-0.0100 F10.00 
G01 X-3.5069 Y1.2300 
G00 Z0.0200 
G00 X-3.5931 Y1.2300 
G01 Z-0.0100 F10.00 
G01 X-3.9196 Y1.2300 
G00 Z0.0200 
G00 X0.0201 Y1.2400 
G01 Z-0.0100 F10.00 
G01 X-0.2069 Y1.2400 
G00 Z0.0200 
G00 X-0.2931 Y1.2400 
G01 Z-0.0100 F10.00 
G01 X-0.4069 Y1.2400 
G00 Z0.0200 
G00 X-0.4931 Y1.2400 
G01 Z-0.0100 F10.00 
G01 X-0.7569 Y1.2400 
G00 Z0.0200 
G00 X-0.9431 Y1.2400 
G01 Z-0.0100 F10.00 
G01 X-0.9749 Y1.2400 
G00 Z0.0200 
G00 X-1.4251 Y1.2400 
G01 Z-0.0100 F10.00 
G01 X-1.7569 Y1.2400 
G00 Z0.0200 
G00 X-1.8431 Y1.2400 
G01 Z-0.0100 F10.00 
G01 X-3.0869 Y1.2400 
G00 Z0.0200 
G00 X-3.1131 Y1.2400 
G01 Z-0.0100 F10.00 
G01 X-3.5069 Y1.2400 
G00 Z0.0200 
G00 X-3.5931 Y1.2400 
G01 Z-0.0100 F10.00 
G01 X-3.9196 Y1.2400 
G00 Z0.0200 
G00 X0.0201 Y1.2500 
G01 Z-0.0100 F10.00 
G01 X-0.2069 Y1.2500 
G00 Z0.0200 
G00 X-0.2931 Y1.2500 
G01 Z-0.0100 F10.00 
G01 X-0.4069 Y1.2500 
G00 Z0.0200 
G00 X-0.4931 Y1.2500 
G01 Z-0.0100 F10.00 
G01 X-0.7569 Y1.2500 
G00 Z0.0200 
G00 X-0.9431 Y1.2500 
G01 Z-0.0100 F10.00 
G01 X-0.9749 Y1.2500 
G00 Z0.0200 
G00 X-1.4251 Y1.2500 
G01 Z-0.0100 F10.00 
G01 X-1.7569 Y1.2500 
G00 Z0.0200 
G00 X-1.8431 Y1.2500 
G01 Z-0.0100 F10.00 
G01 X-3.0869 Y1.2500 
G00 Z0.0200 
G00 X-3.1131 Y1.2500 
G01 Z-0.0100 F10.00 
G01 X-3.5069 Y1.2500 
G00 Z0.0200 
G00 X-3.5931 Y1.2500 
G01 Z-0.0100 F10.00 
G01 X-3.9196 Y1.2500 
G00 Z0.0200 
G00 X0.0201 Y1.2600 
G01 Z-0.0100 F10.00 
G01 X-0.2069 Y1.2600 
G00 Z0.0200 
G00 X-0.2931 Y1.2600 
G01 Z-0.0100 F10.00 
G01 X-0.4069 Y1.2600 
G00 Z0.0200 
G00 X-0.4931 Y1.2600 
G01 Z-0.0100 F10.00 
G01 X-0.7569 Y1.2600 
G00 Z0.0200 
G00 X-0.9431 Y1.2600 
G01 Z-0.0100 F10.00 
G01 X-0.9749 Y1.2600 
G00 Z0.0200 
G00 X-1.4251 Y1.2600 
G01 Z-0.0100 F10.00 
G01 X-1.7569 Y1.2600 
G00 Z0.0200 
G00 X-1.8431 Y1.2600 
G01 Z-0.0100 F10.00 
G01 X-3.0869 Y1.2600 
G00 Z0.0200 
G00 X-3.1131 Y1.2600 
G01 Z-0.0100 F10.00 
G01 X-3.5069 Y1.2600 
G00 Z0.0200 
G00 X-3.5931 Y1.2600 
G01 Z-0.0100 F10.00 
G01 X-3.9196 Y1.2600 
G00 Z0.0200 
G00 X0.0201 Y1.2700 
G01 Z-0.0100 F10.00 
G01 X-0.2069 Y1.2700 
G00 Z0.0200 
G00 X-0.2931 Y1.2700 
G01 Z-0.0100 F10.00 
G01 X-0.4069 Y1.2700 
G00 Z0.0200 
G00 X-0.4931 Y1.2700 
G01 Z-0.0100 F10.00 
G01 X-0.7591 Y1.2700 
G00 Z0.0200 
G00 X-0.9431 Y1.2700 
G01 Z-0.0100 F10.00 
G01 X-0.9845 Y1.2700 
G00 Z0.0200 
G00 X-1.4251 Y1.2700 
G01 Z-0.0100 F10.00 
G01 X-1.7569 Y1.2700 
G00 Z0.0200 
G00 X-1.8431 Y1.2700 
G01 Z-0.0100 F10.00 
G01 X-2.4360 Y1.2700 
G00 Z0.0200 
G00 X-2.4640 Y1.2700 
G01 Z-0.0100 F10.00 
G01 X-2.6860 Y1.2700 
G00 Z0.0200 
G00 X-2.7140 Y1.2700 
G01 Z-0.0100 F10.00 
G01 X-3.0869 Y1.2700 
G00 Z0.0200 
G00 X-3.1131 Y1.2700 
G01 Z-0.0100 F10.00 
G01 X-3.5069 Y1.2700 
G00 Z0.0200 
G00 X-3.5931 Y1.2700 
G01 Z-0.0100 F10.00 
G01 X-3.9196 Y1.2700 
G00 Z0.0200 
G00 X0.0201 Y1.2800 
G01 Z-0.0100 F10.00 
G01 X-0.2069 Y1.2800 
G00 Z0.0200 
G00 X-0.2931 Y1.2800 
G01 Z-0.0100 F10.00 
G01 X-0.4069 Y1.2800 
G00 Z0.0200 
G00 X-0.4931 Y1.2800 
G01 Z-0.0100 F10.00 
G01 X-0.7691 Y1.2800 
G00 Z0.0200 
G00 X-0.9431 Y1.2800 
G01 Z-0.0100 F10.00 
G01 X-1.0749 Y1.2800 
G00 Z0.0200 
G00 X-1.1251 Y1.2800 
G01 Z-0.0100 F10.00 
G01 X-1.2749 Y1.2800 
G00 Z0.0200 
G00 X-1.3251 Y1.2800 
G01 Z-0.0100 F10.00 
G01 X-1.3749 Y1.2800 
G00 Z0.0200 
G00 X-1.4251 Y1.2800 
G01 Z-0.0100 F10.00 
G01 X-1.7569 Y1.2800 
G00 Z0.0200 
G00 X-1.8431 Y1.2800 
G01 Z-0.0100 F10.00 
G01 X-2.4260 Y1.2800 
G00 Z0.0200 
G00 X-2.4740 Y1.2800 
G01 Z-0.0100 F10.00 
G01 X-2.6760 Y1.2800 
G00 Z0.0200 
G00 X-2.7240 Y1.2800 
G01 Z-0.0100 F10.00 
G01 X-3.0869 Y1.2800 
G00 Z0.0200 
G00 X-3.1131 Y1.2800 
G01 Z-0.0100 F10.00 
G01 X-3.5069 Y1.2800 
G00 Z0.0200 
G00 X-3.5931 Y1.2800 
G01 Z-0.0100 F10.00 
G01 X-3.9196 Y1.2800 
G00 Z0.0200 
G00 X0.0201 Y1.2900 
G01 Z-0.0100 F10.00 
G01 X-0.2069 Y1.2900 
G00 Z0.0200 
G00 X-0.2931 Y1.2900 
G01 Z-0.0100 F10.00 
G01 X-0.4069 Y1.2900 
G00 Z0.0200 
G00 X-0.4931 Y1.2900 
G01 Z-0.0100 F10.00 
G01 X-0.7791 Y1.2900 
G00 Z0.0200 
G00 X-0.9431 Y1.2900 
G01 Z-0.0100 F10.00 
G01 X-1.0749 Y1.2900 
G00 Z0.0200 
G00 X-1.1251 Y1.2900 
G01 Z-0.0100 F10.00 
G01 X-1.2749 Y1.2900 
G00 Z0.0200 
G00 X-1.3251 Y1.2900 
G01 Z-0.0100 F10.00 
G01 X-1.3749 Y1.2900 
G00 Z0.0200 
G00 X-1.4251 Y1.2900 
G01 Z-0.0100 F10.00 
G01 X-1.7569 Y1.2900 
G00 Z0.0200 
G00 X-1.8431 Y1.2900 
G01 Z-0.0100 F10.00 
G01 X-2.4189 Y1.2900 
G00 Z0.0200 
G00 X-2.4811 Y1.2900 
G01 Z-0.0100 F10.00 
G01 X-2.6689 Y1.2900 
G00 Z0.0200 
G00 X-2.7311 Y1.2900 
G01 Z-0.0100 F10.00 
G01 X-3.0869 Y1.2900 
G00 Z0.0200 
G00 X-3.1131 Y1.2900 
G01 Z-0.0100 F10.00 
G01 X-3.5069 Y1.2900 
G00 Z0.0200 
G00 X-3.5931 Y1.2900 
G01 Z-0.0100 F10.00 
G01 X-3.9196 Y1.2900 
G00 Z0.0200 
G00 X0.0201 Y1.3000 
G01 Z-0.0100 F10.00 
G01 X-0.2069 Y1.3000 
G00 Z0.0200 
G00 X-0.2931 Y1.3000 
G01 Z-0.0100 F10.00 
G01 X-0.4091 Y1.3000 
G00 Z0.0200 
G00 X-0.4909 Y1.3000 
G01 Z-0.0100 F10.00 
G01 X-0.8569 Y1.3000 
G00 Z0.0200 
G00 X-0.9431 Y1.3000 
G01 Z-0.0100 F10.00 
G01 X-1.0749 Y1.3000 
G00 Z0.0200 
G00 X-1.1251 Y1.3000 
G01 Z-0.0100 F10.00 
G01 X-1.2749 Y1.3000 
G00 Z0.0200 
G00 X-1.3251 Y1.3000 
G01 Z-0.0100 F10.00 
G01 X-1.3749 Y1.3000 
G00 Z0.0200 
G00 X-1.4251 Y1.3000 
G01 Z-0.0100 F10.00 
G01 X-1.7569 Y1.3000 
G00 Z0.0200 
G00 X-1.8431 Y1.3000 
G01 Z-0.0100 F10.00 
G01 X-2.4189 Y1.3000 
G00 Z0.0200 
G00 X-2.4855 Y1.3000 
G01 Z-0.0100 F10.00 
G01 X-2.6689 Y1.3000 
G00 Z0.0200 
G00 X-2.7355 Y1.3000 
G01 Z-0.0100 F10.00 
G01 X-3.0869 Y1.3000 
G00 Z0.0200 
G00 X-3.1131 Y1.3000 
G01 Z-0.0100 F10.00 
G01 X-3.5069 Y1.3000 
G00 Z0.0200 
G00 X-3.5931 Y1.3000 
G01 Z-0.0100 F10.00 
G01 X-3.9196 Y1.3000 
G00 Z0.0200 
G00 X0.0201 Y1.3100 
G01 Z-0.0100 F10.00 
G01 X-0.2069 Y1.3100 
G00 Z0.0200 
G00 X-0.2931 Y1.3100 
G01 Z-0.0100 F10.00 
G01 X-0.4191 Y1.3100 
G00 Z0.0200 
G00 X-0.4809 Y1.3100 
G01 Z-0.0100 F10.00 
G01 X-0.8569 Y1.3100 
G00 Z0.0200 
G00 X-0.9431 Y1.3100 
G01 Z-0.0100 F10.00 
G01 X-1.0749 Y1.3100 
G00 Z0.0200 
G00 X-1.1251 Y1.3100 
G01 Z-0.0100 F10.00 
G01 X-1.2749 Y1.3100 
G00 Z0.0200 
G00 X-1.3251 Y1.3100 
G01 Z-0.0100 F10.00 
G01 X-1.3749 Y1.3100 
G00 Z0.0200 
G00 X-1.4251 Y1.3100 
G01 Z-0.0100 F10.00 
G01 X-1.7569 Y1.3100 
G00 Z0.0200 
G00 X-1.8431 Y1.3100 
G01 Z-0.0100 F10.00 
G01 X-2.4189 Y1.3100 
G00 Z0.0200 
G00 X-2.4955 Y1.3100 
G01 Z-0.0100 F10.00 
G01 X-2.6689 Y1.3100 
G00 Z0.0200 
G00 X-2.7455 Y1.3100 
G01 Z-0.0100 F10.00 
G01 X-3.0869 Y1.3100 
G00 Z0.0200 
G00 X-3.1131 Y1.3100 
G01 Z-0.0100 F10.00 
G01 X-3.5069 Y1.3100 
G00 Z0.0200 
G00 X-3.5931 Y1.3100 
G01 Z-0.0100 F10.00 
G01 X-3.9196 Y1.3100 
G00 Z0.0200 
G00 X0.0201 Y1.3200 
G01 Z-0.0100 F10.00 
G01 X-0.2069 Y1.3200 
G00 Z0.0200 
G00 X-0.2931 Y1.3200 
G01 Z-0.0100 F10.00 
G01 X-0.4291 Y1.3200 
G00 Z0.0200 
G00 X-0.4709 Y1.3200 
G01 Z-0.0100 F10.00 
G01 X-0.8569 Y1.3200 
G00 Z0.0200 
G00 X-0.9431 Y1.3200 
G01 Z-0.0100 F10.00 
G01 X-1.0749 Y1.3200 
G00 Z0.0200 
G00 X-1.1251 Y1.3200 
G01 Z-0.0100 F10.00 
G01 X-1.2749 Y1.3200 
G00 Z0.0200 
G00 X-1.3251 Y1.3200 
G01 Z-0.0100 F10.00 
G01 X-1.3749 Y1.3200 
G00 Z0.0200 
G00 X-1.4251 Y1.3200 
G01 Z-0.0100 F10.00 
G01 X-1.7569 Y1.3200 
G00 Z0.0200 
G00 X-1.8431 Y1.3200 
G01 Z-0.0100 F10.00 
G01 X-2.4260 Y1.3200 
G00 Z0.0200 
G00 X-2.5055 Y1.3200 
G01 Z-0.0100 F10.00 
G01 X-2.6760 Y1.3200 
G00 Z0.0200 
G00 X-2.7555 Y1.3200 
G01 Z-0.0100 F10.00 
G01 X-3.0869 Y1.3200 
G00 Z0.0200 
G00 X-3.1131 Y1.3200 
G01 Z-0.0100 F10.00 
G01 X-3.5069 Y1.3200 
G00 Z0.0200 
G00 X-3.5931 Y1.3200 
G01 Z-0.0100 F10.00 
G01 X-3.9196 Y1.3200 
G00 Z0.0200 
G00 X0.0201 Y1.3300 
G01 Z-0.0100 F10.00 
G01 X-0.2069 Y1.3300 
G00 Z0.0200 
G00 X-0.2931 Y1.3300 
G01 Z-0.0100 F10.00 
G01 X-0.8569 Y1.3300 
G00 Z0.0200 
G00 X-0.9431 Y1.3300 
G01 Z-0.0100 F10.00 
G01 X-1.0749 Y1.3300 
G00 Z0.0200 
G00 X-1.1251 Y1.3300 
G01 Z-0.0100 F10.00 
G01 X-1.2749 Y1.3300 
G00 Z0.0200 
G00 X-1.3251 Y1.3300 
G01 Z-0.0100 F10.00 
G01 X-1.3749 Y1.3300 
G00 Z0.0200 
G00 X-1.4251 Y1.3300 
G01 Z-0.0100 F10.00 
G01 X-1.7569 Y1.3300 
G00 Z0.0200 
G00 X-1.8431 Y1.3300 
G01 Z-0.0100 F10.00 
G01 X-2.4360 Y1.3300 
G00 Z0.0200 
G00 X-2.5155 Y1.3300 
G01 Z-0.0100 F10.00 
G01 X-2.6860 Y1.3300 
G00 Z0.0200 
G00 X-2.7655 Y1.3300 
G01 Z-0.0100 F10.00 
G01 X-3.0869 Y1.3300 
G00 Z0.0200 
G00 X-3.1131 Y1.3300 
G01 Z-0.0100 F10.00 
G01 X-3.5069 Y1.3300 
G00 Z0.0200 
G00 X-3.5931 Y1.3300 
G01 Z-0.0100 F10.00 
G01 X-3.9196 Y1.3300 
G00 Z0.0200 
G00 X0.0201 Y1.3400 
G01 Z-0.0100 F10.00 
G01 X-0.2069 Y1.3400 
G00 Z0.0200 
G00 X-0.2931 Y1.3400 
G01 Z-0.0100 F10.00 
G01 X-0.8569 Y1.3400 
G00 Z0.0200 
G00 X-0.9431 Y1.3400 
G01 Z-0.0100 F10.00 
G01 X-1.0749 Y1.3400 
G00 Z0.0200 
G00 X-1.1251 Y1.3400 
G01 Z-0.0100 F10.00 
G01 X-1.2749 Y1.3400 
G00 Z0.0200 
G00 X-1.3251 Y1.3400 
G01 Z-0.0100 F10.00 
G01 X-1.3749 Y1.3400 
G00 Z0.0200 
G00 X-1.4251 Y1.3400 
G01 Z-0.0100 F10.00 
G01 X-1.7569 Y1.3400 
G00 Z0.0200 
G00 X-1.8431 Y1.3400 
G01 Z-0.0100 F10.00 
G01 X-2.4545 Y1.3400 
G00 Z0.0200 
G00 X-2.5255 Y1.3400 
G01 Z-0.0100 F10.00 
G01 X-2.7045 Y1.3400 
G00 Z0.0200 
G00 X-2.7755 Y1.3400 
G01 Z-0.0100 F10.00 
G01 X-3.0869 Y1.3400 
G00 Z0.0200 
G00 X-3.1131 Y1.3400 
G01 Z-0.0100 F10.00 
G01 X-3.5069 Y1.3400 
G00 Z0.0200 
G00 X-3.5931 Y1.3400 
G01 Z-0.0100 F10.00 
G01 X-3.9196 Y1.3400 
G00 Z0.0200 
G00 X0.0201 Y1.3500 
G01 Z-0.0100 F10.00 
G01 X-0.2069 Y1.3500 
G00 Z0.0200 
G00 X-0.2931 Y1.3500 
G01 Z-0.0100 F10.00 
G01 X-0.7800 Y1.3500 
G00 Z0.0200 
G00 X-0.8200 Y1.3500 
G01 Z-0.0100 F10.00 
G01 X-0.8569 Y1.3500 
G00 Z0.0200 
G00 X-0.9431 Y1.3500 
G01 Z-0.0100 F10.00 
G01 X-0.9800 Y1.3500 
G00 Z0.0200 
G00 X-1.0200 Y1.3500 
G01 Z-0.0100 F10.00 
G01 X-1.0749 Y1.3500 
G00 Z0.0200 
G00 X-1.1251 Y1.3500 
G01 Z-0.0100 F10.00 
G01 X-1.1800 Y1.3500 
G00 Z0.0200 
G00 X-1.2200 Y1.3500 
G01 Z-0.0100 F10.00 
G01 X-1.2749 Y1.3500 
G00 Z0.0200 
G00 X-1.3251 Y1.3500 
G01 Z-0.0100 F10.00 
G01 X-1.3749 Y1.3500 
G00 Z0.0200 
G00 X-1.4251 Y1.3500 
G01 Z-0.0100 F10.00 
G01 X-1.7569 Y1.3500 
G00 Z0.0200 
G00 X-1.8431 Y1.3500 
G01 Z-0.0100 F10.00 
G01 X-2.4645 Y1.3500 
G00 Z0.0200 
G00 X-2.5355 Y1.3500 
G01 Z-0.0100 F10.00 
G01 X-2.7145 Y1.3500 
G00 Z0.0200 
G00 X-2.7855 Y1.3500 
G01 Z-0.0100 F10.00 
G01 X-3.0869 Y1.3500 
G00 Z0.0200 
G00 X-3.1131 Y1.3500 
G01 Z-0.0100 F10.00 
G01 X-3.5069 Y1.3500 
G00 Z0.0200 
G00 X-3.5931 Y1.3500 
G01 Z-0.0100 F10.00 
G01 X-3.9196 Y1.3500 
G00 Z0.0200 
G00 X0.0201 Y1.3600 
G01 Z-0.0100 F10.00 
G01 X-0.2069 Y1.3600 
G00 Z0.0200 
G00 X-0.2931 Y1.3600 
G01 Z-0.0100 F10.00 
G01 X-0.4291 Y1.3600 
G00 Z0.0200 
G00 X-0.8300 Y1.3600 
G01 Z-0.0100 F10.00 
G01 X-0.8569 Y1.3600 
G00 Z0.0200 
G00 X-0.9431 Y1.3600 
G01 Z-0.0100 F10.00 
G01 X-0.9700 Y1.3600 
G00 Z0.0200 
G00 X-1.0300 Y1.3600 
G01 Z-0.0100 F10.00 
G01 X-1.0700 Y1.3600 
G00 Z0.0200 
G00 X-1.1300 Y1.3600 
G01 Z-0.0100 F10.00 
G01 X-1.1700 Y1.3600 
G00 Z0.0200 
G00 X-1.2300 Y1.3600 
G01 Z-0.0100 F10.00 
G01 X-1.2700 Y1.3600 
G00 Z0.0200 
G00 X-1.3300 Y1.3600 
G01 Z-0.0100 F10.00 
G01 X-1.3700 Y1.3600 
G00 Z0.0200 
G00 X-1.4300 Y1.3600 
G01 Z-0.0100 F10.00 
G01 X-1.7569 Y1.3600 
G00 Z0.0200 
G00 X-1.8431 Y1.3600 
G01 Z-0.0100 F10.00 
G01 X-2.4745 Y1.3600 
G00 Z0.0200 
G00 X-2.5455 Y1.3600 
G01 Z-0.0100 F10.00 
G01 X-2.7245 Y1.3600 
G00 Z0.0200 
G00 X-2.7955 Y1.3600 
G01 Z-0.0100 F10.00 
G01 X-3.0869 Y1.3600 
G00 Z0.0200 
G00 X-3.1131 Y1.3600 
G01 Z-0.0100 F10.00 
G01 X-3.5069 Y1.3600 
G00 Z0.0200 
G00 X-3.5931 Y1.3600 
G01 Z-0.0100 F10.00 
G01 X-3.9196 Y1.3600 
G00 Z0.0200 
G00 X0.0201 Y1.3700 
G01 Z-0.0100 F10.00 
G01 X-0.2069 Y1.3700 
G00 Z0.0200 
G00 X-0.2931 Y1.3700 
G01 Z-0.0100 F10.00 
G01 X-0.4191 Y1.3700 
G00 Z0.0200 
G00 X-0.8311 Y1.3700 
G01 Z-0.0100 F10.00 
G01 X-0.8569 Y1.3700 
G00 Z0.0200 
G00 X-0.9431 Y1.3700 
G01 Z-0.0100 F10.00 
G01 X-0.9689 Y1.3700 
G00 Z0.0200 
G00 X-1.0311 Y1.3700 
G01 Z-0.0100 F10.00 
G01 X-1.0689 Y1.3700 
G00 Z0.0200 
G00 X-1.1311 Y1.3700 
G01 Z-0.0100 F10.00 
G01 X-1.1689 Y1.3700 
G00 Z0.0200 
G00 X-1.2311 Y1.3700 
G01 Z-0.0100 F10.00 
G01 X-1.2689 Y1.3700 
G00 Z0.0200 
G00 X-1.3311 Y1.3700 
G01 Z-0.0100 F10.00 
G01 X-1.3689 Y1.3700 
G00 Z0.0200 
G00 X-1.4311 Y1.3700 
G01 Z-0.0100 F10.00 
G01 X-1.7569 Y1.3700 
G00 Z0.0200 
G00 X-1.8431 Y1.3700 
G01 Z-0.0100 F10.00 
G01 X-2.4845 Y1.3700 
G00 Z0.0200 
G00 X-2.5555 Y1.3700 
G01 Z-0.0100 F10.00 
G01 X-2.7345 Y1.3700 
G00 Z0.0200 
G00 X-2.8055 Y1.3700 
G01 Z-0.0100 F10.00 
G01 X-3.0869 Y1.3700 
G00 Z0.0200 
G00 X-3.1131 Y1.3700 
G01 Z-0.0100 F10.00 
G01 X-3.5069 Y1.3700 
G00 Z0.0200 
G00 X-3.5931 Y1.3700 
G01 Z-0.0100 F10.00 
G01 X-3.9196 Y1.3700 
G00 Z0.0200 
G00 X0.0201 Y1.3800 
G01 Z-0.0100 F10.00 
G01 X-0.2069 Y1.3800 
G00 Z0.0200 
G00 X-0.2931 Y1.3800 
G01 Z-0.0100 F10.00 
G01 X-0.4091 Y1.3800 
G00 Z0.0200 
G00 X-0.8409 Y1.3800 
G01 Z-0.0100 F10.00 
G01 X-0.8569 Y1.3800 
G00 Z0.0200 
G00 X-0.9431 Y1.3800 
G01 Z-0.0100 F10.00 
G01 X-0.9689 Y1.3800 
G00 Z0.0200 
G00 X-1.0311 Y1.3800 
G01 Z-0.0100 F10.00 
G01 X-1.0689 Y1.3800 
G00 Z0.0200 
G00 X-1.1311 Y1.3800 
G01 Z-0.0100 F10.00 
G01 X-1.1689 Y1.3800 
G00 Z0.0200 
G00 X-1.2311 Y1.3800 
G01 Z-0.0100 F10.00 
G01 X-1.2689 Y1.3800 
G00 Z0.0200 
G00 X-1.3311 Y1.3800 
G01 Z-0.0100 F10.00 
G01 X-1.3689 Y1.3800 
G00 Z0.0200 
G00 X-1.4311 Y1.3800 
G01 Z-0.0100 F10.00 
G01 X-1.7569 Y1.3800 
G00 Z0.0200 
G00 X-1.8431 Y1.3800 
G01 Z-0.0100 F10.00 
G01 X-2.4945 Y1.3800 
G00 Z0.0200 
G00 X-2.5655 Y1.3800 
G01 Z-0.0100 F10.00 
G01 X-2.7445 Y1.3800 
G00 Z0.0200 
G00 X-2.8155 Y1.3800 
G01 Z-0.0100 F10.00 
G01 X-3.0869 Y1.3800 
G00 Z0.0200 
G00 X-3.1131 Y1.3800 
G01 Z-0.0100 F10.00 
G01 X-3.5069 Y1.3800 
G00 Z0.0200 
G00 X-3.5931 Y1.3800 
G01 Z-0.0100 F10.00 
G01 X-3.9196 Y1.3800 
G00 Z0.0200 
G00 X0.0201 Y1.3900 
G01 Z-0.0100 F10.00 
G01 X-0.2069 Y1.3900 
G00 Z0.0200 
G00 X-0.2931 Y1.3900 
G01 Z-0.0100 F10.00 
G01 X-0.4069 Y1.3900 
G00 Z0.0200 
G00 X-0.8431 Y1.3900 
G01 Z-0.0100 F10.00 
G01 X-0.8569 Y1.3900 
G00 Z0.0200 
G00 X-0.9431 Y1.3900 
G01 Z-0.0100 F10.00 
G01 X-0.9689 Y1.3900 
G00 Z0.0200 
G00 X-1.0311 Y1.3900 
G01 Z-0.0100 F10.00 
G01 X-1.0689 Y1.3900 
G00 Z0.0200 
G00 X-1.1311 Y1.3900 
G01 Z-0.0100 F10.00 
G01 X-1.1689 Y1.3900 
G00 Z0.0200 
G00 X-1.2311 Y1.3900 
G01 Z-0.0100 F10.00 
G01 X-1.2689 Y1.3900 
G00 Z0.0200 
G00 X-1.3311 Y1.3900 
G01 Z-0.0100 F10.00 
G01 X-1.3689 Y1.3900 
G00 Z0.0200 
G00 X-1.4311 Y1.3900 
G01 Z-0.0100 F10.00 
G01 X-1.7569 Y1.3900 
G00 Z0.0200 
G00 X-1.8431 Y1.3900 
G01 Z-0.0100 F10.00 
G01 X-2.5045 Y1.3900 
G00 Z0.0200 
G00 X-2.5755 Y1.3900 
G01 Z-0.0100 F10.00 
G01 X-2.7545 Y1.3900 
G00 Z0.0200 
G00 X-2.8255 Y1.3900 
G01 Z-0.0100 F10.00 
G01 X-3.0869 Y1.3900 
G00 Z0.0200 
G00 X-3.1131 Y1.3900 
G01 Z-0.0100 F10.00 
G01 X-3.5069 Y1.3900 
G00 Z0.0200 
G00 X-3.5931 Y1.3900 
G01 Z-0.0100 F10.00 
G01 X-3.9196 Y1.3900 
G00 Z0.0200 
G00 X0.0201 Y1.4000 
G01 Z-0.0100 F10.00 
G01 X-0.2069 Y1.4000 
G00 Z0.0200 
G00 X-0.2931 Y1.4000 
G01 Z-0.0100 F10.00 
G01 X-0.4069 Y1.4000 
G00 Z0.0200 
G00 X-0.8431 Y1.4000 
G01 Z-0.0100 F10.00 
G01 X-0.8569 Y1.4000 
G00 Z0.0200 
G00 X-0.9431 Y1.4000 
G01 Z-0.0100 F10.00 
G01 X-0.9689 Y1.4000 
G00 Z0.0200 
G00 X-1.0311 Y1.4000 
G01 Z-0.0100 F10.00 
G01 X-1.0689 Y1.4000 
G00 Z0.0200 
G00 X-1.1311 Y1.4000 
G01 Z-0.0100 F10.00 
G01 X-1.1689 Y1.4000 
G00 Z0.0200 
G00 X-1.2311 Y1.4000 
G01 Z-0.0100 F10.00 
G01 X-1.2689 Y1.4000 
G00 Z0.0200 
G00 X-1.3311 Y1.4000 
G01 Z-0.0100 F10.00 
G01 X-1.3689 Y1.4000 
G00 Z0.0200 
G00 X-1.4311 Y1.4000 
G01 Z-0.0100 F10.00 
G01 X-1.7569 Y1.4000 
G00 Z0.0200 
G00 X-1.8431 Y1.4000 
G01 Z-0.0100 F10.00 
G01 X-2.5145 Y1.4000 
G00 Z0.0200 
G00 X-2.5855 Y1.4000 
G01 Z-0.0100 F10.00 
G01 X-2.7645 Y1.4000 
G00 Z0.0200 
G00 X-2.8355 Y1.4000 
G01 Z-0.0100 F10.00 
G01 X-3.0869 Y1.4000 
G00 Z0.0200 
G00 X-3.1131 Y1.4000 
G01 Z-0.0100 F10.00 
G01 X-3.5069 Y1.4000 
G00 Z0.0200 
G00 X-3.5931 Y1.4000 
G01 Z-0.0100 F10.00 
G01 X-3.9196 Y1.4000 
G00 Z0.0200 
G00 X0.0201 Y1.4100 
G01 Z-0.0100 F10.00 
G01 X-0.2069 Y1.4100 
G00 Z0.0200 
G00 X-0.2931 Y1.4100 
G01 Z-0.0100 F10.00 
G01 X-0.4069 Y1.4100 
G00 Z0.0200 
G00 X-0.8431 Y1.4100 
G01 Z-0.0100 F10.00 
G01 X-0.8569 Y1.4100 
G00 Z0.0200 
G00 X-0.9431 Y1.4100 
G01 Z-0.0100 F10.00 
G01 X-0.9689 Y1.4100 
G00 Z0.0200 
G00 X-1.0311 Y1.4100 
G01 Z-0.0100 F10.00 
G01 X-1.0689 Y1.4100 
G00 Z0.0200 
G00 X-1.1311 Y1.4100 
G01 Z-0.0100 F10.00 
G01 X-1.1689 Y1.4100 
G00 Z0.0200 
G00 X-1.2311 Y1.4100 
G01 Z-0.0100 F10.00 
G01 X-1.2689 Y1.4100 
G00 Z0.0200 
G00 X-1.3311 Y1.4100 
G01 Z-0.0100 F10.00 
G01 X-1.3689 Y1.4100 
G00 Z0.0200 
G00 X-1.4311 Y1.4100 
G01 Z-0.0100 F10.00 
G01 X-1.7569 Y1.4100 
G00 Z0.0200 
G00 X-1.8431 Y1.4100 
G01 Z-0.0100 F10.00 
G01 X-2.5245 Y1.4100 
G00 Z0.0200 
G00 X-2.5955 Y1.4100 
G01 Z-0.0100 F10.00 
G01 X-2.7745 Y1.4100 
G00 Z0.0200 
G00 X-2.8455 Y1.4100 
G01 Z-0.0100 F10.00 
G01 X-3.0869 Y1.4100 
G00 Z0.0200 
G00 X-3.1131 Y1.4100 
G01 Z-0.0100 F10.00 
G01 X-3.5069 Y1.4100 
G00 Z0.0200 
G00 X-3.5931 Y1.4100 
G01 Z-0.0100 F10.00 
G01 X-3.9196 Y1.4100 
G00 Z0.0200 
G00 X0.0201 Y1.4200 
G01 Z-0.0100 F10.00 
G01 X-0.2069 Y1.4200 
G00 Z0.0200 
G00 X-0.2931 Y1.4200 
G01 Z-0.0100 F10.00 
G01 X-0.4069 Y1.4200 
G00 Z0.0200 
G00 X-0.8431 Y1.4200 
G01 Z-0.0100 F10.00 
G01 X-0.8569 Y1.4200 
G00 Z0.0200 
G00 X-0.9431 Y1.4200 
G01 Z-0.0100 F10.00 
G01 X-0.9689 Y1.4200 
G00 Z0.0200 
G00 X-1.0311 Y1.4200 
G01 Z-0.0100 F10.00 
G01 X-1.0689 Y1.4200 
G00 Z0.0200 
G00 X-1.1311 Y1.4200 
G01 Z-0.0100 F10.00 
G01 X-1.1689 Y1.4200 
G00 Z0.0200 
G00 X-1.2311 Y1.4200 
G01 Z-0.0100 F10.00 
G01 X-1.2689 Y1.4200 
G00 Z0.0200 
G00 X-1.3311 Y1.4200 
G01 Z-0.0100 F10.00 
G01 X-1.3689 Y1.4200 
G00 Z0.0200 
G00 X-1.4311 Y1.4200 
G01 Z-0.0100 F10.00 
G01 X-1.7569 Y1.4200 
G00 Z0.0200 
G00 X-1.8431 Y1.4200 
G01 Z-0.0100 F10.00 
G01 X-2.5345 Y1.4200 
G00 Z0.0200 
G00 X-2.6055 Y1.4200 
G01 Z-0.0100 F10.00 
G01 X-2.7845 Y1.4200 
G00 Z0.0200 
G00 X-2.8555 Y1.4200 
G01 Z-0.0100 F10.00 
G01 X-3.0869 Y1.4200 
G00 Z0.0200 
G00 X-3.1131 Y1.4200 
G01 Z-0.0100 F10.00 
G01 X-3.5069 Y1.4200 
G00 Z0.0200 
G00 X-3.5931 Y1.4200 
G01 Z-0.0100 F10.00 
G01 X-3.9196 Y1.4200 
G00 Z0.0200 
G00 X0.0201 Y1.4300 
G01 Z-0.0100 F10.00 
G01 X-0.2069 Y1.4300 
G00 Z0.0200 
G00 X-0.2931 Y1.4300 
G01 Z-0.0100 F10.00 
G01 X-0.4069 Y1.4300 
G00 Z0.0200 
G00 X-0.8431 Y1.4300 
G01 Z-0.0100 F10.00 
G01 X-0.8569 Y1.4300 
G00 Z0.0200 
G00 X-0.9431 Y1.4300 
G01 Z-0.0100 F10.00 
G01 X-0.9689 Y1.4300 
G00 Z0.0200 
G00 X-1.0311 Y1.4300 
G01 Z-0.0100 F10.00 
G01 X-1.0689 Y1.4300 
G00 Z0.0200 
G00 X-1.1311 Y1.4300 
G01 Z-0.0100 F10.00 
G01 X-1.1689 Y1.4300 
G00 Z0.0200 
G00 X-1.2311 Y1.4300 
G01 Z-0.0100 F10.00 
G01 X-1.2689 Y1.4300 
G00 Z0.0200 
G00 X-1.3311 Y1.4300 
G01 Z-0.0100 F10.00 
G01 X-1.3689 Y1.4300 
G00 Z0.0200 
G00 X-1.4311 Y1.4300 
G01 Z-0.0100 F10.00 
G01 X-1.7569 Y1.4300 
G00 Z0.0200 
G00 X-1.8431 Y1.4300 
G01 Z-0.0100 F10.00 
G01 X-2.5445 Y1.4300 
G00 Z0.0200 
G00 X-2.6155 Y1.4300 
G01 Z-0.0100 F10.00 
G01 X-2.7945 Y1.4300 
G00 Z0.0200 
G00 X-2.8655 Y1.4300 
G01 Z-0.0100 F10.00 
G01 X-3.0869 Y1.4300 
G00 Z0.0200 
G00 X-3.1131 Y1.4300 
G01 Z-0.0100 F10.00 
G01 X-3.5069 Y1.4300 
G00 Z0.0200 
G00 X-3.5931 Y1.4300 
G01 Z-0.0100 F10.00 
G01 X-3.9196 Y1.4300 
G00 Z0.0200 
G00 X0.0201 Y1.4400 
G01 Z-0.0100 F10.00 
G01 X-0.2069 Y1.4400 
G00 Z0.0200 
G00 X-0.2931 Y1.4400 
G01 Z-0.0100 F10.00 
G01 X-0.4091 Y1.4400 
G00 Z0.0200 
G00 X-0.8431 Y1.4400 
G01 Z-0.0100 F10.00 
G01 X-0.8569 Y1.4400 
G00 Z0.0200 
G00 X-0.9431 Y1.4400 
G01 Z-0.0100 F10.00 
G01 X-0.9700 Y1.4400 
G00 Z0.0200 
G00 X-1.0300 Y1.4400 
G01 Z-0.0100 F10.00 
G01 X-1.0700 Y1.4400 
G00 Z0.0200 
G00 X-1.1300 Y1.4400 
G01 Z-0.0100 F10.00 
G01 X-1.1700 Y1.4400 
G00 Z0.0200 
G00 X-1.2300 Y1.4400 
G01 Z-0.0100 F10.00 
G01 X-1.2700 Y1.4400 
G00 Z0.0200 
G00 X-1.3300 Y1.4400 
G01 Z-0.0100 F10.00 
G01 X-1.3700 Y1.4400 
G00 Z0.0200 
G00 X-1.4300 Y1.4400 
G01 Z-0.0100 F10.00 
G01 X-1.7569 Y1.4400 
G00 Z0.0200 
G00 X-1.8431 Y1.4400 
G01 Z-0.0100 F10.00 
G01 X-2.5545 Y1.4400 
G00 Z0.0200 
G00 X-2.6255 Y1.4400 
G01 Z-0.0100 F10.00 
G01 X-2.8045 Y1.4400 
G00 Z0.0200 
G00 X-2.8755 Y1.4400 
G01 Z-0.0100 F10.00 
G01 X-3.0869 Y1.4400 
G00 Z0.0200 
G00 X-3.1131 Y1.4400 
G01 Z-0.0100 F10.00 
G01 X-3.5069 Y1.4400 
G00 Z0.0200 
G00 X-3.5931 Y1.4400 
G01 Z-0.0100 F10.00 
G01 X-3.9196 Y1.4400 
G00 Z0.0200 
G00 X0.0201 Y1.4500 
G01 Z-0.0100 F10.00 
G01 X-0.2069 Y1.4500 
G00 Z0.0200 
G00 X-0.2931 Y1.4500 
G01 Z-0.0100 F10.00 
G01 X-0.4191 Y1.4500 
G00 Z0.0200 
G00 X-0.4809 Y1.4500 
G01 Z-0.0100 F10.00 
G01 X-0.7569 Y1.4500 
G00 Z0.0200 
G00 X-0.8431 Y1.4500 
G01 Z-0.0100 F10.00 
G01 X-0.8569 Y1.4500 
G00 Z0.0200 
G00 X-0.9431 Y1.4500 
G01 Z-0.0100 F10.00 
G01 X-0.9749 Y1.4500 
G00 Z0.0200 
G00 X-1.0251 Y1.4500 
G01 Z-0.0100 F10.00 
G01 X-1.0749 Y1.4500 
G00 Z0.0200 
G00 X-1.1251 Y1.4500 
G01 Z-0.0100 F10.00 
G01 X-1.1749 Y1.4500 
G00 Z0.0200 
G00 X-1.2251 Y1.4500 
G01 Z-0.0100 F10.00 
G01 X-1.2800 Y1.4500 
G00 Z0.0200 
G00 X-1.3200 Y1.4500 
G01 Z-0.0100 F10.00 
G01 X-1.3800 Y1.4500 
G00 Z0.0200 
G00 X-1.4200 Y1.4500 
G01 Z-0.0100 F10.00 
G01 X-1.7569 Y1.4500 
G00 Z0.0200 
G00 X-1.8431 Y1.4500 
G01 Z-0.0100 F10.00 
G01 X-2.5645 Y1.4500 
G00 Z0.0200 
G00 X-2.6355 Y1.4500 
G01 Z-0.0100 F10.00 
G01 X-2.8145 Y1.4500 
G00 Z0.0200 
G00 X-2.8855 Y1.4500 
G01 Z-0.0100 F10.00 
G01 X-3.0869 Y1.4500 
G00 Z0.0200 
G00 X-3.1131 Y1.4500 
G01 Z-0.0100 F10.00 
G01 X-3.5069 Y1.4500 
G00 Z0.0200 
G00 X-3.5931 Y1.4500 
G01 Z-0.0100 F10.00 
G01 X-3.9196 Y1.4500 
G00 Z0.0200 
G00 X0.0201 Y1.4600 
G01 Z-0.0100 F10.00 
G01 X-0.2069 Y1.4600 
G00 Z0.0200 
G00 X-0.2931 Y1.4600 
G01 Z-0.0100 F10.00 
G01 X-0.4291 Y1.4600 
G00 Z0.0200 
G00 X-0.4709 Y1.4600 
G01 Z-0.0100 F10.00 
G01 X-0.7569 Y1.4600 
G00 Z0.0200 
G00 X-0.8431 Y1.4600 
G01 Z-0.0100 F10.00 
G01 X-0.8569 Y1.4600 
G00 Z0.0200 
G00 X-0.9431 Y1.4600 
G01 Z-0.0100 F10.00 
G01 X-0.9749 Y1.4600 
G00 Z0.0200 
G00 X-1.0251 Y1.4600 
G01 Z-0.0100 F10.00 
G01 X-1.0749 Y1.4600 
G00 Z0.0200 
G00 X-1.1251 Y1.4600 
G01 Z-0.0100 F10.00 
G01 X-1.1749 Y1.4600 
G00 Z0.0200 
G00 X-1.2251 Y1.4600 
G01 Z-0.0100 F10.00 
G01 X-1.7569 Y1.4600 
G00 Z0.0200 
G00 X-1.8431 Y1.4600 
G01 Z-0.0100 F10.00 
G01 X-2.5745 Y1.4600 
G00 Z0.0200 
G00 X-2.6455 Y1.4600 
G01 Z-0.0100 F10.00 
G01 X-2.8245 Y1.4600 
G00 Z0.0200 
G00 X-2.8955 Y1.4600 
G01 Z-0.0100 F10.00 
G01 X-3.0869 Y1.4600 
G00 Z0.0200 
G00 X-3.1131 Y1.4600 
G01 Z-0.0100 F10.00 
G01 X-3.5069 Y1.4600 
G00 Z0.0200 
G00 X-3.5931 Y1.4600 
G01 Z-0.0100 F10.00 
G01 X-3.9196 Y1.4600 
G00 Z0.0200 
G00 X0.0201 Y1.4700 
G01 Z-0.0100 F10.00 
G01 X-0.2069 Y1.4700 
G00 Z0.0200 
G00 X-0.2931 Y1.4700 
G01 Z-0.0100 F10.00 
G01 X-0.7569 Y1.4700 
G00 Z0.0200 
G00 X-0.8431 Y1.4700 
G01 Z-0.0100 F10.00 
G01 X-0.8569 Y1.4700 
G00 Z0.0200 
G00 X-0.9431 Y1.4700 
G01 Z-0.0100 F10.00 
G01 X-0.9749 Y1.4700 
G00 Z0.0200 
G00 X-1.0251 Y1.4700 
G01 Z-0.0100 F10.00 
G01 X-1.0749 Y1.4700 
G00 Z0.0200 
G00 X-1.1251 Y1.4700 
G01 Z-0.0100 F10.00 
G01 X-1.1749 Y1.4700 
G00 Z0.0200 
G00 X-1.2251 Y1.4700 
G01 Z-0.0100 F10.00 
G01 X-1.7591 Y1.4700 
G00 Z0.0200 
G00 X-1.8409 Y1.4700 
G01 Z-0.0100 F10.00 
G01 X-2.1804 Y1.4700 
G00 Z0.0200 
G00 X-2.2196 Y1.4700 
G01 Z-0.0100 F10.00 
G01 X-2.5845 Y1.4700 
G00 Z0.0200 
G00 X-2.6555 Y1.4700 
G01 Z-0.0100 F10.00 
G01 X-2.8345 Y1.4700 
G00 Z0.0200 
G00 X-2.9055 Y1.4700 
G01 Z-0.0100 F10.00 
G01 X-2.9304 Y1.4700 
G00 Z0.0200 
G00 X-2.9696 Y1.4700 
G01 Z-0.0100 F10.00 
G01 X-3.0869 Y1.4700 
G00 Z0.0200 
G00 X-3.1131 Y1.4700 
G01 Z-0.0100 F10.00 
G01 X-3.1804 Y1.4700 
G00 Z0.0200 
G00 X-3.2196 Y1.4700 
G01 Z-0.0100 F10.00 
G01 X-3.3360 Y1.4700 
G00 Z0.0200 
G00 X-3.3640 Y1.4700 
G01 Z-0.0100 F10.00 
G01 X-3.5069 Y1.4700 
G00 Z0.0200 
G00 X-3.5931 Y1.4700 
G01 Z-0.0100 F10.00 
G01 X-3.9196 Y1.4700 
G00 Z0.0200 
G00 X0.0201 Y1.4800 
G01 Z-0.0100 F10.00 
G01 X-0.2069 Y1.4800 
G00 Z0.0200 
G00 X-0.2931 Y1.4800 
G01 Z-0.0100 F10.00 
G01 X-0.7569 Y1.4800 
G00 Z0.0200 
G00 X-0.8431 Y1.4800 
G01 Z-0.0100 F10.00 
G01 X-0.8569 Y1.4800 
G00 Z0.0200 
G00 X-0.9431 Y1.4800 
G01 Z-0.0100 F10.00 
G01 X-0.9749 Y1.4800 
G00 Z0.0200 
G00 X-1.0251 Y1.4800 
G01 Z-0.0100 F10.00 
G01 X-1.0749 Y1.4800 
G00 Z0.0200 
G00 X-1.1251 Y1.4800 
G01 Z-0.0100 F10.00 
G01 X-1.1749 Y1.4800 
G00 Z0.0200 
G00 X-1.2251 Y1.4800 
G01 Z-0.0100 F10.00 
G01 X-1.7691 Y1.4800 
G00 Z0.0200 
G00 X-1.8309 Y1.4800 
G01 Z-0.0100 F10.00 
G01 X-2.1704 Y1.4800 
G00 Z0.0200 
G00 X-2.2296 Y1.4800 
G01 Z-0.0100 F10.00 
G01 X-2.5945 Y1.4800 
G00 Z0.0200 
G00 X-2.6655 Y1.4800 
G01 Z-0.0100 F10.00 
G01 X-2.8445 Y1.4800 
G00 Z0.0200 
G00 X-3.0655 Y1.4800 
G01 Z-0.0100 F10.00 
G01 X-3.0869 Y1.4800 
G00 Z0.0200 
G00 X-3.1131 Y1.4800 
G01 Z-0.0100 F10.00 
G01 X-3.1704 Y1.4800 
G00 Z0.0200 
G00 X-3.3740 Y1.4800 
G01 Z-0.0100 F10.00 
G01 X-3.5069 Y1.4800 
G00 Z0.0200 
G00 X-3.5931 Y1.4800 
G01 Z-0.0100 F10.00 
G01 X-3.9196 Y1.4800 
G00 Z0.0200 
G00 X0.0201 Y1.4900 
G01 Z-0.0100 F10.00 
G01 X-0.2069 Y1.4900 
G00 Z0.0200 
G00 X-0.3009 Y1.4900 
G01 Z-0.0100 F10.00 
G01 X-0.7569 Y1.4900 
G00 Z0.0200 
G00 X-0.8431 Y1.4900 
G01 Z-0.0100 F10.00 
G01 X-0.8569 Y1.4900 
G00 Z0.0200 
G00 X-0.9431 Y1.4900 
G01 Z-0.0100 F10.00 
G01 X-0.9749 Y1.4900 
G00 Z0.0200 
G00 X-1.0251 Y1.4900 
G01 Z-0.0100 F10.00 
G01 X-1.0749 Y1.4900 
G00 Z0.0200 
G00 X-1.1251 Y1.4900 
G01 Z-0.0100 F10.00 
G01 X-1.1749 Y1.4900 
G00 Z0.0200 
G00 X-1.2251 Y1.4900 
G01 Z-0.0100 F10.00 
G01 X-1.7791 Y1.4900 
G00 Z0.0200 
G00 X-1.8209 Y1.4900 
G01 Z-0.0100 F10.00 
G01 X-2.1649 Y1.4900 
G00 Z0.0200 
G00 X-2.2351 Y1.4900 
G01 Z-0.0100 F10.00 
G01 X-2.6045 Y1.4900 
G00 Z0.0200 
G00 X-2.6755 Y1.4900 
G01 Z-0.0100 F10.00 
G01 X-2.8545 Y1.4900 
G00 Z0.0200 
G00 X-3.0751 Y1.4900 
G01 Z-0.0100 F10.00 
G01 X-3.0869 Y1.4900 
G00 Z0.0200 
G00 X-3.1131 Y1.4900 
G01 Z-0.0100 F10.00 
G01 X-3.1649 Y1.4900 
G00 Z0.0200 
G00 X-3.3811 Y1.4900 
G01 Z-0.0100 F10.00 
G01 X-3.5069 Y1.4900 
G00 Z0.0200 
G00 X-3.5931 Y1.4900 
G01 Z-0.0100 F10.00 
G01 X-3.9196 Y1.4900 
G00 Z0.0200 
G00 X0.0201 Y1.5000 
G01 Z-0.0100 F10.00 
G01 X-0.2069 Y1.5000 
G00 Z0.0200 
G00 X-0.3109 Y1.5000 
G01 Z-0.0100 F10.00 
G01 X-0.7569 Y1.5000 
G00 Z0.0200 
G00 X-0.8431 Y1.5000 
G01 Z-0.0100 F10.00 
G01 X-0.8569 Y1.5000 
G00 Z0.0200 
G00 X-0.9431 Y1.5000 
G01 Z-0.0100 F10.00 
G01 X-0.9749 Y1.5000 
G00 Z0.0200 
G00 X-1.0251 Y1.5000 
G01 Z-0.0100 F10.00 
G01 X-1.0749 Y1.5000 
G00 Z0.0200 
G00 X-1.1251 Y1.5000 
G01 Z-0.0100 F10.00 
G01 X-1.1749 Y1.5000 
G00 Z0.0200 
G00 X-1.2251 Y1.5000 
G01 Z-0.0100 F10.00 
G01 X-2.1649 Y1.5000 
G00 Z0.0200 
G00 X-2.2351 Y1.5000 
G01 Z-0.0100 F10.00 
G01 X-2.6145 Y1.5000 
G00 Z0.0200 
G00 X-2.6855 Y1.5000 
G01 Z-0.0100 F10.00 
G01 X-2.8645 Y1.5000 
G00 Z0.0200 
G00 X-3.0751 Y1.5000 
G01 Z-0.0100 F10.00 
G01 X-3.0869 Y1.5000 
G00 Z0.0200 
G00 X-3.1131 Y1.5000 
G01 Z-0.0100 F10.00 
G01 X-3.1649 Y1.5000 
G00 Z0.0200 
G00 X-3.3811 Y1.5000 
G01 Z-0.0100 F10.00 
G01 X-3.5069 Y1.5000 
G00 Z0.0200 
G00 X-3.5931 Y1.5000 
G01 Z-0.0100 F10.00 
G01 X-3.9196 Y1.5000 
G00 Z0.0200 
G00 X0.0201 Y1.5100 
G01 Z-0.0100 F10.00 
G01 X-0.2069 Y1.5100 
G00 Z0.0200 
G00 X-0.3209 Y1.5100 
G01 Z-0.0100 F10.00 
G01 X-0.7569 Y1.5100 
G00 Z0.0200 
G00 X-0.8431 Y1.5100 
G01 Z-0.0100 F10.00 
G01 X-0.8569 Y1.5100 
G00 Z0.0200 
G00 X-0.9431 Y1.5100 
G01 Z-0.0100 F10.00 
G01 X-0.9749 Y1.5100 
G00 Z0.0200 
G00 X-1.0251 Y1.5100 
G01 Z-0.0100 F10.00 
G01 X-1.0749 Y1.5100 
G00 Z0.0200 
G00 X-1.1251 Y1.5100 
G01 Z-0.0100 F10.00 
G01 X-1.1749 Y1.5100 
G00 Z0.0200 
G00 X-1.2251 Y1.5100 
G01 Z-0.0100 F10.00 
G01 X-2.1649 Y1.5100 
G00 Z0.0200 
G00 X-2.2351 Y1.5100 
G01 Z-0.0100 F10.00 
G01 X-2.6245 Y1.5100 
G00 Z0.0200 
G00 X-2.6955 Y1.5100 
G01 Z-0.0100 F10.00 
G01 X-2.8745 Y1.5100 
G00 Z0.0200 
G00 X-3.0751 Y1.5100 
G01 Z-0.0100 F10.00 
G01 X-3.0869 Y1.5100 
G00 Z0.0200 
G00 X-3.1131 Y1.5100 
G01 Z-0.0100 F10.00 
G01 X-3.1649 Y1.5100 
G00 Z0.0200 
G00 X-3.3811 Y1.5100 
G01 Z-0.0100 F10.00 
G01 X-3.5069 Y1.5100 
G00 Z0.0200 
G00 X-3.5931 Y1.5100 
G01 Z-0.0100 F10.00 
G01 X-3.9196 Y1.5100 
G00 Z0.0200 
G00 X0.0201 Y1.5200 
G01 Z-0.0100 F10.00 
G01 X-0.2091 Y1.5200 
G00 Z0.0200 
G00 X-0.3309 Y1.5200 
G01 Z-0.0100 F10.00 
G01 X-0.7569 Y1.5200 
G00 Z0.0200 
G00 X-0.8431 Y1.5200 
G01 Z-0.0100 F10.00 
G01 X-0.8569 Y1.5200 
G00 Z0.0200 
G00 X-0.9431 Y1.5200 
G01 Z-0.0100 F10.00 
G01 X-0.9749 Y1.5200 
G00 Z0.0200 
G00 X-1.0251 Y1.5200 
G01 Z-0.0100 F10.00 
G01 X-1.0749 Y1.5200 
G00 Z0.0200 
G00 X-1.1251 Y1.5200 
G01 Z-0.0100 F10.00 
G01 X-1.1749 Y1.5200 
G00 Z0.0200 
G00 X-1.2251 Y1.5200 
G01 Z-0.0100 F10.00 
G01 X-2.1704 Y1.5200 
G00 Z0.0200 
G00 X-2.2296 Y1.5200 
G01 Z-0.0100 F10.00 
G01 X-2.6345 Y1.5200 
G00 Z0.0200 
G00 X-2.7055 Y1.5200 
G01 Z-0.0100 F10.00 
G01 X-2.8845 Y1.5200 
G00 Z0.0200 
G00 X-3.0751 Y1.5200 
G01 Z-0.0100 F10.00 
G01 X-3.0869 Y1.5200 
G00 Z0.0200 
G00 X-3.1131 Y1.5200 
G01 Z-0.0100 F10.00 
G01 X-3.1704 Y1.5200 
G00 Z0.0200 
G00 X-3.3740 Y1.5200 
G01 Z-0.0100 F10.00 
G01 X-3.5069 Y1.5200 
G00 Z0.0200 
G00 X-3.5931 Y1.5200 
G01 Z-0.0100 F10.00 
G01 X-3.9196 Y1.5200 
G00 Z0.0200 
G00 X0.0201 Y1.5300 
G01 Z-0.0100 F10.00 
G01 X-0.2191 Y1.5300 
G00 Z0.0200 
G00 X-0.3409 Y1.5300 
G01 Z-0.0100 F10.00 
G01 X-0.7569 Y1.5300 
G00 Z0.0200 
G00 X-0.8431 Y1.5300 
G01 Z-0.0100 F10.00 
G01 X-0.8569 Y1.5300 
G00 Z0.0200 
G00 X-0.9431 Y1.5300 
G01 Z-0.0100 F10.00 
G01 X-0.9749 Y1.5300 
G00 Z0.0200 
G00 X-1.0251 Y1.5300 
G01 Z-0.0100 F10.00 
G01 X-1.0749 Y1.5300 
G00 Z0.0200 
G00 X-1.1251 Y1.5300 
G01 Z-0.0100 F10.00 
G01 X-1.1749 Y1.5300 
G00 Z0.0200 
G00 X-1.2251 Y1.5300 
G01 Z-0.0100 F10.00 
G01 X-2.1749 Y1.5300 
G00 Z0.0200 
G00 X-2.2251 Y1.5300 
G01 Z-0.0100 F10.00 
G01 X-2.6445 Y1.5300 
G00 Z0.0200 
G00 X-2.7155 Y1.5300 
G01 Z-0.0100 F10.00 
G01 X-2.9304 Y1.5300 
G00 Z0.0200 
G00 X-2.9696 Y1.5300 
G01 Z-0.0100 F10.00 
G01 X-3.0249 Y1.5300 
G00 Z0.0200 
G00 X-3.0751 Y1.5300 
G01 Z-0.0100 F10.00 
G01 X-3.0869 Y1.5300 
G00 Z0.0200 
G00 X-3.1131 Y1.5300 
G01 Z-0.0100 F10.00 
G01 X-3.1749 Y1.5300 
G00 Z0.0200 
G00 X-3.2251 Y1.5300 
G01 Z-0.0100 F10.00 
G01 X-3.3360 Y1.5300 
G00 Z0.0200 
G00 X-3.3640 Y1.5300 
G01 Z-0.0100 F10.00 
G01 X-3.5069 Y1.5300 
G00 Z0.0200 
G00 X-3.5931 Y1.5300 
G01 Z-0.0100 F10.00 
G01 X-3.9196 Y1.5300 
G00 Z0.0200 
G00 X0.0201 Y1.5400 
G01 Z-0.0100 F10.00 
G01 X-0.2291 Y1.5400 
G00 Z0.0200 
G00 X-0.3509 Y1.5400 
G01 Z-0.0100 F10.00 
G01 X-0.7569 Y1.5400 
G00 Z0.0200 
G00 X-0.8431 Y1.5400 
G01 Z-0.0100 F10.00 
G01 X-0.8569 Y1.5400 
G00 Z0.0200 
G00 X-0.9431 Y1.5400 
G01 Z-0.0100 F10.00 
G01 X-0.9749 Y1.5400 
G00 Z0.0200 
G00 X-1.0251 Y1.5400 
G01 Z-0.0100 F10.00 
G01 X-1.0749 Y1.5400 
G00 Z0.0200 
G00 X-1.1251 Y1.5400 
G01 Z-0.0100 F10.00 
G01 X-1.1749 Y1.5400 
G00 Z0.0200 
G00 X-1.2251 Y1.5400 
G01 Z-0.0100 F10.00 
G01 X-2.1749 Y1.5400 
G00 Z0.0200 
G00 X-2.2251 Y1.5400 
G01 Z-0.0100 F10.00 
G01 X-2.6545 Y1.5400 
G00 Z0.0200 
G00 X-2.7255 Y1.5400 
G01 Z-0.0100 F10.00 
G01 X-3.0249 Y1.5400 
G00 Z0.0200 
G00 X-3.0751 Y1.5400 
G01 Z-0.0100 F10.00 
G01 X-3.0869 Y1.5400 
G00 Z0.0200 
G00 X-3.1131 Y1.5400 
G01 Z-0.0100 F10.00 
G01 X-3.1749 Y1.5400 
G00 Z0.0200 
G00 X-3.2251 Y1.5400 
G01 Z-0.0100 F10.00 
G01 X-3.5069 Y1.5400 
G00 Z0.0200 
G00 X-3.5931 Y1.5400 
G01 Z-0.0100 F10.00 
G01 X-3.9196 Y1.5400 
G00 Z0.0200 
G00 X0.0201 Y1.5500 
G01 Z-0.0100 F10.00 
G01 X-0.2391 Y1.5500 
G00 Z0.0200 
G00 X-0.3609 Y1.5500 
G01 Z-0.0100 F10.00 
G01 X-0.7569 Y1.5500 
G00 Z0.0200 
G00 X-0.8431 Y1.5500 
G01 Z-0.0100 F10.00 
G01 X-0.8569 Y1.5500 
G00 Z0.0200 
G00 X-0.9431 Y1.5500 
G01 Z-0.0100 F10.00 
G01 X-0.9749 Y1.5500 
G00 Z0.0200 
G00 X-1.0251 Y1.5500 
G01 Z-0.0100 F10.00 
G01 X-1.0749 Y1.5500 
G00 Z0.0200 
G00 X-1.1251 Y1.5500 
G01 Z-0.0100 F10.00 
G01 X-1.1749 Y1.5500 
G00 Z0.0200 
G00 X-1.2251 Y1.5500 
G01 Z-0.0100 F10.00 
G01 X-2.1749 Y1.5500 
G00 Z0.0200 
G00 X-2.2251 Y1.5500 
G01 Z-0.0100 F10.00 
G01 X-2.6645 Y1.5500 
G00 Z0.0200 
G00 X-2.7355 Y1.5500 
G01 Z-0.0100 F10.00 
G01 X-3.0249 Y1.5500 
G00 Z0.0200 
G00 X-3.0751 Y1.5500 
G01 Z-0.0100 F10.00 
G01 X-3.0869 Y1.5500 
G00 Z0.0200 
G00 X-3.1131 Y1.5500 
G01 Z-0.0100 F10.00 
G01 X-3.1749 Y1.5500 
G00 Z0.0200 
G00 X-3.2251 Y1.5500 
G01 Z-0.0100 F10.00 
G01 X-3.5069 Y1.5500 
G00 Z0.0200 
G00 X-3.5931 Y1.5500 
G01 Z-0.0100 F10.00 
G01 X-3.9196 Y1.5500 
G00 Z0.0200 
G00 X0.0201 Y1.5600 
G01 Z-0.0100 F10.00 
G01 X-0.2491 Y1.5600 
G00 Z0.0200 
G00 X-0.3709 Y1.5600 
G01 Z-0.0100 F10.00 
G01 X-0.7569 Y1.5600 
G00 Z0.0200 
G00 X-0.8431 Y1.5600 
G01 Z-0.0100 F10.00 
G01 X-0.8569 Y1.5600 
G00 Z0.0200 
G00 X-0.9431 Y1.5600 
G01 Z-0.0100 F10.00 
G01 X-0.9749 Y1.5600 
G00 Z0.0200 
G00 X-1.0251 Y1.5600 
G01 Z-0.0100 F10.00 
G01 X-1.0749 Y1.5600 
G00 Z0.0200 
G00 X-1.1251 Y1.5600 
G01 Z-0.0100 F10.00 
G01 X-1.1749 Y1.5600 
G00 Z0.0200 
G00 X-1.2251 Y1.5600 
G01 Z-0.0100 F10.00 
G01 X-2.1749 Y1.5600 
G00 Z0.0200 
G00 X-2.2251 Y1.5600 
G01 Z-0.0100 F10.00 
G01 X-2.6745 Y1.5600 
G00 Z0.0200 
G00 X-2.7455 Y1.5600 
G01 Z-0.0100 F10.00 
G01 X-3.0249 Y1.5600 
G00 Z0.0200 
G00 X-3.0751 Y1.5600 
G01 Z-0.0100 F10.00 
G01 X-3.0869 Y1.5600 
G00 Z0.0200 
G00 X-3.1131 Y1.5600 
G01 Z-0.0100 F10.00 
G01 X-3.1749 Y1.5600 
G00 Z0.0200 
G00 X-3.2251 Y1.5600 
G01 Z-0.0100 F10.00 
G01 X-3.5069 Y1.5600 
G00 Z0.0200 
G00 X-3.5931 Y1.5600 
G01 Z-0.0100 F10.00 
G01 X-3.9196 Y1.5600 
G00 Z0.0200 
G00 X0.0201 Y1.5700 
G01 Z-0.0100 F10.00 
G01 X-0.2591 Y1.5700 
G00 Z0.0200 
G00 X-0.3809 Y1.5700 
G01 Z-0.0100 F10.00 
G01 X-0.7569 Y1.5700 
G00 Z0.0200 
G00 X-0.8431 Y1.5700 
G01 Z-0.0100 F10.00 
G01 X-0.8591 Y1.5700 
G00 Z0.0200 
G00 X-0.9409 Y1.5700 
G01 Z-0.0100 F10.00 
G01 X-0.9749 Y1.5700 
G00 Z0.0200 
G00 X-1.0251 Y1.5700 
G01 Z-0.0100 F10.00 
G01 X-1.0749 Y1.5700 
G00 Z0.0200 
G00 X-1.1251 Y1.5700 
G01 Z-0.0100 F10.00 
G01 X-1.1749 Y1.5700 
G00 Z0.0200 
G00 X-1.2251 Y1.5700 
G01 Z-0.0100 F10.00 
G01 X-2.1749 Y1.5700 
G00 Z0.0200 
G00 X-2.2251 Y1.5700 
G01 Z-0.0100 F10.00 
G01 X-2.6845 Y1.5700 
G00 Z0.0200 
G00 X-2.7555 Y1.5700 
G01 Z-0.0100 F10.00 
G01 X-3.0249 Y1.5700 
G00 Z0.0200 
G00 X-3.0751 Y1.5700 
G01 Z-0.0100 F10.00 
G01 X-3.0869 Y1.5700 
G00 Z0.0200 
G00 X-3.1131 Y1.5700 
G01 Z-0.0100 F10.00 
G01 X-3.1749 Y1.5700 
G00 Z0.0200 
G00 X-3.2251 Y1.5700 
G01 Z-0.0100 F10.00 
G01 X-3.5069 Y1.5700 
G00 Z0.0200 
G00 X-3.5931 Y1.5700 
G01 Z-0.0100 F10.00 
G01 X-3.9196 Y1.5700 
G00 Z0.0200 
G00 X0.0201 Y1.5800 
G01 Z-0.0100 F10.00 
G01 X-0.2691 Y1.5800 
G00 Z0.0200 
G00 X-0.3909 Y1.5800 
G01 Z-0.0100 F10.00 
G01 X-0.7569 Y1.5800 
G00 Z0.0200 
G00 X-0.8431 Y1.5800 
G01 Z-0.0100 F10.00 
G01 X-0.8691 Y1.5800 
G00 Z0.0200 
G00 X-0.9309 Y1.5800 
G01 Z-0.0100 F10.00 
G01 X-0.9749 Y1.5800 
G00 Z0.0200 
G00 X-1.0251 Y1.5800 
G01 Z-0.0100 F10.00 
G01 X-1.0749 Y1.5800 
G00 Z0.0200 
G00 X-1.1251 Y1.5800 
G01 Z-0.0100 F10.00 
G01 X-1.1749 Y1.5800 
G00 Z0.0200 
G00 X-1.2251 Y1.5800 
G01 Z-0.0100 F10.00 
G01 X-2.1749 Y1.5800 
G00 Z0.0200 
G00 X-2.2251 Y1.5800 
G01 Z-0.0100 F10.00 
G01 X-2.6945 Y1.5800 
G00 Z0.0200 
G00 X-2.7655 Y1.5800 
G01 Z-0.0100 F10.00 
G01 X-3.0249 Y1.5800 
G00 Z0.0200 
G00 X-3.0751 Y1.5800 
G01 Z-0.0100 F10.00 
G01 X-3.0869 Y1.5800 
G00 Z0.0200 
G00 X-3.1131 Y1.5800 
G01 Z-0.0100 F10.00 
G01 X-3.1749 Y1.5800 
G00 Z0.0200 
G00 X-3.2251 Y1.5800 
G01 Z-0.0100 F10.00 
G01 X-3.5069 Y1.5800 
G00 Z0.0200 
G00 X-3.5931 Y1.5800 
G01 Z-0.0100 F10.00 
G01 X-3.9196 Y1.5800 
G00 Z0.0200 
G00 X0.0201 Y1.5900 
G01 Z-0.0100 F10.00 
G01 X-0.2791 Y1.5900 
G00 Z0.0200 
G00 X-0.4009 Y1.5900 
G01 Z-0.0100 F10.00 
G01 X-0.7569 Y1.5900 
G00 Z0.0200 
G00 X-0.8431 Y1.5900 
G01 Z-0.0100 F10.00 
G01 X-0.8791 Y1.5900 
G00 Z0.0200 
G00 X-0.9209 Y1.5900 
G01 Z-0.0100 F10.00 
G01 X-0.9749 Y1.5900 
G00 Z0.0200 
G00 X-1.0251 Y1.5900 
G01 Z-0.0100 F10.00 
G01 X-1.0749 Y1.5900 
G00 Z0.0200 
G00 X-1.1251 Y1.5900 
G01 Z-0.0100 F10.00 
G01 X-1.1749 Y1.5900 
G00 Z0.0200 
G00 X-1.2251 Y1.5900 
G01 Z-0.0100 F10.00 
G01 X-2.1749 Y1.5900 
G00 Z0.0200 
G00 X-2.2251 Y1.5900 
G01 Z-0.0100 F10.00 
G01 X-2.7045 Y1.5900 
G00 Z0.0200 
G00 X-2.7755 Y1.5900 
G01 Z-0.0100 F10.00 
G01 X-3.0249 Y1.5900 
G00 Z0.0200 
G00 X-3.0751 Y1.5900 
G01 Z-0.0100 F10.00 
G01 X-3.0869 Y1.5900 
G00 Z0.0200 
G00 X-3.1131 Y1.5900 
G01 Z-0.0100 F10.00 
G01 X-3.1749 Y1.5900 
G00 Z0.0200 
G00 X-3.2251 Y1.5900 
G01 Z-0.0100 F10.00 
G01 X-3.5069 Y1.5900 
G00 Z0.0200 
G00 X-3.5931 Y1.5900 
G01 Z-0.0100 F10.00 
G01 X-3.9196 Y1.5900 
G00 Z0.0200 
G00 X0.0201 Y1.6000 
G01 Z-0.0100 F10.00 
G01 X-0.2891 Y1.6000 
G00 Z0.0200 
G00 X-0.4109 Y1.6000 
G01 Z-0.0100 F10.00 
G01 X-0.7569 Y1.6000 
G00 Z0.0200 
G00 X-0.8431 Y1.6000 
G01 Z-0.0100 F10.00 
G01 X-0.9749 Y1.6000 
G00 Z0.0200 
G00 X-1.0251 Y1.6000 
G01 Z-0.0100 F10.00 
G01 X-1.0749 Y1.6000 
G00 Z0.0200 
G00 X-1.1251 Y1.6000 
G01 Z-0.0100 F10.00 
G01 X-1.1749 Y1.6000 
G00 Z0.0200 
G00 X-1.2251 Y1.6000 
G01 Z-0.0100 F10.00 
G01 X-2.1749 Y1.6000 
G00 Z0.0200 
G00 X-2.2251 Y1.6000 
G01 Z-0.0100 F10.00 
G01 X-2.7145 Y1.6000 
G00 Z0.0200 
G00 X-2.7855 Y1.6000 
G01 Z-0.0100 F10.00 
G01 X-3.0249 Y1.6000 
G00 Z0.0200 
G00 X-3.0751 Y1.6000 
G01 Z-0.0100 F10.00 
G01 X-3.0869 Y1.6000 
G00 Z0.0200 
G00 X-3.1131 Y1.6000 
G01 Z-0.0100 F10.00 
G01 X-3.1749 Y1.6000 
G00 Z0.0200 
G00 X-3.2251 Y1.6000 
G01 Z-0.0100 F10.00 
G01 X-3.5069 Y1.6000 
G00 Z0.0200 
G00 X-3.5931 Y1.6000 
G01 Z-0.0100 F10.00 
G01 X-3.9196 Y1.6000 
G00 Z0.0200 
G00 X0.0201 Y1.6100 
G01 Z-0.0100 F10.00 
G01 X-0.2991 Y1.6100 
G00 Z0.0200 
G00 X-0.4209 Y1.6100 
G01 Z-0.0100 F10.00 
G01 X-0.7569 Y1.6100 
G00 Z0.0200 
G00 X-0.8431 Y1.6100 
G01 Z-0.0100 F10.00 
G01 X-0.9749 Y1.6100 
G00 Z0.0200 
G00 X-1.0251 Y1.6100 
G01 Z-0.0100 F10.00 
G01 X-1.0749 Y1.6100 
G00 Z0.0200 
G00 X-1.1251 Y1.6100 
G01 Z-0.0100 F10.00 
G01 X-1.1749 Y1.6100 
G00 Z0.0200 
G00 X-1.2251 Y1.6100 
G01 Z-0.0100 F10.00 
G01 X-2.1749 Y1.6100 
G00 Z0.0200 
G00 X-2.2251 Y1.6100 
G01 Z-0.0100 F10.00 
G01 X-2.7245 Y1.6100 
G00 Z0.0200 
G00 X-2.7955 Y1.6100 
G01 Z-0.0100 F10.00 
G01 X-3.0249 Y1.6100 
G00 Z0.0200 
G00 X-3.0751 Y1.6100 
G01 Z-0.0100 F10.00 
G01 X-3.0869 Y1.6100 
G00 Z0.0200 
G00 X-3.1131 Y1.6100 
G01 Z-0.0100 F10.00 
G01 X-3.1749 Y1.6100 
G00 Z0.0200 
G00 X-3.2251 Y1.6100 
G01 Z-0.0100 F10.00 
G01 X-3.5069 Y1.6100 
G00 Z0.0200 
G00 X-3.5931 Y1.6100 
G01 Z-0.0100 F10.00 
G01 X-3.9196 Y1.6100 
G00 Z0.0200 
G00 X0.0201 Y1.6200 
G01 Z-0.0100 F10.00 
G01 X-0.3091 Y1.6200 
G00 Z0.0200 
G00 X-0.4309 Y1.6200 
G01 Z-0.0100 F10.00 
G01 X-0.7569 Y1.6200 
G00 Z0.0200 
G00 X-0.8431 Y1.6200 
G01 Z-0.0100 F10.00 
G01 X-0.9749 Y1.6200 
G00 Z0.0200 
G00 X-1.0251 Y1.6200 
G01 Z-0.0100 F10.00 
G01 X-1.0749 Y1.6200 
G00 Z0.0200 
G00 X-1.1251 Y1.6200 
G01 Z-0.0100 F10.00 
G01 X-1.1749 Y1.6200 
G00 Z0.0200 
G00 X-1.2251 Y1.6200 
G01 Z-0.0100 F10.00 
G01 X-1.7860 Y1.6200 
G00 Z0.0200 
G00 X-1.8140 Y1.6200 
G01 Z-0.0100 F10.00 
G01 X-2.1749 Y1.6200 
G00 Z0.0200 
G00 X-2.2251 Y1.6200 
G01 Z-0.0100 F10.00 
G01 X-2.7345 Y1.6200 
G00 Z0.0200 
G00 X-2.8055 Y1.6200 
G01 Z-0.0100 F10.00 
G01 X-3.0249 Y1.6200 
G00 Z0.0200 
G00 X-3.0751 Y1.6200 
G01 Z-0.0100 F10.00 
G01 X-3.0869 Y1.6200 
G00 Z0.0200 
G00 X-3.1131 Y1.6200 
G01 Z-0.0100 F10.00 
G01 X-3.1749 Y1.6200 
G00 Z0.0200 
G00 X-3.2251 Y1.6200 
G01 Z-0.0100 F10.00 
G01 X-3.5069 Y1.6200 
G00 Z0.0200 
G00 X-3.5931 Y1.6200 
G01 Z-0.0100 F10.00 
G01 X-3.9196 Y1.6200 
G00 Z0.0200 
G00 X0.0201 Y1.6300 
G01 Z-0.0100 F10.00 
G01 X-0.3191 Y1.6300 
G00 Z0.0200 
G00 X-0.4409 Y1.6300 
G01 Z-0.0100 F10.00 
G01 X-0.7569 Y1.6300 
G00 Z0.0200 
G00 X-0.8431 Y1.6300 
G01 Z-0.0100 F10.00 
G01 X-0.9749 Y1.6300 
G00 Z0.0200 
G00 X-1.0251 Y1.6300 
G01 Z-0.0100 F10.00 
G01 X-1.0749 Y1.6300 
G00 Z0.0200 
G00 X-1.1251 Y1.6300 
G01 Z-0.0100 F10.00 
G01 X-1.1749 Y1.6300 
G00 Z0.0200 
G00 X-1.2251 Y1.6300 
G01 Z-0.0100 F10.00 
G01 X-1.7760 Y1.6300 
G00 Z0.0200 
G00 X-1.8240 Y1.6300 
G01 Z-0.0100 F10.00 
G01 X-2.1749 Y1.6300 
G00 Z0.0200 
G00 X-2.2251 Y1.6300 
G01 Z-0.0100 F10.00 
G01 X-2.7445 Y1.6300 
G00 Z0.0200 
G00 X-2.9655 Y1.6300 
G01 Z-0.0100 F10.00 
G01 X-3.0249 Y1.6300 
G00 Z0.0200 
G00 X-3.0751 Y1.6300 
G01 Z-0.0100 F10.00 
G01 X-3.0869 Y1.6300 
G00 Z0.0200 
G00 X-3.1131 Y1.6300 
G01 Z-0.0100 F10.00 
G01 X-3.1749 Y1.6300 
G00 Z0.0200 
G00 X-3.2251 Y1.6300 
G01 Z-0.0100 F10.00 
G01 X-3.5069 Y1.6300 
G00 Z0.0200 
G00 X-3.5931 Y1.6300 
G01 Z-0.0100 F10.00 
G01 X-3.9196 Y1.6300 
G00 Z0.0200 
G00 X0.0201 Y1.6400 
G01 Z-0.0100 F10.00 
G01 X-0.3291 Y1.6400 
G00 Z0.0200 
G00 X-0.4509 Y1.6400 
G01 Z-0.0100 F10.00 
G01 X-0.7569 Y1.6400 
G00 Z0.0200 
G00 X-0.8431 Y1.6400 
G01 Z-0.0100 F10.00 
G01 X-0.9749 Y1.6400 
G00 Z0.0200 
G00 X-1.0251 Y1.6400 
G01 Z-0.0100 F10.00 
G01 X-1.0749 Y1.6400 
G00 Z0.0200 
G00 X-1.1251 Y1.6400 
G01 Z-0.0100 F10.00 
G01 X-1.1749 Y1.6400 
G00 Z0.0200 
G00 X-1.2251 Y1.6400 
G01 Z-0.0100 F10.00 
G01 X-1.7689 Y1.6400 
G00 Z0.0200 
G00 X-1.8311 Y1.6400 
G01 Z-0.0100 F10.00 
G01 X-2.1749 Y1.6400 
G00 Z0.0200 
G00 X-2.2251 Y1.6400 
G01 Z-0.0100 F10.00 
G01 X-2.7545 Y1.6400 
G00 Z0.0200 
G00 X-2.9751 Y1.6400 
G01 Z-0.0100 F10.00 
G01 X-3.0249 Y1.6400 
G00 Z0.0200 
G00 X-3.0751 Y1.6400 
G01 Z-0.0100 F10.00 
G01 X-3.0869 Y1.6400 
G00 Z0.0200 
G00 X-3.1131 Y1.6400 
G01 Z-0.0100 F10.00 
G01 X-3.1749 Y1.6400 
G00 Z0.0200 
G00 X-3.2251 Y1.6400 
G01 Z-0.0100 F10.00 
G01 X-3.5069 Y1.6400 
G00 Z0.0200 
G00 X-3.5931 Y1.6400 
G01 Z-0.0100 F10.00 
G01 X-3.9196 Y1.6400 
G00 Z0.0200 
G00 X0.0201 Y1.6500 
G01 Z-0.0100 F10.00 
G01 X-0.3391 Y1.6500 
G00 Z0.0200 
G00 X-0.4609 Y1.6500 
G01 Z-0.0100 F10.00 
G01 X-0.7569 Y1.6500 
G00 Z0.0200 
G00 X-0.8431 Y1.6500 
G01 Z-0.0100 F10.00 
G01 X-0.9749 Y1.6500 
G00 Z0.0200 
G00 X-1.0251 Y1.6500 
G01 Z-0.0100 F10.00 
G01 X-1.0749 Y1.6500 
G00 Z0.0200 
G00 X-1.1251 Y1.6500 
G01 Z-0.0100 F10.00 
G01 X-1.1749 Y1.6500 
G00 Z0.0200 
G00 X-1.2251 Y1.6500 
G01 Z-0.0100 F10.00 
G01 X-1.7689 Y1.6500 
G00 Z0.0200 
G00 X-1.8311 Y1.6500 
G01 Z-0.0100 F10.00 
G01 X-2.1749 Y1.6500 
G00 Z0.0200 
G00 X-2.2251 Y1.6500 
G01 Z-0.0100 F10.00 
G01 X-2.7645 Y1.6500 
G00 Z0.0200 
G00 X-2.9751 Y1.6500 
G01 Z-0.0100 F10.00 
G01 X-3.0249 Y1.6500 
G00 Z0.0200 
G00 X-3.0751 Y1.6500 
G01 Z-0.0100 F10.00 
G01 X-3.0869 Y1.6500 
G00 Z0.0200 
G00 X-3.1131 Y1.6500 
G01 Z-0.0100 F10.00 
G01 X-3.1749 Y1.6500 
G00 Z0.0200 
G00 X-3.2251 Y1.6500 
G01 Z-0.0100 F10.00 
G01 X-3.5069 Y1.6500 
G00 Z0.0200 
G00 X-3.5931 Y1.6500 
G01 Z-0.0100 F10.00 
G01 X-3.9196 Y1.6500 
G00 Z0.0200 
G00 X0.0201 Y1.6600 
G01 Z-0.0100 F10.00 
G01 X-0.3491 Y1.6600 
G00 Z0.0200 
G00 X-0.6209 Y1.6600 
G01 Z-0.0100 F10.00 
G01 X-0.7569 Y1.6600 
G00 Z0.0200 
G00 X-0.8431 Y1.6600 
G01 Z-0.0100 F10.00 
G01 X-0.9749 Y1.6600 
G00 Z0.0200 
G00 X-1.0251 Y1.6600 
G01 Z-0.0100 F10.00 
G01 X-1.0749 Y1.6600 
G00 Z0.0200 
G00 X-1.1251 Y1.6600 
G01 Z-0.0100 F10.00 
G01 X-1.1749 Y1.6600 
G00 Z0.0200 
G00 X-1.2251 Y1.6600 
G01 Z-0.0100 F10.00 
G01 X-1.7689 Y1.6600 
G00 Z0.0200 
G00 X-1.8311 Y1.6600 
G01 Z-0.0100 F10.00 
G01 X-2.1749 Y1.6600 
G00 Z0.0200 
G00 X-2.2251 Y1.6600 
G01 Z-0.0100 F10.00 
G01 X-2.7745 Y1.6600 
G00 Z0.0200 
G00 X-2.9751 Y1.6600 
G01 Z-0.0100 F10.00 
G01 X-3.0249 Y1.6600 
G00 Z0.0200 
G00 X-3.0751 Y1.6600 
G01 Z-0.0100 F10.00 
G01 X-3.0869 Y1.6600 
G00 Z0.0200 
G00 X-3.1131 Y1.6600 
G01 Z-0.0100 F10.00 
G01 X-3.1749 Y1.6600 
G00 Z0.0200 
G00 X-3.2251 Y1.6600 
G01 Z-0.0100 F10.00 
G01 X-3.5069 Y1.6600 
G00 Z0.0200 
G00 X-3.5931 Y1.6600 
G01 Z-0.0100 F10.00 
G01 X-3.9196 Y1.6600 
G00 Z0.0200 
G00 X0.0201 Y1.6700 
G01 Z-0.0100 F10.00 
G01 X-0.3591 Y1.6700 
G00 Z0.0200 
G00 X-0.6309 Y1.6700 
G01 Z-0.0100 F10.00 
G01 X-0.7569 Y1.6700 
G00 Z0.0200 
G00 X-0.8431 Y1.6700 
G01 Z-0.0100 F10.00 
G01 X-0.9749 Y1.6700 
G00 Z0.0200 
G00 X-1.0251 Y1.6700 
G01 Z-0.0100 F10.00 
G01 X-1.0749 Y1.6700 
G00 Z0.0200 
G00 X-1.1251 Y1.6700 
G01 Z-0.0100 F10.00 
G01 X-1.1749 Y1.6700 
G00 Z0.0200 
G00 X-1.2251 Y1.6700 
G01 Z-0.0100 F10.00 
G01 X-1.7749 Y1.6700 
G00 Z0.0200 
G00 X-1.8251 Y1.6700 
G01 Z-0.0100 F10.00 
G01 X-2.1749 Y1.6700 
G00 Z0.0200 
G00 X-2.2251 Y1.6700 
G01 Z-0.0100 F10.00 
G01 X-2.7845 Y1.6700 
G00 Z0.0200 
G00 X-2.9751 Y1.6700 
G01 Z-0.0100 F10.00 
G01 X-3.0249 Y1.6700 
G00 Z0.0200 
G00 X-3.0751 Y1.6700 
G01 Z-0.0100 F10.00 
G01 X-3.0869 Y1.6700 
G00 Z0.0200 
G00 X-3.1131 Y1.6700 
G01 Z-0.0100 F10.00 
G01 X-3.1749 Y1.6700 
G00 Z0.0200 
G00 X-3.2251 Y1.6700 
G01 Z-0.0100 F10.00 
G01 X-3.5069 Y1.6700 
G00 Z0.0200 
G00 X-3.5931 Y1.6700 
G01 Z-0.0100 F10.00 
G01 X-3.9196 Y1.6700 
G00 Z0.0200 
G00 X0.0201 Y1.6800 
G01 Z-0.0100 F10.00 
G01 X-0.3691 Y1.6800 
G00 Z0.0200 
G00 X-0.6409 Y1.6800 
G01 Z-0.0100 F10.00 
G01 X-0.7569 Y1.6800 
G00 Z0.0200 
G00 X-0.8431 Y1.6800 
G01 Z-0.0100 F10.00 
G01 X-0.9749 Y1.6800 
G00 Z0.0200 
G00 X-1.0251 Y1.6800 
G01 Z-0.0100 F10.00 
G01 X-1.0749 Y1.6800 
G00 Z0.0200 
G00 X-1.1251 Y1.6800 
G01 Z-0.0100 F10.00 
G01 X-1.1749 Y1.6800 
G00 Z0.0200 
G00 X-1.2251 Y1.6800 
G01 Z-0.0100 F10.00 
G01 X-1.7749 Y1.6800 
G00 Z0.0200 
G00 X-1.8251 Y1.6800 
G01 Z-0.0100 F10.00 
G01 X-2.1749 Y1.6800 
G00 Z0.0200 
G00 X-2.2251 Y1.6800 
G01 Z-0.0100 F10.00 
G01 X-2.9249 Y1.6800 
G00 Z0.0200 
G00 X-2.9751 Y1.6800 
G01 Z-0.0100 F10.00 
G01 X-3.0249 Y1.6800 
G00 Z0.0200 
G00 X-3.0751 Y1.6800 
G01 Z-0.0100 F10.00 
G01 X-3.0869 Y1.6800 
G00 Z0.0200 
G00 X-3.1131 Y1.6800 
G01 Z-0.0100 F10.00 
G01 X-3.1749 Y1.6800 
G00 Z0.0200 
G00 X-3.2251 Y1.6800 
G01 Z-0.0100 F10.00 
G01 X-3.5069 Y1.6800 
G00 Z0.0200 
G00 X-3.5931 Y1.6800 
G01 Z-0.0100 F10.00 
G01 X-3.9196 Y1.6800 
G00 Z0.0200 
G00 X0.0201 Y1.6900 
G01 Z-0.0100 F10.00 
G01 X-0.3791 Y1.6900 
G00 Z0.0200 
G00 X-0.6431 Y1.6900 
G01 Z-0.0100 F10.00 
G01 X-0.7569 Y1.6900 
G00 Z0.0200 
G00 X-0.8431 Y1.6900 
G01 Z-0.0100 F10.00 
G01 X-0.9749 Y1.6900 
G00 Z0.0200 
G00 X-1.0251 Y1.6900 
G01 Z-0.0100 F10.00 
G01 X-1.0749 Y1.6900 
G00 Z0.0200 
G00 X-1.1251 Y1.6900 
G01 Z-0.0100 F10.00 
G01 X-1.1749 Y1.6900 
G00 Z0.0200 
G00 X-1.2251 Y1.6900 
G01 Z-0.0100 F10.00 
G01 X-1.7749 Y1.6900 
G00 Z0.0200 
G00 X-1.8251 Y1.6900 
G01 Z-0.0100 F10.00 
G01 X-2.1749 Y1.6900 
G00 Z0.0200 
G00 X-2.2251 Y1.6900 
G01 Z-0.0100 F10.00 
G01 X-2.9249 Y1.6900 
G00 Z0.0200 
G00 X-2.9751 Y1.6900 
G01 Z-0.0100 F10.00 
G01 X-3.0249 Y1.6900 
G00 Z0.0200 
G00 X-3.0751 Y1.6900 
G01 Z-0.0100 F10.00 
G01 X-3.0869 Y1.6900 
G00 Z0.0200 
G00 X-3.1131 Y1.6900 
G01 Z-0.0100 F10.00 
G01 X-3.1749 Y1.6900 
G00 Z0.0200 
G00 X-3.2251 Y1.6900 
G01 Z-0.0100 F10.00 
G01 X-3.5069 Y1.6900 
G00 Z0.0200 
G00 X-3.5931 Y1.6900 
G01 Z-0.0100 F10.00 
G01 X-3.9196 Y1.6900 
G00 Z0.0200 
G00 X0.0201 Y1.7000 
G01 Z-0.0100 F10.00 
G01 X-0.3891 Y1.7000 
G00 Z0.0200 
G00 X-0.6431 Y1.7000 
G01 Z-0.0100 F10.00 
G01 X-0.7569 Y1.7000 
G00 Z0.0200 
G00 X-0.8431 Y1.7000 
G01 Z-0.0100 F10.00 
G01 X-0.9749 Y1.7000 
G00 Z0.0200 
G00 X-1.0251 Y1.7000 
G01 Z-0.0100 F10.00 
G01 X-1.0749 Y1.7000 
G00 Z0.0200 
G00 X-1.1251 Y1.7000 
G01 Z-0.0100 F10.00 
G01 X-1.1749 Y1.7000 
G00 Z0.0200 
G00 X-1.2251 Y1.7000 
G01 Z-0.0100 F10.00 
G01 X-1.7749 Y1.7000 
G00 Z0.0200 
G00 X-1.8251 Y1.7000 
G01 Z-0.0100 F10.00 
G01 X-2.1749 Y1.7000 
G00 Z0.0200 
G00 X-2.2251 Y1.7000 
G01 Z-0.0100 F10.00 
G01 X-2.9249 Y1.7000 
G00 Z0.0200 
G00 X-2.9751 Y1.7000 
G01 Z-0.0100 F10.00 
G01 X-3.0249 Y1.7000 
G00 Z0.0200 
G00 X-3.0751 Y1.7000 
G01 Z-0.0100 F10.00 
G01 X-3.0869 Y1.7000 
G00 Z0.0200 
G00 X-3.1131 Y1.7000 
G01 Z-0.0100 F10.00 
G01 X-3.1749 Y1.7000 
G00 Z0.0200 
G00 X-3.2251 Y1.7000 
G01 Z-0.0100 F10.00 
G01 X-3.5069 Y1.7000 
G00 Z0.0200 
G00 X-3.5931 Y1.7000 
G01 Z-0.0100 F10.00 
G01 X-3.9196 Y1.7000 
G00 Z0.0200 
G00 X0.0201 Y1.7100 
G01 Z-0.0100 F10.00 
G01 X-0.3991 Y1.7100 
G00 Z0.0200 
G00 X-0.6431 Y1.7100 
G01 Z-0.0100 F10.00 
G01 X-0.7569 Y1.7100 
G00 Z0.0200 
G00 X-0.8431 Y1.7100 
G01 Z-0.0100 F10.00 
G01 X-0.9749 Y1.7100 
G00 Z0.0200 
G00 X-1.0251 Y1.7100 
G01 Z-0.0100 F10.00 
G01 X-1.0749 Y1.7100 
G00 Z0.0200 
G00 X-1.1251 Y1.7100 
G01 Z-0.0100 F10.00 
G01 X-1.1749 Y1.7100 
G00 Z0.0200 
G00 X-1.2251 Y1.7100 
G01 Z-0.0100 F10.00 
G01 X-1.7749 Y1.7100 
G00 Z0.0200 
G00 X-1.8251 Y1.7100 
G01 Z-0.0100 F10.00 
G01 X-2.1749 Y1.7100 
G00 Z0.0200 
G00 X-2.2251 Y1.7100 
G01 Z-0.0100 F10.00 
G01 X-2.9249 Y1.7100 
G00 Z0.0200 
G00 X-2.9751 Y1.7100 
G01 Z-0.0100 F10.00 
G01 X-3.0249 Y1.7100 
G00 Z0.0200 
G00 X-3.0751 Y1.7100 
G01 Z-0.0100 F10.00 
G01 X-3.0869 Y1.7100 
G00 Z0.0200 
G00 X-3.1131 Y1.7100 
G01 Z-0.0100 F10.00 
G01 X-3.1749 Y1.7100 
G00 Z0.0200 
G00 X-3.2251 Y1.7100 
G01 Z-0.0100 F10.00 
G01 X-3.5069 Y1.7100 
G00 Z0.0200 
G00 X-3.5931 Y1.7100 
G01 Z-0.0100 F10.00 
G01 X-3.9196 Y1.7100 
G00 Z0.0200 
G00 X0.0201 Y1.7200 
G01 Z-0.0100 F10.00 
G01 X-0.4091 Y1.7200 
G00 Z0.0200 
G00 X-0.6431 Y1.7200 
G01 Z-0.0100 F10.00 
G01 X-0.7569 Y1.7200 
G00 Z0.0200 
G00 X-0.8431 Y1.7200 
G01 Z-0.0100 F10.00 
G01 X-0.8860 Y1.7200 
G00 Z0.0200 
G00 X-0.9140 Y1.7200 
G01 Z-0.0100 F10.00 
G01 X-0.9749 Y1.7200 
G00 Z0.0200 
G00 X-1.0251 Y1.7200 
G01 Z-0.0100 F10.00 
G01 X-1.0749 Y1.7200 
G00 Z0.0200 
G00 X-1.1251 Y1.7200 
G01 Z-0.0100 F10.00 
G01 X-1.1749 Y1.7200 
G00 Z0.0200 
G00 X-1.2251 Y1.7200 
G01 Z-0.0100 F10.00 
G01 X-1.7749 Y1.7200 
G00 Z0.0200 
G00 X-1.8251 Y1.7200 
G01 Z-0.0100 F10.00 
G01 X-2.1749 Y1.7200 
G00 Z0.0200 
G00 X-2.2251 Y1.7200 
G01 Z-0.0100 F10.00 
G01 X-2.9249 Y1.7200 
G00 Z0.0200 
G00 X-2.9751 Y1.7200 
G01 Z-0.0100 F10.00 
G01 X-3.0249 Y1.7200 
G00 Z0.0200 
G00 X-3.0751 Y1.7200 
G01 Z-0.0100 F10.00 
G01 X-3.0869 Y1.7200 
