( This gcode generated by /opt/eagle/ulp/pcb-gcode.ulp )
( Copyright 2005 by John Johnson. See readme.txt for licensing terms. )

( This file generated from the board /home/srussell/Documents/Capacitive Distance Sensor/Rev2.brd )
( This file generated  6/08/2007 15:24:45  )

G20

G90
G00 Z0.1000 
G00 X0 Y0
M03
G04 P3.000000
G00 Z0.0200 
G00 X-1.6091 Y0.4091 
G01 Z-0.0100 F10.00 
G01 X-1.6056 Y0.4126 
G01 X-1.6056 Y0.4221 
G01 X-1.6091 Y0.4256 
G01 X-1.6186 Y0.4256 
G01 X-1.6221 Y0.4221 
G01 X-1.6221 Y0.4126 
G01 X-1.6186 Y0.4091 
G01 X-1.6091 Y0.4091 
G00 Z0.0200 
G00 X-1.7827 Y0.4380 
G01 Z-0.0100 F10.00 
G01 X-1.7886 Y0.4321 
G01 X-1.7768 Y0.4321 
G01 X-1.7827 Y0.4380 
G00 Z0.0200 
G00 X-2.0591 Y1.4993 
G01 Z-0.0100 F10.00 
G01 X-2.0626 Y1.5028 
G01 X-2.0721 Y1.5028 
G01 X-2.0756 Y1.4993 
G01 X-2.0756 Y1.4898 
G01 X-2.0721 Y1.4863 
G01 X-2.0626 Y1.4863 
G01 X-2.0591 Y1.4898 
G01 X-2.0591 Y1.4993 
G00 Z0.0200 
G00 X-1.5091 Y1.5630 
G01 Z-0.0100 F10.00 
G01 X-1.5091 Y1.5760 
G01 X-1.5126 Y1.5796 
G01 X-1.5374 Y1.5796 
G01 X-1.5409 Y1.5760 
G01 X-1.5409 Y1.5630 
G01 X-1.5091 Y1.5630 
G00 Z0.0200 
G00 X-1.6082 Y0.1279 
G01 Z-0.0100 F10.00 
G01 X-1.6082 Y0.1374 
G01 X-1.6117 Y0.1409 
G01 X-1.6247 Y0.1409 
G01 X-1.6247 Y0.1244 
G01 X-1.6194 Y0.1244 
G01 X-1.6135 Y0.1244 
G01 X-1.6117 Y0.1244 
G01 X-1.6082 Y0.1279 
G00 Z0.0200 
G00 X-1.9227 Y0.1126 
G01 Z-0.0100 F10.00 
G01 X-1.9227 Y0.1221 
G01 X-1.9263 Y0.1256 
G01 X-1.9393 Y0.1256 
G01 X-1.9393 Y0.1091 
G01 X-1.9263 Y0.1091 
G01 X-1.9227 Y0.1126 
G00 Z0.0200 
G00 X-2.3176 Y0.1256 
G01 Z-0.0100 F10.00 
G01 X-2.3270 Y0.1256 
G01 X-2.3282 Y0.1244 
G01 X-2.3164 Y0.1244 
G01 X-2.3176 Y0.1256 
G00 Z0.0200 
G00 X-2.3601 Y0.1279 
G01 Z-0.0100 F10.00 
G01 X-2.3601 Y0.1374 
G01 X-2.3636 Y0.1409 
G01 X-2.3766 Y0.1409 
G01 X-2.3766 Y0.1244 
G01 X-2.3713 Y0.1244 
G01 X-2.3654 Y0.1244 
G01 X-2.3636 Y0.1244 
G01 X-2.3601 Y0.1279 
G00 Z0.0200 
G00 X-2.6823 Y0.1126 
G01 Z-0.0100 F10.00 
G01 X-2.6823 Y0.1221 
G01 X-2.6858 Y0.1256 
G01 X-2.6988 Y0.1256 
G01 X-2.6988 Y0.1091 
G01 X-2.6858 Y0.1091 
G01 X-2.6823 Y0.1126 
G00 Z0.0200 
G00 X-2.7419 Y0.1097 
G01 Z-0.0100 F10.00 
G01 X-2.7414 Y0.1091 
G01 X-2.7284 Y0.1091 
G01 X-2.7284 Y0.1102 
G01 X-2.7414 Y0.1102 
G01 X-2.7419 Y0.1097 
G00 Z0.0200 
G00 X-0.3488 Y1.4591 
G01 Z-0.0100 F10.00 
G01 X-0.3358 Y1.4591 
G01 X-0.3323 Y1.4626 
G01 X-0.3323 Y1.4874 
G01 X-0.3358 Y1.4909 
G01 X-0.3488 Y1.4909 
G01 X-0.3488 Y1.4591 
G00 Z0.0200 
G00 X-0.4327 Y0.7380 
G01 Z-0.0100 F10.00 
G01 X-0.4386 Y0.7321 
G01 X-0.4268 Y0.7321 
G01 X-0.4327 Y0.7380 
G00 Z0.0200 
G00 X-0.4409 Y1.4626 
G01 Z-0.0100 F10.00 
G01 X-0.4374 Y1.4591 
G01 X-0.4279 Y1.4591 
G01 X-0.4244 Y1.4626 
G01 X-0.4244 Y1.4644 
G01 X-0.4279 Y1.4679 
G01 X-0.4409 Y1.4679 
G01 X-0.4409 Y1.4626 
G00 Z0.0200 
G00 X-0.3016 Y1.3779 
G01 Z-0.0100 F10.00 
G01 X-0.3016 Y1.3874 
G01 X-0.3052 Y1.3909 
G01 X-0.3181 Y1.3909 
G01 X-0.3181 Y1.3744 
G01 X-0.3052 Y1.3744 
G01 X-0.3016 Y1.3779 
G00 Z0.0200 
G00 X-2.5938 Y0.1256 
G01 Z-0.0100 F10.00 
G01 X-2.6033 Y0.1256 
G01 X-2.6044 Y0.1244 
G01 X-2.5926 Y0.1244 
G01 X-2.5938 Y0.1256 
G00 Z0.0200 
G00 X-2.4557 Y0.1256 
G01 Z-0.0100 F10.00 
G01 X-2.4651 Y0.1256 
G01 X-2.4663 Y0.1244 
G01 X-2.4545 Y0.1244 
G01 X-2.4557 Y0.1256 
G00 Z0.0200 
G00 X-1.8802 Y0.1256 
G01 Z-0.0100 F10.00 
G01 X-1.8897 Y0.1256 
G01 X-1.8909 Y0.1244 
G01 X-1.8791 Y0.1244 
G01 X-1.8802 Y0.1256 
G00 Z0.0200 
G00 X-1.7421 Y0.1256 
G01 Z-0.0100 F10.00 
G01 X-1.7516 Y0.1256 
G01 X-1.7528 Y0.1244 
G01 X-1.7410 Y0.1244 
G01 X-1.7421 Y0.1256 
G00 Z0.0200 
G00 X-1.4275 Y0.1256 
G01 Z-0.0100 F10.00 
G01 X-1.4370 Y0.1256 
G01 X-1.4382 Y0.1244 
G01 X-1.4264 Y0.1244 
G01 X-1.4275 Y0.1256 
G00 Z0.0200 
G00 X-1.2245 Y0.1126 
G01 Z-0.0100 F10.00 
G01 X-1.2245 Y0.1232 
G01 X-1.2381 Y0.1097 
G01 X-1.2375 Y0.1091 
G01 X-1.2281 Y0.1091 
G01 X-1.2245 Y0.1126 
G00 Z0.0200 
G00 X-1.2281 Y0.1409 
G01 Z-0.0100 F10.00 
G01 X-1.2375 Y0.1409 
G01 X-1.2411 Y0.1374 
G01 X-1.2411 Y0.1268 
G01 X-1.2275 Y0.1404 
G01 X-1.2281 Y0.1409 
G00 Z0.0200 
G00 X-1.1785 Y0.1126 
G01 Z-0.0100 F10.00 
G01 X-1.1785 Y0.1232 
G01 X-1.1921 Y0.1097 
G01 X-1.1915 Y0.1091 
G01 X-1.1820 Y0.1091 
G01 X-1.1785 Y0.1126 
G00 Z0.0200 
G00 X-1.1820 Y0.1409 
G01 Z-0.0100 F10.00 
G01 X-1.1915 Y0.1409 
G01 X-1.1950 Y0.1374 
G01 X-1.1950 Y0.1268 
G01 X-1.1814 Y0.1404 
G01 X-1.1820 Y0.1409 
G00 Z0.0200 
G00 X-1.6988 Y0.4221 
G01 Z-0.0100 F10.00 
G01 X-1.6988 Y0.4126 
G01 X-1.6953 Y0.4091 
G01 X-1.6823 Y0.4091 
G01 X-1.6823 Y0.4256 
G01 X-1.6953 Y0.4256 
G01 X-1.6988 Y0.4221 
G00 Z0.0200 
G00 X-2.2641 Y0.2010 
G01 Z-0.0100 F10.00 
G01 X-2.2617 Y0.2059 
G01 X-2.2599 Y0.2101 
G01 X-2.2576 Y0.2189 
G01 X-2.2573 Y0.2281 
G01 X-2.2589 Y0.2371 
G01 X-2.2624 Y0.2455 
G01 X-2.2676 Y0.2530 
G01 X-2.2744 Y0.2593 
G01 X-2.2822 Y0.2639 
G01 X-2.2909 Y0.2668 
G01 X-2.3000 Y0.2678 
G01 X-2.3091 Y0.2668 
G01 X-2.3178 Y0.2639 
G01 X-2.3256 Y0.2593 
G01 X-2.3323 Y0.2530 
G01 X-2.3376 Y0.2455 
G01 X-2.3411 Y0.2371 
G01 X-2.3427 Y0.2281 
G01 X-2.3424 Y0.2189 
G01 X-2.3401 Y0.2101 
G01 X-2.3383 Y0.2059 
G01 X-2.3359 Y0.2010 
G01 X-2.3393 Y0.1907 
G01 X-2.3490 Y0.1859 
G01 X-2.3593 Y0.1893 
G01 X-2.3617 Y0.1941 
G01 X-2.3650 Y0.2008 
G01 X-2.3650 Y0.2008 
G01 X-2.3687 Y0.2151 
G01 X-2.3687 Y0.2151 
G01 X-2.3692 Y0.2300 
G01 X-2.3692 Y0.2300 
G01 X-2.3666 Y0.2446 
G01 X-2.3666 Y0.2446 
G01 X-2.3609 Y0.2583 
G01 X-2.3524 Y0.2704 
G01 X-2.3524 Y0.2704 
G01 X-2.3416 Y0.2806 
G01 X-2.3288 Y0.2881 
G01 X-2.3147 Y0.2928 
G01 X-2.3147 Y0.2928 
G01 X-2.3000 Y0.2944 
G01 X-2.3000 Y0.2944 
G01 X-2.2853 Y0.2928 
G01 X-2.2853 Y0.2928 
G01 X-2.2712 Y0.2881 
G01 X-2.2712 Y0.2881 
G01 X-2.2584 Y0.2806 
G01 X-2.2584 Y0.2806 
G01 X-2.2476 Y0.2704 
G01 X-2.2476 Y0.2704 
G01 X-2.2391 Y0.2583 
G01 X-2.2391 Y0.2583 
G01 X-2.2334 Y0.2446 
G01 X-2.2334 Y0.2446 
G01 X-2.2308 Y0.2300 
G01 X-2.2308 Y0.2300 
G01 X-2.2313 Y0.2151 
G01 X-2.2313 Y0.2151 
G01 X-2.2350 Y0.2008 
G01 X-2.2350 Y0.2008 
G01 X-2.2383 Y0.1941 
G01 X-2.2407 Y0.1893 
G01 X-2.2510 Y0.1859 
G01 X-2.2607 Y0.1907 
G01 X-2.2641 Y0.2010 
G00 Z0.0200 
G00 X-2.2140 Y0.1979 
G01 Z-0.0100 F10.00 
G01 X-2.2127 Y0.2032 
G01 X-2.2127 Y0.2032 
G01 X-2.2112 Y0.2104 
G01 X-2.2100 Y0.2252 
G01 X-2.2113 Y0.2400 
G01 X-2.2149 Y0.2544 
G01 X-2.2209 Y0.2680 
G01 X-2.2291 Y0.2804 
G01 X-2.2391 Y0.2913 
G01 X-2.2509 Y0.3004 
G01 X-2.2639 Y0.3074 
G01 X-2.2779 Y0.3122 
G01 X-2.2926 Y0.3147 
G01 X-2.3074 Y0.3147 
G01 X-2.3221 Y0.3122 
G01 X-2.3361 Y0.3074 
G01 X-2.3491 Y0.3004 
G01 X-2.3609 Y0.2913 
G01 X-2.3709 Y0.2804 
G01 X-2.3791 Y0.2680 
G01 X-2.3850 Y0.2544 
G01 X-2.3887 Y0.2400 
G01 X-2.3900 Y0.2252 
G01 X-2.3888 Y0.2104 
G01 X-2.3873 Y0.2032 
G01 X-2.3860 Y0.1979 
G01 X-2.3916 Y0.1886 
G01 X-2.4021 Y0.1860 
G01 X-2.4114 Y0.1916 
G01 X-2.4127 Y0.1968 
G01 X-2.4150 Y0.2061 
G01 X-2.4150 Y0.2061 
G01 X-2.4166 Y0.2253 
G01 X-2.4166 Y0.2253 
G01 X-2.4149 Y0.2445 
G01 X-2.4149 Y0.2445 
G01 X-2.4102 Y0.2631 
G01 X-2.4102 Y0.2631 
G01 X-2.4024 Y0.2807 
G01 X-2.4024 Y0.2807 
G01 X-2.3919 Y0.2967 
G01 X-2.3919 Y0.2967 
G01 X-2.3788 Y0.3109 
G01 X-2.3788 Y0.3109 
G01 X-2.3637 Y0.3226 
G01 X-2.3637 Y0.3226 
G01 X-2.3467 Y0.3318 
G01 X-2.3467 Y0.3318 
G01 X-2.3286 Y0.3380 
G01 X-2.3286 Y0.3380 
G01 X-2.3096 Y0.3412 
G01 X-2.3096 Y0.3412 
G01 X-2.2904 Y0.3412 
G01 X-2.2904 Y0.3412 
G01 X-2.2714 Y0.3380 
G01 X-2.2714 Y0.3380 
G01 X-2.2533 Y0.3318 
G01 X-2.2532 Y0.3318 
G01 X-2.2363 Y0.3226 
G01 X-2.2363 Y0.3226 
G01 X-2.2212 Y0.3109 
G01 X-2.2212 Y0.3109 
G01 X-2.2212 Y0.3109 
G01 X-2.2081 Y0.2967 
G01 X-2.1976 Y0.2807 
G01 X-2.1898 Y0.2631 
G01 X-2.1851 Y0.2445 
G01 X-2.1834 Y0.2253 
G01 X-2.1850 Y0.2061 
G01 X-2.1873 Y0.1968 
G01 X-2.1886 Y0.1916 
G01 X-2.1979 Y0.1860 
G01 X-2.2084 Y0.1886 
G01 X-2.2140 Y0.1979 
G00 Z0.0200 
G00 X-2.1140 Y0.1979 
G01 Z-0.0100 F10.00 
G01 X-2.1127 Y0.2032 
G01 X-2.1103 Y0.2142 
G01 X-2.1074 Y0.2366 
G01 X-2.1072 Y0.2592 
G01 X-2.1096 Y0.2817 
G01 X-2.1146 Y0.3038 
G01 X-2.1221 Y0.3251 
G01 X-2.1321 Y0.3453 
G01 X-2.1444 Y0.3643 
G01 X-2.1588 Y0.3817 
G01 X-2.1752 Y0.3973 
G01 X-2.1933 Y0.4109 
G01 X-2.2128 Y0.4222 
G01 X-2.2335 Y0.4313 
G01 X-2.2552 Y0.4378 
G01 X-2.2774 Y0.4417 
G01 X-2.3000 Y0.4431 
G01 X-2.3226 Y0.4417 
G01 X-2.3448 Y0.4378 
G01 X-2.3665 Y0.4313 
G01 X-2.3872 Y0.4222 
G01 X-2.4067 Y0.4109 
G01 X-2.4248 Y0.3973 
G01 X-2.4412 Y0.3817 
G01 X-2.4556 Y0.3643 
G01 X-2.4679 Y0.3453 
G01 X-2.4779 Y0.3251 
G01 X-2.4779 Y0.3251 
G01 X-2.4854 Y0.3038 
G01 X-2.4904 Y0.2817 
G01 X-2.4928 Y0.2592 
G01 X-2.4926 Y0.2366 
G01 X-2.4897 Y0.2142 
G01 X-2.4873 Y0.2032 
G01 X-2.4860 Y0.1979 
G01 X-2.4916 Y0.1886 
G01 X-2.5021 Y0.1860 
G01 X-2.5114 Y0.1916 
G01 X-2.5127 Y0.1968 
G01 X-2.5158 Y0.2093 
G01 X-2.5191 Y0.2348 
G01 X-2.5194 Y0.2605 
G01 X-2.5166 Y0.2861 
G01 X-2.5109 Y0.3112 
G01 X-2.5023 Y0.3354 
G01 X-2.4910 Y0.3584 
G01 X-2.4910 Y0.3585 
G01 X-2.4770 Y0.3800 
G01 X-2.4770 Y0.3800 
G01 X-2.4606 Y0.3998 
G01 X-2.4606 Y0.3998 
G01 X-2.4606 Y0.3998 
G01 X-2.4420 Y0.4176 
G01 X-2.4420 Y0.4176 
G01 X-2.4214 Y0.4330 
G01 X-2.4214 Y0.4330 
G01 X-2.3992 Y0.4459 
G01 X-2.3992 Y0.4459 
G01 X-2.3756 Y0.4562 
G01 X-2.3756 Y0.4562 
G01 X-2.3510 Y0.4636 
G01 X-2.3510 Y0.4636 
G01 X-2.3257 Y0.4681 
G01 X-2.3257 Y0.4681 
G01 X-2.3000 Y0.4696 
G01 X-2.3000 Y0.4696 
G01 X-2.2743 Y0.4681 
G01 X-2.2743 Y0.4681 
G01 X-2.2490 Y0.4636 
G01 X-2.2490 Y0.4636 
G01 X-2.2244 Y0.4562 
G01 X-2.2244 Y0.4562 
G01 X-2.2008 Y0.4459 
G01 X-2.2008 Y0.4459 
G01 X-2.1786 Y0.4330 
G01 X-2.1786 Y0.4330 
G01 X-2.1580 Y0.4176 
G01 X-2.1580 Y0.4176 
G01 X-2.1394 Y0.3998 
G01 X-2.1394 Y0.3998 
G01 X-2.1230 Y0.3800 
G01 X-2.1230 Y0.3800 
G01 X-2.1090 Y0.3585 
G01 X-2.1090 Y0.3584 
G01 X-2.0977 Y0.3354 
G01 X-2.0977 Y0.3354 
G01 X-2.0891 Y0.3112 
G01 X-2.0891 Y0.3111 
G01 X-2.0834 Y0.2861 
G01 X-2.0834 Y0.2861 
G01 X-2.0806 Y0.2605 
G01 X-2.0806 Y0.2605 
G01 X-2.0809 Y0.2348 
G01 X-2.0809 Y0.2348 
G01 X-2.0842 Y0.2093 
G01 X-2.0842 Y0.2093 
G01 X-2.0873 Y0.1968 
G01 X-2.0886 Y0.1916 
G01 X-2.0979 Y0.1860 
G01 X-2.1084 Y0.1886 
G01 X-2.1140 Y0.1979 
G00 Z0.0200 
G00 X-1.5899 Y0.6719 
G01 Z-0.0100 F10.00 
G01 X-1.5899 Y0.6281 
G01 X-1.6067 Y0.5876 
G01 X-1.6376 Y0.5567 
G01 X-1.6781 Y0.5399 
G01 X-1.7219 Y0.5399 
G01 X-1.7624 Y0.5567 
G01 X-1.7933 Y0.5876 
G01 X-1.8101 Y0.6281 
G01 X-1.8101 Y0.6719 
G01 X-1.7933 Y0.7124 
G01 X-1.7871 Y0.7186 
G01 X-1.9054 Y0.8369 
G01 X-1.9649 Y0.8369 
G01 X-1.9649 Y0.8355 
G01 X-1.9855 Y0.8149 
G01 X-2.0145 Y0.8149 
G01 X-2.0351 Y0.8355 
G01 X-2.0351 Y0.8369 
G01 X-2.0554 Y0.8369 
G01 X-2.0631 Y0.8446 
G01 X-2.1243 Y0.9058 
G01 X-2.1371 Y0.8929 
G01 X-2.1629 Y0.8929 
G01 X-2.1811 Y0.9111 
G01 X-2.1811 Y0.9889 
G01 X-2.1629 Y1.0071 
G01 X-2.1371 Y1.0071 
G01 X-2.1189 Y0.9889 
G01 X-2.1189 Y0.9374 
G01 X-2.0446 Y0.8631 
G01 X-2.0351 Y0.8631 
G01 X-2.0351 Y0.8645 
G01 X-2.0145 Y0.8851 
G01 X-1.9855 Y0.8851 
G01 X-1.9844 Y0.8841 
G01 X-1.8831 Y0.9854 
G01 X-1.8831 Y1.2134 
G01 X-1.8852 Y1.2134 
G01 X-1.9066 Y1.2348 
G01 X-1.9066 Y1.2652 
G01 X-1.8852 Y1.2866 
G01 X-1.8548 Y1.2866 
G01 X-1.8334 Y1.2652 
G01 X-1.8334 Y1.2348 
G01 X-1.8548 Y1.2134 
G01 X-1.8569 Y1.2134 
G01 X-1.8569 Y0.9854 
G01 X-1.8569 Y0.9746 
G01 X-1.9659 Y0.8656 
G01 X-1.9649 Y0.8645 
G01 X-1.9649 Y0.8631 
G01 X-1.9054 Y0.8631 
G01 X-1.8946 Y0.8631 
G01 X-1.7686 Y0.7371 
G01 X-1.7624 Y0.7433 
G01 X-1.7219 Y0.7601 
G01 X-1.6781 Y0.7601 
G01 X-1.6376 Y0.7433 
G01 X-1.6067 Y0.7124 
G01 X-1.5899 Y0.6719 
G00 Z0.0200 
G00 X-1.7208 Y1.7376 
G01 Z-0.0100 F10.00 
G01 X-1.6824 Y1.7376 
G01 X-1.6552 Y1.7104 
G01 X-1.6552 Y1.6816 
G01 X-1.6465 Y1.6728 
G01 X-1.6465 Y1.3744 
G01 X-1.6449 Y1.3728 
G01 X-1.6449 Y1.3272 
G01 X-1.6772 Y1.2949 
G01 X-1.7699 Y1.2949 
G01 X-1.7699 Y1.1125 
G01 X-1.4927 Y0.8352 
G01 X-1.4728 Y0.8551 
G01 X-1.4272 Y0.8551 
G01 X-1.3949 Y0.8228 
G01 X-1.3949 Y0.7551 
G01 X-1.2228 Y0.7551 
G01 X-1.2149 Y0.7551 
G01 X-1.2129 Y0.7571 
G01 X-1.1871 Y0.7571 
G01 X-1.1851 Y0.7551 
G01 X-1.1149 Y0.7551 
G01 X-1.1129 Y0.7571 
G01 X-1.0871 Y0.7571 
G01 X-1.0851 Y0.7551 
G01 X-1.0772 Y0.7551 
G01 X-1.0149 Y0.7551 
G01 X-1.0129 Y0.7571 
G01 X-0.9871 Y0.7571 
G01 X-0.9851 Y0.7551 
G01 X-0.9772 Y0.7551 
G01 X-0.9449 Y0.7228 
G01 X-0.9449 Y0.6772 
G01 X-0.9772 Y0.6449 
G01 X-0.9851 Y0.6449 
G01 X-0.9871 Y0.6429 
G01 X-1.0129 Y0.6429 
G01 X-1.0149 Y0.6449 
G01 X-1.0772 Y0.6449 
G01 X-1.0851 Y0.6449 
G01 X-1.0871 Y0.6429 
G01 X-1.1129 Y0.6429 
G01 X-1.1149 Y0.6449 
G01 X-1.1851 Y0.6449 
G01 X-1.1871 Y0.6429 
G01 X-1.2129 Y0.6429 
G01 X-1.2149 Y0.6449 
G01 X-1.2228 Y0.6449 
G01 X-1.3949 Y0.6449 
G01 X-1.3949 Y0.3051 
G01 X-0.2551 Y0.3051 
G01 X-0.2551 Y0.7949 
G01 X-0.5449 Y0.7949 
G01 X-0.5449 Y0.6772 
G01 X-0.5449 Y0.5272 
G01 X-0.5772 Y0.4949 
G01 X-0.6228 Y0.4949 
G01 X-0.6551 Y0.5272 
G01 X-0.6551 Y0.6772 
G01 X-0.6551 Y0.7949 
G01 X-0.7228 Y0.7949 
G01 X-0.7551 Y0.8272 
G01 X-0.7551 Y0.8728 
G01 X-0.7551 Y0.9772 
G01 X-0.7551 Y1.4728 
G01 X-0.7228 Y1.5051 
G01 X-0.5949 Y1.6330 
G01 X-0.5492 Y1.6330 
G01 X-0.3272 Y1.6330 
G01 X-0.3165 Y1.6224 
G01 X-0.2922 Y1.6224 
G01 X-0.2662 Y1.5964 
G01 X-0.2662 Y1.5595 
G01 X-0.2922 Y1.5335 
G01 X-0.3165 Y1.5335 
G01 X-0.3272 Y1.5229 
G01 X-0.5492 Y1.5229 
G01 X-0.6449 Y1.4272 
G01 X-0.6449 Y0.9772 
G01 X-0.6449 Y0.9051 
G01 X-0.6228 Y0.9051 
G01 X-0.5772 Y0.9051 
G01 X-0.2551 Y0.9051 
G01 X-0.2551 Y1.0028 
G01 X-0.2228 Y1.0351 
G01 X-0.1772 Y1.0351 
G01 X-0.1449 Y1.0028 
G01 X-0.1449 Y0.8728 
G01 X-0.1449 Y0.8272 
G01 X-0.1449 Y0.2728 
G01 X-0.1449 Y0.2272 
G01 X-0.1772 Y0.1949 
G01 X-1.4272 Y0.1949 
G01 X-1.9772 Y0.1949 
G01 X-2.0228 Y0.1949 
G01 X-2.0551 Y0.2272 
G01 X-2.0551 Y0.3272 
G01 X-2.2228 Y0.4949 
G01 X-2.3772 Y0.4949 
G01 X-2.5449 Y0.3272 
G01 X-2.5449 Y0.2728 
G01 X-2.5449 Y0.2272 
G01 X-2.5772 Y0.1949 
G01 X-2.8228 Y0.1949 
G01 X-2.9228 Y0.1949 
G01 X-2.9551 Y0.2272 
G01 X-2.9551 Y0.2728 
G01 X-2.9551 Y1.1728 
G01 X-2.9228 Y1.2051 
G01 X-2.8228 Y1.3051 
G01 X-2.7772 Y1.3051 
G01 X-2.7449 Y1.2728 
G01 X-2.7272 Y1.2551 
G01 X-2.6272 Y1.2551 
G01 X-2.5949 Y1.2228 
G01 X-2.5949 Y1.1772 
G01 X-2.6272 Y1.1449 
G01 X-2.7272 Y1.1449 
G01 X-2.7728 Y1.1449 
G01 X-2.8000 Y1.1721 
G01 X-2.8449 Y1.1272 
G01 X-2.8449 Y0.3051 
G01 X-2.8228 Y0.3051 
G01 X-2.6551 Y0.3051 
G01 X-2.6551 Y0.3728 
G01 X-2.6228 Y0.4051 
G01 X-2.4551 Y0.5728 
G01 X-2.4551 Y0.5728 
G01 X-2.4228 Y0.6051 
G01 X-2.1772 Y0.6051 
G01 X-2.1449 Y0.5728 
G01 X-2.1449 Y0.5728 
G01 X-1.9449 Y0.3728 
G01 X-1.9449 Y0.3272 
G01 X-1.9449 Y0.3051 
G01 X-1.5051 Y0.3051 
G01 X-1.5051 Y0.6772 
G01 X-1.5051 Y0.7228 
G01 X-1.5051 Y0.7699 
G01 X-1.5125 Y0.7699 
G01 X-1.8125 Y1.0699 
G01 X-1.8301 Y1.0875 
G01 X-1.8301 Y1.2949 
G01 X-2.0272 Y1.2949 
G01 X-2.1272 Y1.1949 
G01 X-2.1351 Y1.1949 
G01 X-2.1371 Y1.1929 
G01 X-2.1629 Y1.1929 
G01 X-2.1649 Y1.1949 
G01 X-2.1728 Y1.1949 
G01 X-2.2051 Y1.2272 
G01 X-2.2051 Y1.2728 
G01 X-2.0728 Y1.4051 
G01 X-2.0272 Y1.4051 
G01 X-1.7772 Y1.4051 
G01 X-1.7567 Y1.4051 
G01 X-1.7567 Y1.6728 
G01 X-1.7479 Y1.6816 
G01 X-1.7479 Y1.7104 
G01 X-1.7208 Y1.7376 
G00 Z0.0200 
G00 X-0.2624 Y0.3708 
G01 Z-0.0100 F10.00 
G01 X-0.2624 Y0.3324 
G01 X-0.2896 Y0.3052 
G01 X-0.4104 Y0.3052 
G01 X-0.4376 Y0.3324 
G01 X-0.4376 Y0.3369 
G01 X-0.5691 Y0.3369 
G01 X-0.5871 Y0.3189 
G01 X-0.6129 Y0.3189 
G01 X-0.6309 Y0.3369 
G01 X-0.6649 Y0.3369 
G01 X-0.6649 Y0.3355 
G01 X-0.6855 Y0.3149 
G01 X-0.7145 Y0.3149 
G01 X-0.7351 Y0.3355 
G01 X-0.7351 Y0.3645 
G01 X-0.7145 Y0.3851 
G01 X-0.7131 Y0.3851 
G01 X-0.7131 Y0.6431 
G01 X-0.7311 Y0.6611 
G01 X-0.7311 Y0.7389 
G01 X-0.7129 Y0.7571 
G01 X-0.6871 Y0.7571 
G01 X-0.6689 Y0.7389 
G01 X-0.6689 Y0.6611 
G01 X-0.6869 Y0.6431 
G01 X-0.6869 Y0.3851 
G01 X-0.6855 Y0.3851 
G01 X-0.6649 Y0.3645 
G01 X-0.6649 Y0.3631 
G01 X-0.6309 Y0.3631 
G01 X-0.6129 Y0.3811 
G01 X-0.5871 Y0.3811 
G01 X-0.5691 Y0.3631 
G01 X-0.4376 Y0.3631 
G01 X-0.4376 Y0.3708 
G01 X-0.4104 Y0.3979 
G01 X-0.3631 Y0.3979 
G01 X-0.3631 Y0.5021 
G01 X-0.4104 Y0.5021 
G01 X-0.4376 Y0.5292 
G01 X-0.4376 Y0.5676 
G01 X-0.4104 Y0.5948 
G01 X-0.2896 Y0.5948 
G01 X-0.2624 Y0.5676 
G01 X-0.2624 Y0.5292 
G01 X-0.2896 Y0.5021 
G01 X-0.3369 Y0.5021 
G01 X-0.3369 Y0.3979 
G01 X-0.2896 Y0.3979 
G01 X-0.2624 Y0.3708 
G00 Z0.0200 
G00 X-0.1426 Y1.6162 
G01 Z-0.0100 F10.00 
G01 X-0.1794 Y1.6162 
G01 X-0.2055 Y1.6422 
G01 X-0.2055 Y1.7578 
G01 X-0.1794 Y1.7838 
G01 X-0.1426 Y1.7838 
G01 X-0.1166 Y1.7578 
G01 X-0.1166 Y1.6422 
G01 X-0.1426 Y1.6162 
G00 Z0.0200 
G00 X-2.6851 Y1.7855 
G01 Z-0.0100 F10.00 
G01 X-2.6851 Y1.8145 
G01 X-2.6645 Y1.8351 
G01 X-2.6355 Y1.8351 
G01 X-2.6305 Y1.8301 
G01 X-2.2639 Y1.8301 
G01 X-2.2629 Y1.8311 
G01 X-2.2371 Y1.8311 
G01 X-2.2211 Y1.8151 
G01 X-2.2211 Y1.8449 
G01 X-2.2228 Y1.8449 
G01 X-2.2551 Y1.8772 
G01 X-2.2551 Y1.9228 
G01 X-2.2228 Y1.9551 
G01 X-0.4272 Y1.9551 
G01 X-0.3949 Y1.9228 
G01 X-0.3347 Y1.8626 
G01 X-0.2922 Y1.8626 
G01 X-0.2662 Y1.8365 
G01 X-0.2662 Y1.7997 
G01 X-0.2922 Y1.7736 
G01 X-0.2949 Y1.7736 
G01 X-0.2949 Y1.7304 
G01 X-0.1896 Y1.6251 
G01 X-0.1749 Y1.6104 
G01 X-0.1749 Y1.1467 
G01 X-0.1690 Y1.1407 
G01 X-0.1634 Y1.1273 
G01 X-0.1634 Y1.1127 
G01 X-0.1690 Y1.0993 
G01 X-0.1699 Y1.0983 
G01 X-0.1699 Y1.0875 
G01 X-0.1875 Y1.0699 
G01 X-0.4875 Y1.0699 
G01 X-0.5689 Y0.9885 
G01 X-0.5689 Y0.9611 
G01 X-0.5871 Y0.9429 
G01 X-0.6129 Y0.9429 
G01 X-0.6311 Y0.9611 
G01 X-0.6311 Y1.0389 
G01 X-0.6129 Y1.0571 
G01 X-0.5871 Y1.0571 
G01 X-0.5863 Y1.0563 
G01 X-0.5125 Y1.1301 
G01 X-0.4875 Y1.1301 
G01 X-0.2354 Y1.1301 
G01 X-0.2310 Y1.1407 
G01 X-0.2251 Y1.1467 
G01 X-0.2251 Y1.5896 
G01 X-0.3304 Y1.6949 
G01 X-0.3728 Y1.6949 
G01 X-0.4051 Y1.7272 
G01 X-0.4051 Y1.7736 
G01 X-0.4078 Y1.7736 
G01 X-0.4338 Y1.7997 
G01 X-0.4338 Y1.8059 
G01 X-0.4728 Y1.8449 
G01 X-2.1789 Y1.8449 
G01 X-2.1789 Y1.8151 
G01 X-2.1629 Y1.8311 
G01 X-2.1371 Y1.8311 
G01 X-2.1189 Y1.8129 
G01 X-2.1189 Y1.7871 
G01 X-2.1249 Y1.7811 
G01 X-2.1249 Y1.6751 
G01 X-1.9448 Y1.6751 
G01 X-1.9448 Y1.7104 
G01 X-1.9176 Y1.7376 
G01 X-1.8792 Y1.7376 
G01 X-1.8521 Y1.7104 
G01 X-1.8521 Y1.5896 
G01 X-1.8792 Y1.5624 
G01 X-1.9176 Y1.5624 
G01 X-1.9448 Y1.5896 
G01 X-1.9448 Y1.6249 
G01 X-2.1249 Y1.6249 
G01 X-2.1249 Y1.3896 
G01 X-2.1396 Y1.3749 
G01 X-2.2199 Y1.2946 
G01 X-2.2199 Y1.2899 
G01 X-2.2189 Y1.2889 
G01 X-2.2189 Y1.2111 
G01 X-2.2199 Y1.2101 
G01 X-2.2199 Y1.1875 
G01 X-2.3699 Y1.0375 
G01 X-2.3875 Y1.0199 
G01 X-2.4199 Y1.0199 
G01 X-2.4199 Y0.9899 
G01 X-2.4189 Y0.9889 
G01 X-2.4189 Y0.9111 
G01 X-2.4371 Y0.8929 
G01 X-2.4629 Y0.8929 
G01 X-2.4811 Y0.9111 
G01 X-2.4811 Y0.9889 
G01 X-2.4801 Y0.9899 
G01 X-2.4801 Y1.0199 
G01 X-2.7699 Y1.0199 
G01 X-2.7699 Y0.8695 
G01 X-2.7649 Y0.8645 
G01 X-2.7649 Y0.8355 
G01 X-2.7855 Y0.8149 
G01 X-2.8145 Y0.8149 
G01 X-2.8351 Y0.8355 
G01 X-2.8351 Y0.8645 
G01 X-2.8301 Y0.8695 
G01 X-2.8301 Y1.0361 
G01 X-2.8311 Y1.0371 
G01 X-2.8311 Y1.0629 
G01 X-2.8129 Y1.0811 
G01 X-2.7871 Y1.0811 
G01 X-2.7861 Y1.0801 
G01 X-2.4625 Y1.0801 
G01 X-2.4125 Y1.0801 
G01 X-2.2811 Y1.2115 
G01 X-2.2811 Y1.2889 
G01 X-2.2801 Y1.2899 
G01 X-2.2801 Y1.3125 
G01 X-2.2625 Y1.3301 
G01 X-2.2554 Y1.3301 
G01 X-2.1751 Y1.4104 
G01 X-2.1751 Y1.6396 
G01 X-2.1751 Y1.6604 
G01 X-2.1751 Y1.7811 
G01 X-2.1789 Y1.7849 
G01 X-2.1789 Y1.5087 
G01 X-2.1789 Y1.4913 
G01 X-2.3289 Y1.3413 
G01 X-2.3289 Y1.3051 
G01 X-2.3272 Y1.3051 
G01 X-2.2949 Y1.2728 
G01 X-2.2949 Y1.2272 
G01 X-2.3272 Y1.1949 
G01 X-2.3351 Y1.1949 
G01 X-2.3371 Y1.1929 
G01 X-2.3629 Y1.1929 
G01 X-2.3649 Y1.1949 
G01 X-2.4351 Y1.1949 
G01 X-2.4371 Y1.1929 
G01 X-2.4629 Y1.1929 
G01 X-2.4649 Y1.1949 
G01 X-2.4728 Y1.1949 
G01 X-2.5051 Y1.2272 
G01 X-2.5051 Y1.2728 
G01 X-2.4728 Y1.3051 
G01 X-2.4649 Y1.3051 
G01 X-2.4629 Y1.3071 
G01 X-2.4371 Y1.3071 
G01 X-2.4351 Y1.3051 
G01 X-2.3711 Y1.3051 
G01 X-2.3711 Y1.3587 
G01 X-2.3587 Y1.3711 
G01 X-2.2211 Y1.5087 
G01 X-2.2211 Y1.7849 
G01 X-2.2371 Y1.7689 
G01 X-2.2629 Y1.7689 
G01 X-2.2639 Y1.7699 
G01 X-2.6305 Y1.7699 
G01 X-2.6355 Y1.7649 
G01 X-2.6645 Y1.7649 
G01 X-2.6851 Y1.7855 
G00 Z0.0200 
G00 X-1.5351 Y1.2355 
G01 Z-0.0100 F10.00 
G01 X-1.5351 Y1.2369 
G01 X-1.6958 Y1.2369 
G01 X-1.6990 Y1.2293 
G01 X-1.7093 Y1.2190 
G01 X-1.7227 Y1.2134 
G01 X-1.7373 Y1.2134 
G01 X-1.7507 Y1.2190 
G01 X-1.7610 Y1.2293 
G01 X-1.7666 Y1.2427 
G01 X-1.7666 Y1.2573 
G01 X-1.7610 Y1.2707 
G01 X-1.7507 Y1.2810 
G01 X-1.7373 Y1.2866 
G01 X-1.7227 Y1.2866 
G01 X-1.7093 Y1.2810 
G01 X-1.6990 Y1.2707 
G01 X-1.6958 Y1.2631 
G01 X-1.5351 Y1.2631 
G01 X-1.5351 Y1.2645 
G01 X-1.5145 Y1.2851 
G01 X-1.4855 Y1.2851 
G01 X-1.4649 Y1.2645 
G01 X-1.4649 Y1.2355 
G01 X-1.4659 Y1.2344 
G01 X-1.4446 Y1.2131 
G01 X-1.4446 Y1.2131 
G01 X-1.4369 Y1.2054 
G01 X-1.4369 Y1.0309 
G01 X-1.4189 Y1.0129 
G01 X-1.4189 Y0.9871 
G01 X-1.4371 Y0.9689 
G01 X-1.4629 Y0.9689 
G01 X-1.4811 Y0.9871 
G01 X-1.4811 Y1.0129 
G01 X-1.4631 Y1.0309 
G01 X-1.4631 Y1.1946 
G01 X-1.4844 Y1.2159 
G01 X-1.4855 Y1.2149 
G01 X-1.5145 Y1.2149 
G01 X-1.5351 Y1.2355 
G00 Z0.0200 
G00 X-0.9351 Y1.2355 
G01 Z-0.0100 F10.00 
G01 X-0.9351 Y1.2645 
G01 X-0.9145 Y1.2851 
G01 X-0.8855 Y1.2851 
G01 X-0.8649 Y1.2645 
G01 X-0.8649 Y1.2355 
G01 X-0.8855 Y1.2149 
G01 X-0.9145 Y1.2149 
G01 X-0.9156 Y1.2159 
G01 X-0.9869 Y1.1446 
G01 X-0.9869 Y1.0569 
G01 X-0.9689 Y1.0389 
G01 X-0.9689 Y0.9611 
G01 X-0.9871 Y0.9429 
G01 X-1.0129 Y0.9429 
G01 X-1.0311 Y0.9611 
G01 X-1.0311 Y1.0389 
G01 X-1.0131 Y1.0569 
G01 X-1.0131 Y1.1446 
G01 X-1.0131 Y1.1554 
G01 X-0.9341 Y1.2344 
G01 X-0.9351 Y1.2355 
G00 Z0.0200 
G00 X-1.4311 Y1.5371 
G01 Z-0.0100 F10.00 
G01 X-1.4311 Y1.5629 
G01 X-1.4131 Y1.5809 
G01 X-1.4131 Y1.7649 
G01 X-1.4145 Y1.7649 
G01 X-1.4351 Y1.7855 
G01 X-1.4351 Y1.8145 
G01 X-1.4145 Y1.8351 
G01 X-1.3855 Y1.8351 
G01 X-1.3649 Y1.8145 
G01 X-1.3649 Y1.7855 
G01 X-1.3855 Y1.7649 
G01 X-1.3869 Y1.7649 
G01 X-1.3869 Y1.5809 
G01 X-1.3689 Y1.5629 
G01 X-1.3689 Y1.5371 
G01 X-1.3871 Y1.5189 
G01 X-1.4129 Y1.5189 
G01 X-1.4311 Y1.5371 
G00 Z0.0200 
G00 X-2.3629 Y1.0071 
G01 Z-0.0100 F10.00 
G01 X-2.3371 Y1.0071 
G01 X-2.3189 Y0.9889 
G01 X-2.3189 Y0.9111 
G01 X-2.3199 Y0.9101 
G01 X-2.3199 Y0.8375 
G01 X-2.3375 Y0.8199 
G01 X-2.3625 Y0.8199 
G01 X-2.3699 Y0.8199 
G01 X-2.3699 Y0.7639 
G01 X-2.3689 Y0.7629 
G01 X-2.3689 Y0.7371 
G01 X-2.3871 Y0.7189 
G01 X-2.4129 Y0.7189 
G01 X-2.4311 Y0.7371 
G01 X-2.4311 Y0.7629 
G01 X-2.4301 Y0.7639 
G01 X-2.4301 Y0.8199 
G01 X-2.5805 Y0.8199 
G01 X-2.5855 Y0.8149 
G01 X-2.6145 Y0.8149 
G01 X-2.6351 Y0.8355 
G01 X-2.6351 Y0.8645 
G01 X-2.6145 Y0.8851 
G01 X-2.5855 Y0.8851 
G01 X-2.5805 Y0.8801 
G01 X-2.4125 Y0.8801 
G01 X-2.3875 Y0.8801 
G01 X-2.3801 Y0.8801 
G01 X-2.3801 Y0.9101 
G01 X-2.3811 Y0.9111 
G01 X-2.3811 Y0.9889 
G01 X-2.3629 Y1.0071 
G00 Z0.0200 
G00 X-2.2629 Y1.0071 
G01 Z-0.0100 F10.00 
G01 X-2.2371 Y1.0071 
G01 X-2.2189 Y0.9889 
G01 X-2.2189 Y0.9111 
G01 X-2.2199 Y0.9101 
G01 X-2.2199 Y0.8125 
G01 X-2.1885 Y0.7811 
G01 X-2.1871 Y0.7811 
G01 X-2.1689 Y0.7629 
G01 X-2.1689 Y0.7371 
G01 X-2.1871 Y0.7189 
G01 X-2.2129 Y0.7189 
G01 X-2.2311 Y0.7371 
G01 X-2.2311 Y0.7385 
G01 X-2.2801 Y0.7875 
G01 X-2.2801 Y0.8125 
G01 X-2.2801 Y0.9101 
G01 X-2.2811 Y0.9111 
G01 X-2.2811 Y0.9889 
G01 X-2.2629 Y1.0071 
G00 Z0.0200 
G00 X-0.7689 Y1.0389 
G01 Z-0.0100 F10.00 
G01 X-0.7689 Y0.9611 
G01 X-0.7871 Y0.9429 
G01 X-0.8129 Y0.9429 
G01 X-0.8311 Y0.9611 
G01 X-0.8311 Y1.0389 
G01 X-0.8131 Y1.0569 
G01 X-0.8131 Y1.5554 
G01 X-0.8054 Y1.5631 
G01 X-0.7311 Y1.6374 
G01 X-0.7311 Y1.6629 
G01 X-0.7131 Y1.6809 
G01 X-0.7131 Y1.6946 
G01 X-0.7844 Y1.7659 
G01 X-0.7855 Y1.7649 
G01 X-0.8145 Y1.7649 
G01 X-0.8351 Y1.7855 
G01 X-0.8351 Y1.8145 
G01 X-0.8145 Y1.8351 
G01 X-0.7855 Y1.8351 
G01 X-0.7649 Y1.8145 
G01 X-0.7649 Y1.7855 
G01 X-0.7659 Y1.7844 
G01 X-0.6946 Y1.7131 
G01 X-0.6869 Y1.7054 
G01 X-0.6869 Y1.6809 
G01 X-0.6689 Y1.6629 
G01 X-0.6689 Y1.6371 
G01 X-0.6871 Y1.6189 
G01 X-0.7126 Y1.6189 
G01 X-0.7869 Y1.5446 
G01 X-0.7869 Y1.0569 
G01 X-0.7689 Y1.0389 
G00 Z0.0200 
G00 X-0.9129 Y1.0571 
G01 Z-0.0100 F10.00 
G01 X-0.8871 Y1.0571 
G01 X-0.8689 Y1.0389 
G01 X-0.8689 Y0.9611 
G01 X-0.8869 Y0.9431 
G01 X-0.8869 Y0.8946 
G01 X-0.8946 Y0.8869 
G01 X-0.9054 Y0.8869 
G01 X-1.1054 Y0.8869 
G01 X-1.1131 Y0.8946 
G01 X-1.1131 Y0.9054 
G01 X-1.1131 Y0.9431 
G01 X-1.1311 Y0.9611 
G01 X-1.1311 Y1.0389 
G01 X-1.1131 Y1.0569 
G01 X-1.1131 Y1.4446 
G01 X-1.1874 Y1.5189 
G01 X-1.2129 Y1.5189 
G01 X-1.2311 Y1.5371 
G01 X-1.2311 Y1.5626 
G01 X-1.2874 Y1.6189 
G01 X-1.3129 Y1.6189 
G01 X-1.3311 Y1.6371 
G01 X-1.3311 Y1.6629 
G01 X-1.3129 Y1.6811 
G01 X-1.2871 Y1.6811 
G01 X-1.2689 Y1.6629 
G01 X-1.2689 Y1.6374 
G01 X-1.2126 Y1.5811 
G01 X-1.1871 Y1.5811 
G01 X-1.1689 Y1.5629 
G01 X-1.1689 Y1.5374 
G01 X-1.0946 Y1.4631 
G01 X-1.0869 Y1.4554 
G01 X-1.0869 Y1.0569 
G01 X-1.0689 Y1.0389 
G01 X-1.0689 Y0.9611 
G01 X-1.0869 Y0.9431 
G01 X-1.0869 Y0.9131 
G01 X-0.9131 Y0.9131 
G01 X-0.9131 Y0.9431 
G01 X-0.9311 Y0.9611 
G01 X-0.9311 Y1.0389 
G01 X-0.9129 Y1.0571 
G00 Z0.0200 
G00 X-0.9129 Y0.7571 
G01 Z-0.0100 F10.00 
G01 X-0.8871 Y0.7571 
G01 X-0.8689 Y0.7389 
G01 X-0.8689 Y0.6611 
G01 X-0.8871 Y0.6429 
G01 X-0.9129 Y0.6429 
G01 X-0.9311 Y0.6611 
G01 X-0.9311 Y0.7389 
G01 X-0.9129 Y0.7571 
G00 Z0.0200 
G00 X-0.7689 Y0.7389 
G01 Z-0.0100 F10.00 
G01 X-0.7689 Y0.6611 
G01 X-0.7869 Y0.6431 
G01 X-0.7869 Y0.5446 
G01 X-0.7946 Y0.5369 
G01 X-0.9946 Y0.3369 
G01 X-1.0054 Y0.3369 
G01 X-1.2649 Y0.3369 
G01 X-1.2649 Y0.3355 
G01 X-1.2855 Y0.3149 
G01 X-1.3145 Y0.3149 
G01 X-1.3351 Y0.3355 
G01 X-1.3351 Y0.3645 
G01 X-1.3145 Y0.3851 
G01 X-1.2855 Y0.3851 
G01 X-1.2649 Y0.3645 
G01 X-1.2649 Y0.3631 
G01 X-1.0054 Y0.3631 
G01 X-0.8131 Y0.5554 
G01 X-0.8131 Y0.6431 
G01 X-0.8311 Y0.6611 
G01 X-0.8311 Y0.7389 
G01 X-0.8131 Y0.7569 
G01 X-0.8131 Y0.7869 
G01 X-1.2054 Y0.7869 
G01 X-1.2131 Y0.7946 
G01 X-1.2131 Y0.8054 
G01 X-1.2131 Y0.9431 
G01 X-1.2311 Y0.9611 
G01 X-1.2311 Y1.0389 
G01 X-1.2129 Y1.0571 
G01 X-1.1871 Y1.0571 
G01 X-1.1689 Y1.0389 
G01 X-1.1689 Y0.9611 
G01 X-1.1869 Y0.9431 
G01 X-1.1869 Y0.8131 
G01 X-0.8054 Y0.8131 
G01 X-0.7946 Y0.8131 
G01 X-0.7869 Y0.8054 
G01 X-0.7869 Y0.7569 
G01 X-0.7689 Y0.7389 
G00 Z0.0200 
G00 X-1.6823 Y0.4510 
G01 Z-0.0100 F10.00 
G01 X-1.6782 Y0.4551 
G01 X-1.6723 Y0.4551 
G01 X-1.6681 Y0.4510 
G01 X-1.6681 Y0.4356 
G01 X-1.6681 Y0.4298 
G01 X-1.6681 Y0.4049 
G01 X-1.6681 Y0.3991 
G01 X-1.6723 Y0.3949 
G01 X-1.6953 Y0.3949 
G01 X-1.7012 Y0.3949 
G01 X-1.7089 Y0.4026 
G01 X-1.7130 Y0.4067 
G01 X-1.7130 Y0.4221 
G01 X-1.7130 Y0.4279 
G01 X-1.7054 Y0.4356 
G01 X-1.7054 Y0.4356 
G01 X-1.7012 Y0.4398 
G01 X-1.6823 Y0.4398 
G01 X-1.6823 Y0.4510 
G00 Z0.0200 
G00 X-2.0898 Y1.5223 
G01 Z-0.0100 F10.00 
G01 X-2.0898 Y1.5282 
G01 X-2.0856 Y1.5324 
G01 X-2.0626 Y1.5324 
G01 X-2.0591 Y1.5359 
G01 X-2.0591 Y1.5489 
G01 X-2.0856 Y1.5489 
G01 X-2.0898 Y1.5530 
G01 X-2.0898 Y1.5589 
G01 X-2.0856 Y1.5630 
G01 X-2.0491 Y1.5630 
G01 X-2.0449 Y1.5589 
G01 X-2.0449 Y1.5530 
G01 X-2.0449 Y1.5300 
G01 X-2.0491 Y1.5258 
G01 X-2.0567 Y1.5182 
G01 X-2.0626 Y1.5182 
G01 X-2.0856 Y1.5182 
G01 X-2.0898 Y1.5223 
G00 Z0.0200 
G00 X-2.1051 Y1.4303 
G01 Z-0.0100 F10.00 
G01 X-2.1051 Y1.4361 
G01 X-2.1010 Y1.4403 
G01 X-2.0703 Y1.4403 
G01 X-2.0620 Y1.4485 
G01 X-2.0703 Y1.4568 
G01 X-2.1010 Y1.4568 
G01 X-2.1051 Y1.4609 
G01 X-2.1051 Y1.4668 
G01 X-2.1010 Y1.4710 
G01 X-2.0644 Y1.4710 
G01 X-2.0627 Y1.4693 
G01 X-2.0623 Y1.4689 
G01 X-2.0623 Y1.4688 
G01 X-2.0602 Y1.4668 
G01 X-2.0602 Y1.4668 
G01 X-2.0449 Y1.4515 
G01 X-2.0449 Y1.4456 
G01 X-2.0491 Y1.4414 
G01 X-2.0644 Y1.4261 
G01 X-2.0703 Y1.4261 
G01 X-2.1010 Y1.4261 
G01 X-2.1051 Y1.4303 
G00 Z0.0200 
G00 X-1.1632 Y0.1451 
G01 Z-0.0100 F10.00 
G01 X-1.1632 Y0.1510 
G01 X-1.1590 Y0.1551 
G01 X-1.1283 Y0.1551 
G01 X-1.1224 Y0.1551 
G01 X-1.1183 Y0.1510 
G01 X-1.1183 Y0.1433 
G01 X-1.1183 Y0.1374 
G01 X-1.1490 Y0.1067 
G01 X-1.1490 Y0.0991 
G01 X-1.1531 Y0.0949 
G01 X-1.1590 Y0.0949 
G01 X-1.1632 Y0.0991 
G01 X-1.1632 Y0.1126 
G01 X-1.1627 Y0.1131 
G01 X-1.1348 Y0.1409 
G01 X-1.1590 Y0.1409 
G01 X-1.1632 Y0.1451 
G00 Z0.0200 
G00 X-1.2092 Y0.1374 
G01 Z-0.0100 F10.00 
G01 X-1.2092 Y0.1433 
G01 X-1.2015 Y0.1510 
G01 X-1.2015 Y0.1510 
G01 X-1.1995 Y0.1530 
G01 X-1.1995 Y0.1530 
G01 X-1.1987 Y0.1538 
G01 X-1.1974 Y0.1551 
G01 X-1.1820 Y0.1551 
G01 X-1.1762 Y0.1551 
G01 X-1.1685 Y0.1475 
G01 X-1.1643 Y0.1433 
G01 X-1.1643 Y0.1374 
G01 X-1.1643 Y0.1126 
G01 X-1.1643 Y0.1067 
G01 X-1.1664 Y0.1047 
G01 X-1.1668 Y0.1043 
G01 X-1.1685 Y0.1026 
G01 X-1.1685 Y0.1026 
G01 X-1.1760 Y0.0950 
G01 X-1.1762 Y0.0949 
G01 X-1.1915 Y0.0949 
G01 X-1.1974 Y0.0949 
G01 X-1.2050 Y0.1026 
G01 X-1.2092 Y0.1067 
G01 X-1.2092 Y0.1126 
G01 X-1.2092 Y0.1374 
G00 Z0.0200 
G00 X-1.2552 Y0.1374 
G01 Z-0.0100 F10.00 
G01 X-1.2552 Y0.1433 
G01 X-1.2476 Y0.1510 
G01 X-1.2476 Y0.1510 
G01 X-1.2434 Y0.1551 
G01 X-1.2281 Y0.1551 
G01 X-1.2222 Y0.1551 
G01 X-1.2145 Y0.1475 
G01 X-1.2145 Y0.1475 
G01 X-1.2104 Y0.1433 
G01 X-1.2104 Y0.1374 
G01 X-1.2104 Y0.1126 
G01 X-1.2104 Y0.1067 
G01 X-1.2124 Y0.1047 
G01 X-1.2127 Y0.1044 
G01 X-1.2145 Y0.1026 
G01 X-1.2145 Y0.1026 
G01 X-1.2221 Y0.0950 
G01 X-1.2222 Y0.0949 
G01 X-1.2375 Y0.0949 
G01 X-1.2434 Y0.0949 
G01 X-1.2511 Y0.1026 
G01 X-1.2552 Y0.1067 
G01 X-1.2552 Y0.1126 
G01 X-1.2552 Y0.1374 
G00 Z0.0200 
G00 X-1.4217 Y0.1091 
G01 Z-0.0100 F10.00 
G01 X-1.4175 Y0.1049 
G01 X-1.4175 Y0.0991 
G01 X-1.4217 Y0.0949 
G01 X-1.4370 Y0.0949 
G01 X-1.4429 Y0.0949 
G01 X-1.4506 Y0.1026 
G01 X-1.4547 Y0.1067 
G01 X-1.4547 Y0.1144 
G01 X-1.4547 Y0.1203 
G01 X-1.4547 Y0.1221 
G01 X-1.4547 Y0.1279 
G01 X-1.4471 Y0.1356 
G01 X-1.4471 Y0.1356 
G01 X-1.4451 Y0.1375 
G01 X-1.4450 Y0.1377 
G01 X-1.4438 Y0.1389 
G01 X-1.4429 Y0.1398 
G01 X-1.4275 Y0.1398 
G01 X-1.4217 Y0.1398 
G01 X-1.4140 Y0.1321 
G01 X-1.4098 Y0.1279 
G01 X-1.4098 Y0.1203 
G01 X-1.4098 Y0.1144 
G01 X-1.4140 Y0.1102 
G01 X-1.4382 Y0.1102 
G01 X-1.4370 Y0.1091 
G01 X-1.4217 Y0.1091 
G00 Z0.0200 
G00 X-1.5008 Y0.0991 
G01 Z-0.0100 F10.00 
G01 X-1.5008 Y0.1049 
G01 X-1.4966 Y0.1091 
G01 X-1.4736 Y0.1091 
G01 X-1.4730 Y0.1097 
G01 X-1.4736 Y0.1102 
G01 X-1.4831 Y0.1102 
G01 X-1.4889 Y0.1102 
G01 X-1.4910 Y0.1123 
G01 X-1.4914 Y0.1127 
G01 X-1.4931 Y0.1144 
G01 X-1.4931 Y0.1144 
G01 X-1.5006 Y0.1219 
G01 X-1.5008 Y0.1221 
G01 X-1.5008 Y0.1279 
G01 X-1.4931 Y0.1356 
G01 X-1.4931 Y0.1356 
G01 X-1.4911 Y0.1376 
G01 X-1.4910 Y0.1377 
G01 X-1.4900 Y0.1387 
G01 X-1.4889 Y0.1398 
G01 X-1.4600 Y0.1398 
G01 X-1.4559 Y0.1356 
G01 X-1.4559 Y0.1298 
G01 X-1.4600 Y0.1256 
G01 X-1.4831 Y0.1256 
G01 X-1.4836 Y0.1250 
G01 X-1.4831 Y0.1244 
G01 X-1.4677 Y0.1244 
G01 X-1.4636 Y0.1203 
G01 X-1.4559 Y0.1126 
G01 X-1.4559 Y0.1067 
G01 X-1.4572 Y0.1054 
G01 X-1.4580 Y0.1047 
G01 X-1.4580 Y0.1046 
G01 X-1.4600 Y0.1026 
G01 X-1.4600 Y0.1026 
G01 X-1.4677 Y0.0949 
G01 X-1.4736 Y0.0949 
G01 X-1.4966 Y0.0949 
G01 X-1.5008 Y0.0991 
G00 Z0.0200 
G00 X-1.5468 Y0.0991 
G01 Z-0.0100 F10.00 
G01 X-1.5468 Y0.1049 
G01 X-1.5426 Y0.1091 
G01 X-1.5196 Y0.1091 
G01 X-1.5190 Y0.1097 
G01 X-1.5196 Y0.1102 
G01 X-1.5291 Y0.1102 
G01 X-1.5350 Y0.1102 
G01 X-1.5370 Y0.1123 
G01 X-1.5374 Y0.1126 
G01 X-1.5391 Y0.1144 
G01 X-1.5391 Y0.1144 
G01 X-1.5466 Y0.1219 
G01 X-1.5468 Y0.1221 
G01 X-1.5468 Y0.1279 
G01 X-1.5391 Y0.1356 
G01 X-1.5391 Y0.1356 
G01 X-1.5371 Y0.1377 
G01 X-1.5370 Y0.1377 
G01 X-1.5365 Y0.1382 
G01 X-1.5350 Y0.1398 
G01 X-1.5061 Y0.1398 
G01 X-1.5019 Y0.1356 
G01 X-1.5019 Y0.1298 
G01 X-1.5061 Y0.1256 
G01 X-1.5291 Y0.1256 
G01 X-1.5297 Y0.1250 
G01 X-1.5291 Y0.1244 
G01 X-1.5137 Y0.1244 
G01 X-1.5096 Y0.1203 
G01 X-1.5019 Y0.1126 
G01 X-1.5019 Y0.1067 
G01 X-1.5061 Y0.1026 
G01 X-1.5061 Y0.1026 
G01 X-1.5137 Y0.0949 
G01 X-1.5196 Y0.0949 
G01 X-1.5426 Y0.0949 
G01 X-1.5468 Y0.0991 
G00 Z0.0200 
G00 X-1.7363 Y0.1091 
G01 Z-0.0100 F10.00 
G01 X-1.7321 Y0.1049 
G01 X-1.7321 Y0.0991 
G01 X-1.7363 Y0.0949 
G01 X-1.7516 Y0.0949 
G01 X-1.7575 Y0.0949 
G01 X-1.7651 Y0.1026 
G01 X-1.7693 Y0.1067 
G01 X-1.7693 Y0.1144 
G01 X-1.7693 Y0.1203 
G01 X-1.7693 Y0.1221 
G01 X-1.7693 Y0.1279 
G01 X-1.7616 Y0.1356 
G01 X-1.7616 Y0.1356 
G01 X-1.7597 Y0.1375 
G01 X-1.7595 Y0.1377 
G01 X-1.7584 Y0.1389 
G01 X-1.7575 Y0.1398 
G01 X-1.7421 Y0.1398 
G01 X-1.7363 Y0.1398 
G01 X-1.7286 Y0.1321 
G01 X-1.7244 Y0.1279 
G01 X-1.7244 Y0.1203 
G01 X-1.7244 Y0.1144 
G01 X-1.7286 Y0.1102 
G01 X-1.7528 Y0.1102 
G01 X-1.7516 Y0.1091 
G01 X-1.7363 Y0.1091 
G00 Z0.0200 
G00 X-1.8077 Y0.1356 
G01 Z-0.0100 F10.00 
G01 X-1.8060 Y0.1373 
G01 X-1.8056 Y0.1377 
G01 X-1.8035 Y0.1398 
G01 X-1.7976 Y0.1398 
G01 X-1.7746 Y0.1398 
G01 X-1.7705 Y0.1356 
G01 X-1.7705 Y0.1298 
G01 X-1.7746 Y0.1256 
G01 X-1.7976 Y0.1256 
G01 X-1.8011 Y0.1221 
G01 X-1.8011 Y0.1126 
G01 X-1.7976 Y0.1091 
G01 X-1.7746 Y0.1091 
G01 X-1.7705 Y0.1049 
G01 X-1.7705 Y0.0991 
G01 X-1.7746 Y0.0949 
G01 X-1.8035 Y0.0949 
G01 X-1.8077 Y0.0991 
G01 X-1.8153 Y0.1067 
G01 X-1.8153 Y0.1126 
G01 X-1.8153 Y0.1279 
G01 X-1.8152 Y0.1281 
G01 X-1.8077 Y0.1356 
G01 X-1.8077 Y0.1356 
G00 Z0.0200 
G00 X-1.8744 Y0.1091 
G01 Z-0.0100 F10.00 
G01 X-1.8702 Y0.1049 
G01 X-1.8702 Y0.0991 
G01 X-1.8744 Y0.0949 
G01 X-1.8897 Y0.0949 
G01 X-1.8956 Y0.0949 
G01 X-1.9032 Y0.1026 
G01 X-1.9074 Y0.1067 
G01 X-1.9074 Y0.1144 
G01 X-1.9074 Y0.1203 
G01 X-1.9074 Y0.1221 
G01 X-1.9074 Y0.1279 
G01 X-1.8997 Y0.1356 
G01 X-1.8997 Y0.1356 
G01 X-1.8956 Y0.1398 
G01 X-1.8802 Y0.1398 
G01 X-1.8744 Y0.1398 
G01 X-1.8667 Y0.1321 
G01 X-1.8625 Y0.1279 
G01 X-1.8625 Y0.1203 
G01 X-1.8625 Y0.1144 
G01 X-1.8667 Y0.1102 
G01 X-1.8909 Y0.1102 
G01 X-1.8897 Y0.1091 
G01 X-1.8744 Y0.1091 
G00 Z0.0200 
G00 X-2.1429 Y0.1091 
G01 Z-0.0100 F10.00 
G01 X-2.1387 Y0.1049 
G01 X-2.1387 Y0.0991 
G01 X-2.1429 Y0.0949 
G01 X-2.1736 Y0.0949 
G01 X-2.1795 Y0.0949 
G01 X-2.1836 Y0.0991 
G01 X-2.1836 Y0.1049 
G01 X-2.1529 Y0.1356 
G01 X-2.1529 Y0.1374 
G01 X-2.1564 Y0.1409 
G01 X-2.1659 Y0.1409 
G01 X-2.1715 Y0.1353 
G01 X-2.1736 Y0.1333 
G01 X-2.1795 Y0.1333 
G01 X-2.1836 Y0.1374 
G01 X-2.1836 Y0.1433 
G01 X-2.1759 Y0.1510 
G01 X-2.1759 Y0.1510 
G01 X-2.1743 Y0.1526 
G01 X-2.1739 Y0.1530 
G01 X-2.1718 Y0.1551 
G01 X-2.1659 Y0.1551 
G01 X-2.1506 Y0.1551 
G01 X-2.1464 Y0.1510 
G01 X-2.1387 Y0.1433 
G01 X-2.1387 Y0.1374 
G01 X-2.1387 Y0.1298 
G01 X-2.1429 Y0.1256 
G01 X-2.1594 Y0.1091 
G01 X-2.1429 Y0.1091 
G00 Z0.0200 
G00 X-2.2987 Y0.1310 
G01 Z-0.0100 F10.00 
G01 X-2.2987 Y0.1356 
G01 X-2.2945 Y0.1398 
G01 X-2.2887 Y0.1398 
G01 X-2.2858 Y0.1369 
G01 X-2.2763 Y0.1179 
G01 X-2.2667 Y0.1369 
G01 X-2.2639 Y0.1398 
G01 X-2.2580 Y0.1398 
G01 X-2.2538 Y0.1356 
G01 X-2.2538 Y0.1310 
G01 X-2.2692 Y0.1003 
G01 X-2.2692 Y0.0991 
G01 X-2.2704 Y0.0978 
G01 X-2.2733 Y0.0949 
G01 X-2.2792 Y0.0949 
G01 X-2.2834 Y0.0991 
G01 X-2.2834 Y0.1003 
G01 X-2.2987 Y0.1310 
G00 Z0.0200 
G00 X-2.4498 Y0.1091 
G01 Z-0.0100 F10.00 
G01 X-2.4456 Y0.1049 
G01 X-2.4456 Y0.0991 
G01 X-2.4498 Y0.0949 
G01 X-2.4651 Y0.0949 
G01 X-2.4710 Y0.0949 
G01 X-2.4787 Y0.1026 
G01 X-2.4828 Y0.1067 
G01 X-2.4828 Y0.1144 
G01 X-2.4828 Y0.1203 
G01 X-2.4828 Y0.1221 
G01 X-2.4828 Y0.1279 
G01 X-2.4752 Y0.1356 
G01 X-2.4752 Y0.1356 
G01 X-2.4733 Y0.1375 
G01 X-2.4731 Y0.1377 
G01 X-2.4719 Y0.1389 
G01 X-2.4710 Y0.1398 
G01 X-2.4557 Y0.1398 
G01 X-2.4498 Y0.1398 
G01 X-2.4421 Y0.1321 
G01 X-2.4380 Y0.1279 
G01 X-2.4380 Y0.1203 
G01 X-2.4380 Y0.1144 
G01 X-2.4421 Y0.1102 
G01 X-2.4663 Y0.1102 
G01 X-2.4651 Y0.1091 
G01 X-2.4498 Y0.1091 
G00 Z0.0200 
G00 X-2.5289 Y0.0991 
G01 Z-0.0100 F10.00 
G01 X-2.5289 Y0.1049 
G01 X-2.5247 Y0.1091 
G01 X-2.5017 Y0.1091 
G01 X-2.5011 Y0.1097 
G01 X-2.5017 Y0.1102 
G01 X-2.5112 Y0.1102 
G01 X-2.5171 Y0.1102 
G01 X-2.5191 Y0.1123 
G01 X-2.5195 Y0.1127 
G01 X-2.5212 Y0.1144 
G01 X-2.5212 Y0.1144 
G01 X-2.5287 Y0.1219 
G01 X-2.5289 Y0.1221 
G01 X-2.5289 Y0.1279 
G01 X-2.5212 Y0.1356 
G01 X-2.5212 Y0.1356 
G01 X-2.5193 Y0.1376 
G01 X-2.5191 Y0.1377 
G01 X-2.5181 Y0.1388 
G01 X-2.5171 Y0.1398 
G01 X-2.4882 Y0.1398 
G01 X-2.4840 Y0.1356 
G01 X-2.4840 Y0.1298 
G01 X-2.4882 Y0.1256 
G01 X-2.5112 Y0.1256 
G01 X-2.5118 Y0.1250 
G01 X-2.5112 Y0.1244 
G01 X-2.4958 Y0.1244 
G01 X-2.4917 Y0.1203 
G01 X-2.4840 Y0.1126 
G01 X-2.4840 Y0.1067 
G01 X-2.4852 Y0.1055 
G01 X-2.4861 Y0.1047 
G01 X-2.4862 Y0.1046 
G01 X-2.4882 Y0.1026 
G01 X-2.4882 Y0.1026 
G01 X-2.4958 Y0.0949 
G01 X-2.5017 Y0.0949 
G01 X-2.5247 Y0.0949 
G01 X-2.5289 Y0.0991 
G00 Z0.0200 
G00 X-2.5879 Y0.1091 
G01 Z-0.0100 F10.00 
G01 X-2.5837 Y0.1049 
G01 X-2.5837 Y0.0991 
G01 X-2.5879 Y0.0949 
G01 X-2.6033 Y0.0949 
G01 X-2.6091 Y0.0949 
G01 X-2.6168 Y0.1026 
G01 X-2.6209 Y0.1067 
G01 X-2.6209 Y0.1144 
G01 X-2.6209 Y0.1203 
G01 X-2.6209 Y0.1221 
G01 X-2.6209 Y0.1279 
G01 X-2.6133 Y0.1356 
G01 X-2.6133 Y0.1356 
G01 X-2.6091 Y0.1398 
G01 X-2.5938 Y0.1398 
G01 X-2.5879 Y0.1398 
G01 X-2.5802 Y0.1321 
G01 X-2.5761 Y0.1279 
G01 X-2.5761 Y0.1203 
G01 X-2.5761 Y0.1144 
G01 X-2.5802 Y0.1102 
G01 X-2.6044 Y0.1102 
G01 X-2.6033 Y0.1091 
G01 X-2.5879 Y0.1091 
G00 Z0.0200 
G00 X-2.6221 Y0.1433 
G01 Z-0.0100 F10.00 
G01 X-2.6221 Y0.1374 
G01 X-2.6263 Y0.1333 
G01 X-2.6321 Y0.1333 
G01 X-2.6398 Y0.1409 
G01 X-2.6493 Y0.1409 
G01 X-2.6528 Y0.1374 
G01 X-2.6528 Y0.1356 
G01 X-2.6493 Y0.1321 
G01 X-2.6398 Y0.1321 
G01 X-2.6339 Y0.1321 
G01 X-2.6263 Y0.1244 
G01 X-2.6221 Y0.1203 
G01 X-2.6221 Y0.1126 
G01 X-2.6221 Y0.1067 
G01 X-2.6242 Y0.1047 
G01 X-2.6244 Y0.1045 
G01 X-2.6263 Y0.1026 
G01 X-2.6263 Y0.1026 
G01 X-2.6338 Y0.0950 
G01 X-2.6339 Y0.0949 
G01 X-2.6493 Y0.0949 
G01 X-2.6552 Y0.0949 
G01 X-2.6670 Y0.1067 
G01 X-2.6670 Y0.1126 
G01 X-2.6628 Y0.1168 
G01 X-2.6570 Y0.1168 
G01 X-2.6493 Y0.1091 
G01 X-2.6398 Y0.1091 
G01 X-2.6363 Y0.1126 
G01 X-2.6363 Y0.1144 
G01 X-2.6398 Y0.1179 
G01 X-2.6552 Y0.1179 
G01 X-2.6593 Y0.1221 
G01 X-2.6593 Y0.1221 
G01 X-2.6628 Y0.1256 
G01 X-2.6670 Y0.1298 
G01 X-2.6670 Y0.1433 
G01 X-2.6668 Y0.1434 
G01 X-2.6593 Y0.1510 
G01 X-2.6593 Y0.1510 
G01 X-2.6578 Y0.1525 
G01 X-2.6572 Y0.1530 
G01 X-2.6552 Y0.1551 
G01 X-2.6493 Y0.1551 
G01 X-2.6339 Y0.1551 
G01 X-2.6298 Y0.1510 
G01 X-2.6221 Y0.1433 
G00 Z0.0200 
G00 X-0.3323 Y1.3491 
G01 Z-0.0100 F10.00 
G01 X-0.3323 Y1.3644 
G01 X-0.3323 Y1.3703 
G01 X-0.3323 Y1.3951 
G01 X-0.3323 Y1.4010 
G01 X-0.3282 Y1.4051 
G01 X-0.3052 Y1.4051 
G01 X-0.2993 Y1.4051 
G01 X-0.2916 Y1.3975 
G01 X-0.2875 Y1.3933 
G01 X-0.2875 Y1.3779 
G01 X-0.2875 Y1.3721 
G01 X-0.2951 Y1.3644 
G01 X-0.2993 Y1.3602 
G01 X-0.3181 Y1.3602 
G01 X-0.3181 Y1.3491 
G01 X-0.3223 Y1.3449 
G01 X-0.3282 Y1.3449 
G01 X-0.3323 Y1.3491 
G00 Z0.0200 
G00 X-0.3630 Y1.3491 
G01 Z-0.0100 F10.00 
G01 X-0.3630 Y1.3549 
G01 X-0.3589 Y1.3591 
G01 X-0.3554 Y1.3591 
G01 X-0.3554 Y1.3909 
G01 X-0.3589 Y1.3909 
G01 X-0.3630 Y1.3951 
G01 X-0.3630 Y1.4010 
G01 X-0.3589 Y1.4051 
G01 X-0.3376 Y1.4051 
G01 X-0.3335 Y1.4010 
G01 X-0.3335 Y1.3951 
G01 X-0.3376 Y1.3909 
G01 X-0.3412 Y1.3909 
G01 X-0.3412 Y1.3591 
G01 X-0.3376 Y1.3591 
G01 X-0.3335 Y1.3549 
G01 X-0.3335 Y1.3491 
G01 X-0.3376 Y1.3449 
G01 X-0.3453 Y1.3449 
G01 X-0.3512 Y1.3449 
G01 X-0.3589 Y1.3449 
G01 X-0.3630 Y1.3491 
G00 Z0.0200 
G00 X-0.4551 Y1.3721 
G01 Z-0.0100 F10.00 
G01 X-0.4551 Y1.3779 
G01 X-0.4509 Y1.3821 
G01 X-0.4397 Y1.3821 
G01 X-0.4397 Y1.3933 
G01 X-0.4356 Y1.3975 
G01 X-0.4297 Y1.3975 
G01 X-0.4256 Y1.3933 
G01 X-0.4256 Y1.3821 
G01 X-0.4144 Y1.3821 
G01 X-0.4102 Y1.3779 
G01 X-0.4102 Y1.3721 
G01 X-0.4144 Y1.3679 
G01 X-0.4256 Y1.3679 
G01 X-0.4256 Y1.3567 
G01 X-0.4297 Y1.3526 
G01 X-0.4356 Y1.3526 
G01 X-0.4397 Y1.3567 
G01 X-0.4397 Y1.3679 
G01 X-0.4509 Y1.3679 
G01 X-0.4551 Y1.3721 
G00 Z0.0200 
G00 X-0.2721 Y1.4933 
G01 Z-0.0100 F10.00 
G01 X-0.2721 Y1.4874 
G01 X-0.2763 Y1.4833 
G01 X-0.2821 Y1.4833 
G01 X-0.2898 Y1.4909 
G01 X-0.2993 Y1.4909 
G01 X-0.3028 Y1.4874 
G01 X-0.3028 Y1.4626 
G01 X-0.2993 Y1.4591 
G01 X-0.2898 Y1.4591 
G01 X-0.2821 Y1.4668 
G01 X-0.2763 Y1.4668 
G01 X-0.2721 Y1.4626 
G01 X-0.2721 Y1.4567 
G01 X-0.2742 Y1.4547 
G01 X-0.2839 Y1.4449 
G01 X-0.2898 Y1.4449 
G01 X-0.3052 Y1.4449 
G01 X-0.3093 Y1.4491 
G01 X-0.3170 Y1.4567 
G01 X-0.3170 Y1.4626 
G01 X-0.3170 Y1.4933 
G01 X-0.3168 Y1.4934 
G01 X-0.3093 Y1.5010 
G01 X-0.3093 Y1.5010 
G01 X-0.3077 Y1.5026 
G01 X-0.3072 Y1.5030 
G01 X-0.3052 Y1.5051 
G01 X-0.2993 Y1.5051 
G01 X-0.2839 Y1.5051 
G01 X-0.2798 Y1.5010 
G01 X-0.2721 Y1.4933 
G00 Z0.0200 
G00 X-0.4091 Y1.5010 
G01 Z-0.0100 F10.00 
G01 X-0.4049 Y1.5051 
G01 X-0.3990 Y1.5051 
G01 X-0.3949 Y1.5010 
G01 X-0.3949 Y1.4703 
G01 X-0.3866 Y1.4620 
G01 X-0.3784 Y1.4703 
G01 X-0.3784 Y1.5010 
G01 X-0.3742 Y1.5051 
G01 X-0.3683 Y1.5051 
G01 X-0.3642 Y1.5010 
G01 X-0.3642 Y1.4644 
G01 X-0.3654 Y1.4632 
G01 X-0.3663 Y1.4623 
G01 X-0.3664 Y1.4621 
G01 X-0.3683 Y1.4602 
G01 X-0.3683 Y1.4602 
G01 X-0.3837 Y1.4449 
G01 X-0.3896 Y1.4449 
G01 X-0.3937 Y1.4491 
G01 X-0.4091 Y1.4644 
G01 X-0.4091 Y1.4703 
G01 X-0.4091 Y1.5010 
G00 Z0.0200 
G00 X-0.4397 Y1.4933 
G01 Z-0.0100 F10.00 
G01 X-0.4380 Y1.4950 
G01 X-0.4377 Y1.4954 
G01 X-0.4356 Y1.4975 
G01 X-0.4343 Y1.4975 
G01 X-0.4190 Y1.5051 
G01 X-0.4144 Y1.5051 
G01 X-0.4102 Y1.5010 
G01 X-0.4102 Y1.4951 
G01 X-0.4131 Y1.4922 
G01 X-0.4285 Y1.4845 
G01 X-0.4309 Y1.4821 
G01 X-0.4220 Y1.4821 
G01 X-0.4179 Y1.4779 
G01 X-0.4102 Y1.4703 
G01 X-0.4102 Y1.4644 
G01 X-0.4102 Y1.4567 
G01 X-0.4119 Y1.4551 
G01 X-0.4123 Y1.4547 
G01 X-0.4123 Y1.4546 
G01 X-0.4144 Y1.4526 
G01 X-0.4144 Y1.4526 
G01 X-0.4220 Y1.4449 
G01 X-0.4279 Y1.4449 
G01 X-0.4433 Y1.4449 
G01 X-0.4474 Y1.4491 
G01 X-0.4551 Y1.4567 
G01 X-0.4551 Y1.4626 
G01 X-0.4551 Y1.4721 
G01 X-0.4551 Y1.4779 
G01 X-0.4533 Y1.4797 
G01 X-0.4397 Y1.4933 
G01 X-0.4397 Y1.4933 
G00 Z0.0200 
G00 X-0.4551 Y0.6991 
G01 Z-0.0100 F10.00 
G01 X-0.4551 Y0.7221 
G01 X-0.4551 Y0.7279 
G01 X-0.4551 Y0.7298 
G01 X-0.4551 Y0.7356 
G01 X-0.4397 Y0.7510 
G01 X-0.4397 Y0.7510 
G01 X-0.4356 Y0.7551 
G01 X-0.4297 Y0.7551 
G01 X-0.4144 Y0.7398 
G01 X-0.4144 Y0.7398 
G01 X-0.4102 Y0.7356 
G01 X-0.4102 Y0.7279 
G01 X-0.4102 Y0.7221 
G01 X-0.4102 Y0.6991 
G01 X-0.4144 Y0.6949 
G01 X-0.4202 Y0.6949 
G01 X-0.4244 Y0.6991 
G01 X-0.4244 Y0.7179 
G01 X-0.4409 Y0.7179 
G01 X-0.4409 Y0.6991 
G01 X-0.4451 Y0.6949 
G01 X-0.4509 Y0.6949 
G01 X-0.4551 Y0.6991 
G00 Z0.0200 
G00 X-0.4091 Y0.6991 
G01 Z-0.0100 F10.00 
G01 X-0.4091 Y0.7459 
G01 X-0.4091 Y0.7510 
G01 X-0.4049 Y0.7551 
G01 X-0.3990 Y0.7551 
G01 X-0.3965 Y0.7526 
G01 X-0.3965 Y0.7525 
G01 X-0.3949 Y0.7510 
G01 X-0.3949 Y0.7502 
G01 X-0.3784 Y0.7254 
G01 X-0.3784 Y0.7510 
G01 X-0.3742 Y0.7551 
G01 X-0.3683 Y0.7551 
G01 X-0.3642 Y0.7510 
G01 X-0.3642 Y0.6991 
G01 X-0.3683 Y0.6949 
G01 X-0.3742 Y0.6949 
G01 X-0.3784 Y0.6991 
G01 X-0.3784 Y0.6999 
G01 X-0.3949 Y0.7246 
G01 X-0.3949 Y0.6991 
G01 X-0.3990 Y0.6949 
G01 X-0.4049 Y0.6949 
G01 X-0.4091 Y0.6991 
G00 Z0.0200 
G00 X-0.3477 Y0.6991 
G01 Z-0.0100 F10.00 
G01 X-0.3477 Y0.7409 
G01 X-0.3589 Y0.7409 
G01 X-0.3630 Y0.7451 
G01 X-0.3630 Y0.7510 
G01 X-0.3589 Y0.7551 
G01 X-0.3223 Y0.7551 
G01 X-0.3181 Y0.7510 
G01 X-0.3181 Y0.7451 
G01 X-0.3223 Y0.7409 
G01 X-0.3335 Y0.7409 
G01 X-0.3335 Y0.6991 
G01 X-0.3376 Y0.6949 
G01 X-0.3435 Y0.6949 
G01 X-0.3477 Y0.6991 
G00 Z0.0200 
G00 X-0.3181 Y1.4933 
G01 Z-0.0100 F10.00 
G01 X-0.3181 Y1.4874 
G01 X-0.3181 Y1.4567 
G01 X-0.3192 Y1.4557 
G01 X-0.3202 Y1.4547 
G01 X-0.3204 Y1.4545 
G01 X-0.3223 Y1.4526 
G01 X-0.3223 Y1.4526 
G01 X-0.3300 Y1.4449 
G01 X-0.3358 Y1.4449 
G01 X-0.3589 Y1.4449 
G01 X-0.3630 Y1.4491 
G01 X-0.3630 Y1.4549 
G01 X-0.3630 Y1.4951 
G01 X-0.3630 Y1.5010 
G01 X-0.3589 Y1.5051 
G01 X-0.3300 Y1.5051 
G01 X-0.3258 Y1.5010 
G01 X-0.3181 Y1.4933 
G00 Z0.0200 
G00 X-0.3937 Y1.3491 
G01 Z-0.0100 F10.00 
G01 X-0.3937 Y1.3909 
G01 X-0.4049 Y1.3909 
G01 X-0.4091 Y1.3951 
G01 X-0.4091 Y1.4010 
G01 X-0.4049 Y1.4051 
G01 X-0.3683 Y1.4051 
G01 X-0.3642 Y1.4010 
G01 X-0.3642 Y1.3951 
G01 X-0.3683 Y1.3909 
G01 X-0.3795 Y1.3909 
G01 X-0.3795 Y1.3491 
G01 X-0.3837 Y1.3449 
G01 X-0.3896 Y1.3449 
G01 X-0.3937 Y1.3491 
G00 Z0.0200 
G00 X-2.7602 Y0.1433 
G01 Z-0.0100 F10.00 
G01 X-2.7602 Y0.1374 
G01 X-2.7644 Y0.1333 
G01 X-2.7702 Y0.1333 
G01 X-2.7779 Y0.1409 
G01 X-2.7874 Y0.1409 
G01 X-2.7909 Y0.1374 
G01 X-2.7909 Y0.1126 
G01 X-2.7874 Y0.1091 
G01 X-2.7779 Y0.1091 
G01 X-2.7702 Y0.1168 
G01 X-2.7644 Y0.1168 
G01 X-2.7602 Y0.1126 
G01 X-2.7602 Y0.1067 
G01 X-2.7623 Y0.1047 
G01 X-2.7720 Y0.0949 
G01 X-2.7779 Y0.0949 
G01 X-2.7933 Y0.0949 
G01 X-2.7974 Y0.0991 
G01 X-2.8051 Y0.1067 
G01 X-2.8051 Y0.1126 
G01 X-2.8051 Y0.1433 
G01 X-2.8049 Y0.1434 
G01 X-2.7974 Y0.1510 
G01 X-2.7974 Y0.1510 
G01 X-2.7957 Y0.1527 
G01 X-2.7953 Y0.1530 
G01 X-2.7933 Y0.1551 
G01 X-2.7874 Y0.1551 
G01 X-2.7720 Y0.1551 
G01 X-2.7679 Y0.1510 
G01 X-2.7602 Y0.1433 
G00 Z0.0200 
G00 X-2.7514 Y0.1298 
G01 Z-0.0100 F10.00 
G01 X-2.7514 Y0.1356 
G01 X-2.7472 Y0.1398 
G01 X-2.7319 Y0.1398 
G01 X-2.7260 Y0.1398 
G01 X-2.7183 Y0.1321 
G01 X-2.7142 Y0.1279 
G01 X-2.7142 Y0.1203 
G01 X-2.7142 Y0.1144 
G01 X-2.7142 Y0.1049 
G01 X-2.7142 Y0.0991 
G01 X-2.7183 Y0.0949 
G01 X-2.7414 Y0.0949 
G01 X-2.7472 Y0.0949 
G01 X-2.7549 Y0.1026 
G01 X-2.7591 Y0.1067 
G01 X-2.7591 Y0.1126 
G01 X-2.7514 Y0.1203 
G01 X-2.7514 Y0.1203 
G01 X-2.7495 Y0.1222 
G01 X-2.7493 Y0.1224 
G01 X-2.7482 Y0.1234 
G01 X-2.7472 Y0.1244 
G01 X-2.7307 Y0.1244 
G01 X-2.7319 Y0.1256 
G01 X-2.7472 Y0.1256 
G01 X-2.7514 Y0.1298 
G00 Z0.0200 
G00 X-2.7130 Y0.0837 
G01 Z-0.0100 F10.00 
G01 X-2.7130 Y0.0991 
G01 X-2.7130 Y0.1049 
G01 X-2.7130 Y0.1298 
G01 X-2.7130 Y0.1356 
G01 X-2.7089 Y0.1398 
G01 X-2.6858 Y0.1398 
G01 X-2.6800 Y0.1398 
G01 X-2.6723 Y0.1321 
G01 X-2.6681 Y0.1279 
G01 X-2.6681 Y0.1126 
G01 X-2.6681 Y0.1067 
G01 X-2.6702 Y0.1047 
G01 X-2.6707 Y0.1042 
G01 X-2.6723 Y0.1026 
G01 X-2.6723 Y0.1026 
G01 X-2.6798 Y0.0950 
G01 X-2.6800 Y0.0949 
G01 X-2.6988 Y0.0949 
G01 X-2.6988 Y0.0837 
G01 X-2.7030 Y0.0796 
G01 X-2.7089 Y0.0796 
G01 X-2.7130 Y0.0837 
G00 Z0.0200 
G00 X-2.5749 Y0.0991 
G01 Z-0.0100 F10.00 
G01 X-2.5749 Y0.1298 
G01 X-2.5749 Y0.1356 
G01 X-2.5708 Y0.1398 
G01 X-2.5477 Y0.1398 
G01 X-2.5419 Y0.1398 
G01 X-2.5342 Y0.1321 
G01 X-2.5300 Y0.1279 
G01 X-2.5300 Y0.0991 
G01 X-2.5342 Y0.0949 
G01 X-2.5401 Y0.0949 
G01 X-2.5442 Y0.0991 
G01 X-2.5442 Y0.1221 
G01 X-2.5477 Y0.1256 
G01 X-2.5607 Y0.1256 
G01 X-2.5607 Y0.0991 
G01 X-2.5649 Y0.0949 
G01 X-2.5708 Y0.0949 
G01 X-2.5749 Y0.0991 
G00 Z0.0200 
G00 X-2.3908 Y0.0991 
G01 Z-0.0100 F10.00 
G01 X-2.3908 Y0.1451 
G01 X-2.3908 Y0.1510 
G01 X-2.3866 Y0.1551 
G01 X-2.3577 Y0.1551 
G01 X-2.3536 Y0.1510 
G01 X-2.3536 Y0.1510 
G01 X-2.3501 Y0.1475 
G01 X-2.3501 Y0.1475 
G01 X-2.3459 Y0.1433 
G01 X-2.3459 Y0.1279 
G01 X-2.3459 Y0.1221 
G01 X-2.3536 Y0.1144 
G01 X-2.3545 Y0.1135 
G01 X-2.3480 Y0.1070 
G01 X-2.3459 Y0.1049 
G01 X-2.3459 Y0.0991 
G01 X-2.3501 Y0.0949 
G01 X-2.3559 Y0.0949 
G01 X-2.3713 Y0.1102 
G01 X-2.3766 Y0.1102 
G01 X-2.3766 Y0.0991 
G01 X-2.3807 Y0.0949 
G01 X-2.3866 Y0.0949 
G01 X-2.3908 Y0.0991 
G00 Z0.0200 
G00 X-2.3117 Y0.1091 
G01 Z-0.0100 F10.00 
G01 X-2.3075 Y0.1049 
G01 X-2.3075 Y0.0991 
G01 X-2.3117 Y0.0949 
G01 X-2.3270 Y0.0949 
G01 X-2.3329 Y0.0949 
G01 X-2.3406 Y0.1026 
G01 X-2.3447 Y0.1067 
G01 X-2.3447 Y0.1144 
G01 X-2.3447 Y0.1203 
G01 X-2.3447 Y0.1221 
G01 X-2.3447 Y0.1279 
G01 X-2.3371 Y0.1356 
G01 X-2.3371 Y0.1356 
G01 X-2.3329 Y0.1398 
G01 X-2.3176 Y0.1398 
G01 X-2.3117 Y0.1398 
G01 X-2.3040 Y0.1321 
G01 X-2.2999 Y0.1279 
G01 X-2.2999 Y0.1203 
G01 X-2.2999 Y0.1144 
G01 X-2.3040 Y0.1102 
G01 X-2.3282 Y0.1102 
G01 X-2.3270 Y0.1091 
G01 X-2.3117 Y0.1091 
G00 Z0.0200 
G00 X-2.2527 Y0.1067 
G01 Z-0.0100 F10.00 
G01 X-2.2527 Y0.1126 
G01 X-2.2485 Y0.1168 
G01 X-2.2408 Y0.1168 
G01 X-2.2350 Y0.1168 
G01 X-2.2308 Y0.1126 
G01 X-2.2308 Y0.1049 
G01 X-2.2308 Y0.0991 
G01 X-2.2350 Y0.0949 
G01 X-2.2485 Y0.0949 
G01 X-2.2527 Y0.0991 
G01 X-2.2527 Y0.1049 
G01 X-2.2527 Y0.1067 
G00 Z0.0200 
G00 X-2.0915 Y0.1221 
G01 Z-0.0100 F10.00 
G01 X-2.0915 Y0.1279 
G01 X-2.0874 Y0.1321 
G01 X-2.0508 Y0.1321 
G01 X-2.0467 Y0.1279 
G01 X-2.0467 Y0.1221 
G01 X-2.0508 Y0.1179 
G01 X-2.0874 Y0.1179 
G01 X-2.0915 Y0.1221 
G00 Z0.0200 
G00 X-1.9546 Y0.1433 
G01 Z-0.0100 F10.00 
G01 X-1.9546 Y0.1374 
G01 X-1.9588 Y0.1333 
G01 X-1.9646 Y0.1333 
G01 X-1.9723 Y0.1409 
G01 X-1.9818 Y0.1409 
G01 X-1.9853 Y0.1374 
G01 X-1.9853 Y0.1356 
G01 X-1.9818 Y0.1321 
G01 X-1.9723 Y0.1321 
G01 X-1.9664 Y0.1321 
G01 X-1.9588 Y0.1244 
G01 X-1.9546 Y0.1203 
G01 X-1.9546 Y0.1126 
G01 X-1.9546 Y0.1067 
G01 X-1.9567 Y0.1047 
G01 X-1.9572 Y0.1041 
G01 X-1.9588 Y0.1026 
G01 X-1.9588 Y0.1026 
G01 X-1.9663 Y0.0950 
G01 X-1.9664 Y0.0949 
G01 X-1.9876 Y0.0949 
G01 X-1.9918 Y0.0991 
G01 X-1.9918 Y0.0991 
G01 X-1.9995 Y0.1067 
G01 X-1.9995 Y0.1126 
G01 X-1.9953 Y0.1168 
G01 X-1.9894 Y0.1168 
G01 X-1.9818 Y0.1091 
G01 X-1.9723 Y0.1091 
G01 X-1.9688 Y0.1126 
G01 X-1.9688 Y0.1144 
G01 X-1.9723 Y0.1179 
G01 X-1.9876 Y0.1179 
G01 X-1.9885 Y0.1187 
G01 X-1.9897 Y0.1200 
G01 X-1.9899 Y0.1202 
G01 X-1.9918 Y0.1221 
G01 X-1.9918 Y0.1221 
G01 X-1.9995 Y0.1298 
G01 X-1.9995 Y0.1356 
G01 X-1.9995 Y0.1433 
G01 X-1.9993 Y0.1434 
G01 X-1.9918 Y0.1510 
G01 X-1.9918 Y0.1510 
G01 X-1.9902 Y0.1526 
G01 X-1.9897 Y0.1530 
G01 X-1.9876 Y0.1551 
G01 X-1.9818 Y0.1551 
G01 X-1.9664 Y0.1551 
G01 X-1.9623 Y0.1510 
G01 X-1.9546 Y0.1433 
G00 Z0.0200 
G00 X-1.9534 Y0.0837 
G01 Z-0.0100 F10.00 
G01 X-1.9534 Y0.0991 
G01 X-1.9534 Y0.1049 
G01 X-1.9534 Y0.1298 
G01 X-1.9534 Y0.1356 
G01 X-1.9493 Y0.1398 
G01 X-1.9263 Y0.1398 
G01 X-1.9204 Y0.1398 
G01 X-1.9127 Y0.1321 
G01 X-1.9086 Y0.1279 
G01 X-1.9086 Y0.1126 
G01 X-1.9086 Y0.1067 
G01 X-1.9106 Y0.1047 
G01 X-1.9109 Y0.1044 
G01 X-1.9127 Y0.1026 
G01 X-1.9127 Y0.1026 
G01 X-1.9203 Y0.0950 
G01 X-1.9204 Y0.0949 
G01 X-1.9393 Y0.0949 
G01 X-1.9393 Y0.0837 
G01 X-1.9434 Y0.0796 
G01 X-1.9493 Y0.0796 
G01 X-1.9534 Y0.0837 
G00 Z0.0200 
G00 X-1.8614 Y0.0991 
G01 Z-0.0100 F10.00 
G01 X-1.8614 Y0.1298 
G01 X-1.8614 Y0.1356 
G01 X-1.8572 Y0.1398 
G01 X-1.8342 Y0.1398 
G01 X-1.8283 Y0.1398 
G01 X-1.8206 Y0.1321 
G01 X-1.8165 Y0.1279 
G01 X-1.8165 Y0.0991 
G01 X-1.8206 Y0.0949 
G01 X-1.8265 Y0.0949 
G01 X-1.8307 Y0.0991 
G01 X-1.8307 Y0.1221 
G01 X-1.8342 Y0.1256 
G01 X-1.8472 Y0.1256 
G01 X-1.8472 Y0.0991 
G01 X-1.8513 Y0.0949 
G01 X-1.8572 Y0.0949 
G01 X-1.8614 Y0.0991 
G00 Z0.0200 
G00 X-1.7233 Y0.0991 
G01 Z-0.0100 F10.00 
G01 X-1.7233 Y0.1144 
G01 X-1.7233 Y0.1203 
G01 X-1.7233 Y0.1356 
G01 X-1.7191 Y0.1398 
G01 X-1.7132 Y0.1398 
G01 X-1.7091 Y0.1356 
G01 X-1.7091 Y0.1345 
G01 X-1.7079 Y0.1356 
G01 X-1.7063 Y0.1373 
G01 X-1.7058 Y0.1377 
G01 X-1.7045 Y0.1390 
G01 X-1.7038 Y0.1398 
G01 X-1.6902 Y0.1398 
G01 X-1.6861 Y0.1356 
G01 X-1.6861 Y0.1298 
G01 X-1.6902 Y0.1256 
G01 X-1.6979 Y0.1256 
G01 X-1.7091 Y0.1144 
G01 X-1.7091 Y0.0991 
G01 X-1.7132 Y0.0949 
G01 X-1.7191 Y0.0949 
G01 X-1.7233 Y0.0991 
G00 Z0.0200 
G00 X-1.6389 Y0.0991 
G01 Z-0.0100 F10.00 
G01 X-1.6389 Y0.1510 
G01 X-1.6347 Y0.1551 
G01 X-1.6288 Y0.1551 
G01 X-1.6117 Y0.1551 
G01 X-1.6058 Y0.1551 
G01 X-1.5981 Y0.1475 
G01 X-1.5981 Y0.1475 
G01 X-1.5940 Y0.1433 
G01 X-1.5940 Y0.1279 
G01 X-1.5940 Y0.1221 
G01 X-1.6017 Y0.1144 
G01 X-1.6026 Y0.1135 
G01 X-1.5961 Y0.1070 
G01 X-1.5940 Y0.1049 
G01 X-1.5940 Y0.0991 
G01 X-1.5981 Y0.0949 
G01 X-1.6040 Y0.0949 
G01 X-1.6194 Y0.1102 
G01 X-1.6247 Y0.1102 
G01 X-1.6247 Y0.0991 
G01 X-1.6288 Y0.0949 
G01 X-1.6347 Y0.0949 
G01 X-1.6389 Y0.0991 
G00 Z0.0200 
G00 X-1.5928 Y0.1356 
G01 Z-0.0100 F10.00 
G01 X-1.5887 Y0.1398 
G01 X-1.5828 Y0.1398 
G01 X-1.5786 Y0.1356 
G01 X-1.5786 Y0.1126 
G01 X-1.5751 Y0.1091 
G01 X-1.5621 Y0.1091 
G01 X-1.5621 Y0.1356 
G01 X-1.5580 Y0.1398 
G01 X-1.5521 Y0.1398 
G01 X-1.5480 Y0.1356 
G01 X-1.5480 Y0.0991 
G01 X-1.5521 Y0.0949 
G01 X-1.5580 Y0.0949 
G01 X-1.5810 Y0.0949 
G01 X-1.5852 Y0.0991 
G01 X-1.5928 Y0.1067 
G01 X-1.5928 Y0.1126 
G01 X-1.5928 Y0.1356 
G00 Z0.0200 
G00 X-1.4087 Y0.1451 
G01 Z-0.0100 F10.00 
G01 X-1.4087 Y0.1510 
G01 X-1.4045 Y0.1551 
G01 X-1.3969 Y0.1551 
G01 X-1.3910 Y0.1551 
G01 X-1.3868 Y0.1510 
G01 X-1.3868 Y0.1091 
G01 X-1.3833 Y0.1091 
G01 X-1.3792 Y0.1049 
G01 X-1.3792 Y0.0991 
G01 X-1.3833 Y0.0949 
G01 X-1.4045 Y0.0949 
G01 X-1.4087 Y0.0991 
G01 X-1.4087 Y0.1049 
G01 X-1.4045 Y0.1091 
G01 X-1.4010 Y0.1091 
G01 X-1.4010 Y0.1409 
G01 X-1.4045 Y0.1409 
G01 X-1.4087 Y0.1451 
G00 Z0.0200 
G00 X-1.3780 Y0.1451 
G01 Z-0.0100 F10.00 
G01 X-1.3780 Y0.1510 
G01 X-1.3738 Y0.1551 
G01 X-1.3603 Y0.1551 
G01 X-1.3561 Y0.1510 
G01 X-1.3561 Y0.1451 
G01 X-1.3561 Y0.1091 
G01 X-1.3526 Y0.1091 
G01 X-1.3485 Y0.1049 
G01 X-1.3485 Y0.0991 
G01 X-1.3526 Y0.0949 
G01 X-1.3738 Y0.0949 
G01 X-1.3780 Y0.0991 
G01 X-1.3780 Y0.1049 
G01 X-1.3738 Y0.1091 
G01 X-1.3703 Y0.1091 
G01 X-1.3703 Y0.1409 
G01 X-1.3738 Y0.1409 
G01 X-1.3780 Y0.1451 
G00 Z0.0200 
G00 X-1.2606 Y0.1091 
G01 Z-0.0100 F10.00 
G01 X-1.2564 Y0.1049 
G01 X-1.2564 Y0.0991 
G01 X-1.2606 Y0.0949 
G01 X-1.2912 Y0.0949 
G01 X-1.2971 Y0.0949 
G01 X-1.3013 Y0.0991 
G01 X-1.3013 Y0.1049 
G01 X-1.2706 Y0.1356 
G01 X-1.2706 Y0.1374 
G01 X-1.2741 Y0.1409 
G01 X-1.2836 Y0.1409 
G01 X-1.2892 Y0.1353 
G01 X-1.2912 Y0.1333 
G01 X-1.2971 Y0.1333 
G01 X-1.3013 Y0.1374 
G01 X-1.3013 Y0.1433 
G01 X-1.2936 Y0.1510 
G01 X-1.2936 Y0.1510 
G01 X-1.2918 Y0.1528 
G01 X-1.2915 Y0.1530 
G01 X-1.2894 Y0.1551 
G01 X-1.2836 Y0.1551 
G01 X-1.2682 Y0.1551 
G01 X-1.2641 Y0.1510 
G01 X-1.2564 Y0.1433 
G01 X-1.2564 Y0.1374 
G01 X-1.2564 Y0.1298 
G01 X-1.2606 Y0.1256 
G01 X-1.2771 Y0.1091 
G01 X-1.2606 Y0.1091 
G00 Z0.0200 
G00 X-1.5433 Y1.5017 
G01 Z-0.0100 F10.00 
G01 X-1.5374 Y1.5017 
G01 X-1.5333 Y1.4975 
G01 X-1.5333 Y1.4916 
G01 X-1.5409 Y1.4840 
G01 X-1.5409 Y1.4745 
G01 X-1.5374 Y1.4710 
G01 X-1.5126 Y1.4710 
G01 X-1.5091 Y1.4745 
G01 X-1.5091 Y1.4840 
G01 X-1.5126 Y1.4875 
G01 X-1.5179 Y1.4875 
G01 X-1.5179 Y1.4763 
G01 X-1.5221 Y1.4721 
G01 X-1.5279 Y1.4721 
G01 X-1.5321 Y1.4763 
G01 X-1.5321 Y1.4975 
G01 X-1.5279 Y1.5017 
G01 X-1.5221 Y1.5017 
G01 X-1.5067 Y1.5017 
G01 X-1.5026 Y1.4975 
G01 X-1.5026 Y1.4975 
G01 X-1.4991 Y1.4940 
G01 X-1.4949 Y1.4898 
G01 X-1.4949 Y1.4686 
G01 X-1.4991 Y1.4645 
G01 X-1.5067 Y1.4568 
G01 X-1.5126 Y1.4568 
G01 X-1.5433 Y1.4568 
G01 X-1.5434 Y1.4569 
G01 X-1.5510 Y1.4645 
G01 X-1.5510 Y1.4645 
G01 X-1.5525 Y1.4660 
G01 X-1.5530 Y1.4665 
G01 X-1.5551 Y1.4686 
G01 X-1.5551 Y1.4745 
G01 X-1.5551 Y1.4898 
G01 X-1.5510 Y1.4940 
G01 X-1.5433 Y1.5017 
G00 Z0.0200 
G00 X-1.5510 Y1.5170 
G01 Z-0.0100 F10.00 
G01 X-1.5502 Y1.5170 
G01 X-1.5254 Y1.5335 
G01 X-1.5510 Y1.5335 
G01 X-1.5551 Y1.5377 
G01 X-1.5551 Y1.5435 
G01 X-1.5510 Y1.5477 
G01 X-1.4991 Y1.5477 
G01 X-1.4949 Y1.5435 
G01 X-1.4949 Y1.5377 
G01 X-1.4991 Y1.5335 
G01 X-1.4999 Y1.5335 
G01 X-1.5246 Y1.5170 
G01 X-1.4991 Y1.5170 
G01 X-1.4949 Y1.5129 
G01 X-1.4949 Y1.5070 
G01 X-1.4991 Y1.5028 
G01 X-1.5459 Y1.5028 
G01 X-1.5510 Y1.5028 
G01 X-1.5551 Y1.5070 
G01 X-1.5551 Y1.5129 
G01 X-1.5526 Y1.5154 
G01 X-1.5525 Y1.5154 
G01 X-1.5510 Y1.5170 
G00 Z0.0200 
G00 X-1.5433 Y1.5937 
G01 Z-0.0100 F10.00 
G01 X-1.5374 Y1.5937 
G01 X-1.5067 Y1.5937 
G01 X-1.5026 Y1.5896 
G01 X-1.5026 Y1.5896 
G01 X-1.4949 Y1.5819 
G01 X-1.4949 Y1.5760 
G01 X-1.4949 Y1.5530 
G01 X-1.4991 Y1.5489 
G01 X-1.5049 Y1.5489 
G01 X-1.5451 Y1.5489 
G01 X-1.5510 Y1.5489 
G01 X-1.5551 Y1.5530 
G01 X-1.5551 Y1.5819 
G01 X-1.5510 Y1.5861 
G01 X-1.5433 Y1.5937 
G00 Z0.0200 
G00 X-2.0856 Y1.4798 
G01 Z-0.0100 F10.00 
G01 X-2.0856 Y1.4798 
G01 X-2.0873 Y1.4815 
G01 X-2.0877 Y1.4819 
G01 X-2.0898 Y1.4840 
G01 X-2.0898 Y1.4898 
G01 X-2.0898 Y1.5052 
G01 X-2.0856 Y1.5093 
G01 X-2.0779 Y1.5170 
G01 X-2.0721 Y1.5170 
G01 X-2.0567 Y1.5170 
G01 X-2.0553 Y1.5156 
G01 X-2.0547 Y1.5149 
G01 X-2.0546 Y1.5149 
G01 X-2.0526 Y1.5129 
G01 X-2.0526 Y1.5128 
G01 X-2.0449 Y1.5052 
G01 X-2.0449 Y1.4993 
G01 X-2.0449 Y1.4898 
G01 X-2.0449 Y1.4840 
G01 X-2.0567 Y1.4721 
G01 X-2.0626 Y1.4721 
G01 X-2.0779 Y1.4721 
G01 X-2.0781 Y1.4723 
G01 X-2.0856 Y1.4798 
G00 Z0.0200 
G00 X-2.0975 Y1.5760 
G01 Z-0.0100 F10.00 
G01 X-2.0975 Y1.5819 
G01 X-2.0933 Y1.5861 
G01 X-2.0898 Y1.5861 
G01 X-2.0898 Y1.5896 
G01 X-2.0856 Y1.5937 
G01 X-2.0798 Y1.5937 
G01 X-2.0756 Y1.5896 
G01 X-2.0756 Y1.5861 
G01 X-2.0626 Y1.5861 
G01 X-2.0570 Y1.5917 
G01 X-2.0549 Y1.5937 
G01 X-2.0491 Y1.5937 
G01 X-2.0449 Y1.5896 
G01 X-2.0449 Y1.5837 
G01 X-2.0526 Y1.5760 
G01 X-2.0526 Y1.5760 
G01 X-2.0542 Y1.5744 
G01 X-2.0547 Y1.5740 
G01 X-2.0567 Y1.5719 
G01 X-2.0626 Y1.5719 
G01 X-2.0756 Y1.5719 
G01 X-2.0756 Y1.5684 
G01 X-2.0798 Y1.5642 
G01 X-2.0856 Y1.5642 
G01 X-2.0898 Y1.5684 
G01 X-2.0898 Y1.5719 
G01 X-2.0933 Y1.5719 
G01 X-2.0975 Y1.5760 
G00 Z0.0200 
G00 X-1.8051 Y0.3991 
G01 Z-0.0100 F10.00 
G01 X-1.8051 Y0.4221 
G01 X-1.8051 Y0.4279 
G01 X-1.8051 Y0.4298 
G01 X-1.8051 Y0.4356 
G01 X-1.7897 Y0.4510 
G01 X-1.7881 Y0.4526 
G01 X-1.7877 Y0.4530 
G01 X-1.7864 Y0.4544 
G01 X-1.7856 Y0.4551 
G01 X-1.7797 Y0.4551 
G01 X-1.7644 Y0.4398 
G01 X-1.7602 Y0.4356 
G01 X-1.7602 Y0.4279 
G01 X-1.7602 Y0.4221 
G01 X-1.7602 Y0.3991 
G01 X-1.7644 Y0.3949 
G01 X-1.7702 Y0.3949 
G01 X-1.7744 Y0.3991 
G01 X-1.7744 Y0.4179 
G01 X-1.7909 Y0.4179 
G01 X-1.7909 Y0.3991 
G01 X-1.7951 Y0.3949 
G01 X-1.8009 Y0.3949 
G01 X-1.8051 Y0.3991 
G00 Z0.0200 
G00 X-1.7591 Y0.4356 
G01 Z-0.0100 F10.00 
G01 X-1.7549 Y0.4398 
G01 X-1.7490 Y0.4398 
G01 X-1.7449 Y0.4356 
G01 X-1.7449 Y0.4126 
G01 X-1.7414 Y0.4091 
G01 X-1.7284 Y0.4091 
G01 X-1.7284 Y0.4356 
G01 X-1.7242 Y0.4398 
G01 X-1.7183 Y0.4398 
G01 X-1.7142 Y0.4356 
G01 X-1.7142 Y0.3991 
G01 X-1.7183 Y0.3949 
G01 X-1.7242 Y0.3949 
G01 X-1.7472 Y0.3949 
G01 X-1.7514 Y0.3991 
G01 X-1.7514 Y0.3991 
G01 X-1.7591 Y0.4067 
G01 X-1.7591 Y0.4126 
G01 X-1.7591 Y0.4356 
G00 Z0.0200 
G00 X-1.6670 Y0.4298 
G01 Z-0.0100 F10.00 
G01 X-1.6670 Y0.4356 
G01 X-1.6628 Y0.4398 
G01 X-1.6552 Y0.4398 
G01 X-1.6493 Y0.4398 
G01 X-1.6451 Y0.4356 
G01 X-1.6451 Y0.4091 
G01 X-1.6416 Y0.4091 
G01 X-1.6375 Y0.4049 
G01 X-1.6375 Y0.3991 
G01 X-1.6416 Y0.3949 
G01 X-1.6628 Y0.3949 
G01 X-1.6670 Y0.3991 
G01 X-1.6670 Y0.4049 
G01 X-1.6628 Y0.4091 
G01 X-1.6593 Y0.4091 
G01 X-1.6593 Y0.4256 
G01 X-1.6628 Y0.4256 
G01 X-1.6670 Y0.4298 
G00 Z0.0200 
G00 X-1.6593 Y0.4451 
G01 Z-0.0100 F10.00 
G01 X-1.6593 Y0.4586 
G01 X-1.6552 Y0.4628 
G01 X-1.6493 Y0.4628 
G01 X-1.6451 Y0.4586 
G01 X-1.6451 Y0.4451 
G01 X-1.6493 Y0.4409 
G01 X-1.6552 Y0.4409 
G01 X-1.6593 Y0.4451 
G00 Z0.0200 
G00 X-1.6363 Y0.4279 
G01 Z-0.0100 F10.00 
G01 X-1.6362 Y0.4281 
G01 X-1.6286 Y0.4356 
G01 X-1.6286 Y0.4356 
G01 X-1.6269 Y0.4373 
G01 X-1.6265 Y0.4377 
G01 X-1.6245 Y0.4398 
G01 X-1.6186 Y0.4398 
G01 X-1.6033 Y0.4398 
G01 X-1.5991 Y0.4356 
G01 X-1.5914 Y0.4279 
G01 X-1.5914 Y0.4221 
G01 X-1.5914 Y0.4067 
G01 X-1.5930 Y0.4052 
G01 X-1.5935 Y0.4047 
G01 X-1.5935 Y0.4046 
G01 X-1.5956 Y0.4026 
G01 X-1.5956 Y0.4026 
G01 X-1.6033 Y0.3949 
G01 X-1.6091 Y0.3949 
G01 X-1.6186 Y0.3949 
G01 X-1.6245 Y0.3949 
G01 X-1.6363 Y0.4067 
G01 X-1.6363 Y0.4126 
G01 X-1.6363 Y0.4279 
G00 Z0.0200 
G00 X-2.1638 Y0.1968 
G01 Z-0.0100 F10.00 
G01 X-2.1629 Y0.2021 
G01 X-2.1617 Y0.2117 
G01 X-2.1611 Y0.2310 
G01 X-2.1633 Y0.2502 
G01 X-2.1681 Y0.2688 
G01 X-2.1755 Y0.2867 
G01 X-2.1852 Y0.3033 
G01 X-2.1971 Y0.3185 
G01 X-2.2111 Y0.3318 
G01 X-2.2267 Y0.3431 
G01 X-2.2438 Y0.3521 
G01 X-2.2619 Y0.3586 
G01 X-2.2808 Y0.3626 
G01 X-2.3000 Y0.3640 
G01 X-2.3192 Y0.3626 
G01 X-2.3381 Y0.3586 
G01 X-2.3562 Y0.3521 
G01 X-2.3733 Y0.3431 
G01 X-2.3889 Y0.3318 
G01 X-2.4029 Y0.3185 
G01 X-2.4148 Y0.3033 
G01 X-2.4245 Y0.2867 
G01 X-2.4319 Y0.2688 
G01 X-2.4367 Y0.2502 
G01 X-2.4388 Y0.2310 
G01 X-2.4383 Y0.2117 
G01 X-2.4371 Y0.2022 
G01 X-2.4362 Y0.1968 
G01 X-2.4425 Y0.1880 
G01 X-2.4532 Y0.1862 
G01 X-2.4620 Y0.1925 
G01 X-2.4629 Y0.1978 
G01 X-2.4648 Y0.2092 
G01 X-2.4648 Y0.2092 
G01 X-2.4654 Y0.2321 
G01 X-2.4654 Y0.2321 
G01 X-2.4628 Y0.2550 
G01 X-2.4628 Y0.2550 
G01 X-2.4571 Y0.2772 
G01 X-2.4571 Y0.2772 
G01 X-2.4484 Y0.2985 
G01 X-2.4484 Y0.2985 
G01 X-2.4368 Y0.3183 
G01 X-2.4368 Y0.3183 
G01 X-2.4225 Y0.3363 
G01 X-2.4225 Y0.3363 
G01 X-2.4225 Y0.3363 
G01 X-2.4059 Y0.3522 
G01 X-2.4059 Y0.3522 
G01 X-2.3873 Y0.3657 
G01 X-2.3873 Y0.3657 
G01 X-2.3670 Y0.3764 
G01 X-2.3670 Y0.3764 
G01 X-2.3454 Y0.3842 
G01 X-2.3454 Y0.3842 
G01 X-2.3229 Y0.3890 
G01 X-2.3229 Y0.3890 
G01 X-2.3000 Y0.3906 
G01 X-2.3000 Y0.3906 
G01 X-2.2771 Y0.3890 
G01 X-2.2771 Y0.3890 
G01 X-2.2546 Y0.3842 
G01 X-2.2546 Y0.3842 
G01 X-2.2330 Y0.3764 
G01 X-2.2330 Y0.3764 
G01 X-2.2127 Y0.3657 
G01 X-2.2127 Y0.3657 
G01 X-2.1941 Y0.3522 
G01 X-2.1941 Y0.3522 
G01 X-2.1775 Y0.3363 
G01 X-2.1775 Y0.3363 
G01 X-2.1632 Y0.3183 
G01 X-2.1632 Y0.3183 
G01 X-2.1516 Y0.2985 
G01 X-2.1516 Y0.2985 
G01 X-2.1429 Y0.2772 
G01 X-2.1429 Y0.2772 
G01 X-2.1372 Y0.2550 
G01 X-2.1372 Y0.2550 
G01 X-2.1346 Y0.2321 
G01 X-2.1346 Y0.2321 
G01 X-2.1352 Y0.2092 
G01 X-2.1352 Y0.2092 
G01 X-2.1371 Y0.1978 
G01 X-2.1380 Y0.1925 
G01 X-2.1468 Y0.1862 
G01 X-2.1575 Y0.1880 
G01 X-2.1638 Y0.1968 
G00 Z0.0200 
G00 X-2.4242 Y0.4372 
G01 Z-0.0100 F10.00 
G01 X-2.4242 Y0.4372 
G01 X-2.4014 Y0.4504 
G01 X-2.4014 Y0.4504 
G01 X-2.3773 Y0.4609 
G01 X-2.3773 Y0.4609 
G01 X-2.3521 Y0.4685 
G01 X-2.3521 Y0.4685 
G01 X-2.3263 Y0.4731 
G01 X-2.3263 Y0.4731 
G01 X-2.3000 Y0.4746 
G01 X-2.3000 Y0.4746 
G01 X-2.2737 Y0.4731 
G01 X-2.2737 Y0.4731 
G01 X-2.2479 Y0.4685 
G01 X-2.2478 Y0.4685 
G01 X-2.2227 Y0.4609 
G01 X-2.2227 Y0.4609 
G01 X-2.1986 Y0.4504 
G01 X-2.1985 Y0.4504 
G01 X-2.1758 Y0.4372 
G01 X-2.1758 Y0.4372 
G01 X-2.1611 Y0.4261 
G01 X-2.2249 Y0.4899 
G01 X-2.3751 Y0.4899 
G01 X-2.4389 Y0.4261 
G01 X-2.4242 Y0.4372 
G00 Z0.0200 
G00 X-1.7536 Y1.2853 
G01 Z-0.0100 F10.00 
G01 X-1.7423 Y1.2899 
G01 X-1.7649 Y1.2899 
G01 X-1.7649 Y1.2739 
G01 X-1.7536 Y1.2853 
G00 Z0.0200 
G00 X-1.8511 Y1.2899 
G01 Z-0.0100 F10.00 
G01 X-1.8351 Y1.2739 
G01 X-1.8351 Y1.2899 
G01 X-1.8511 Y1.2899 
G00 Z0.0200 
G00 X-0.2601 Y0.3276 
G01 Z-0.0100 F10.00 
G01 X-0.2776 Y0.3101 
G01 X-0.2601 Y0.3101 
G01 X-0.2601 Y0.3276 
G00 Z0.0200 
G00 X-0.2875 Y0.4029 
G01 Z-0.0100 F10.00 
G01 X-0.2601 Y0.3755 
G01 X-0.2601 Y0.5245 
G01 X-0.2875 Y0.4971 
G01 X-0.3319 Y0.4971 
G01 X-0.3319 Y0.4029 
G01 X-0.2875 Y0.4029 
G00 Z0.0200 
G00 X-0.5850 Y0.3139 
G01 Z-0.0100 F10.00 
G01 X-0.6149 Y0.3139 
G01 X-0.6329 Y0.3319 
G01 X-0.6614 Y0.3319 
G01 X-0.6832 Y0.3101 
G01 X-0.4224 Y0.3101 
G01 X-0.4426 Y0.3303 
G01 X-0.4426 Y0.3319 
G01 X-0.5670 Y0.3319 
G01 X-0.5850 Y0.3139 
G00 Z0.0200 
G00 X-1.5141 Y1.5680 
G01 Z-0.0100 F10.00 
G01 X-1.5141 Y1.5740 
G01 X-1.5147 Y1.5746 
G01 X-1.5354 Y1.5746 
G01 X-1.5359 Y1.5740 
G01 X-1.5359 Y1.5680 
G01 X-1.5141 Y1.5680 
G00 Z0.0200 
G00 X-1.3759 Y0.1359 
G01 Z-0.0100 F10.00 
G01 X-1.3818 Y0.1419 
G01 X-1.3818 Y0.1141 
G01 X-1.3812 Y0.1141 
G01 X-1.3786 Y0.1114 
G01 X-1.3759 Y0.1141 
G01 X-1.3753 Y0.1141 
G01 X-1.3753 Y0.1359 
G01 X-1.3759 Y0.1359 
G00 Z0.0200 
G00 X-2.3651 Y0.1354 
G01 Z-0.0100 F10.00 
G01 X-2.3657 Y0.1359 
G01 X-2.3716 Y0.1359 
G01 X-2.3716 Y0.1294 
G01 X-2.3657 Y0.1294 
G01 X-2.3651 Y0.1300 
G01 X-2.3651 Y0.1354 
G00 Z0.0200 
G00 X-2.7564 Y0.1277 
G01 Z-0.0100 F10.00 
G01 X-2.7564 Y0.1342 
G01 X-2.7623 Y0.1283 
G01 X-2.7723 Y0.1283 
G01 X-2.7800 Y0.1359 
G01 X-2.7853 Y0.1359 
G01 X-2.7859 Y0.1354 
G01 X-2.7859 Y0.1147 
G01 X-2.7853 Y0.1141 
G01 X-2.7800 Y0.1141 
G01 X-2.7723 Y0.1218 
G01 X-2.7623 Y0.1218 
G01 X-2.7596 Y0.1191 
G01 X-2.7586 Y0.1201 
G01 X-2.7564 Y0.1223 
G01 X-2.7564 Y0.1224 
G01 X-2.7537 Y0.1250 
G01 X-2.7564 Y0.1277 
G00 Z0.0200 
G00 X-2.6873 Y0.1200 
G01 Z-0.0100 F10.00 
G01 X-2.6879 Y0.1206 
G01 X-2.6938 Y0.1206 
G01 X-2.6938 Y0.1141 
G01 X-2.6879 Y0.1141 
G01 X-2.6873 Y0.1147 
G01 X-2.6873 Y0.1200 
G00 Z0.0200 
G00 X-0.3066 Y1.3854 
G01 Z-0.0100 F10.00 
G01 X-0.3072 Y1.3859 
G01 X-0.3131 Y1.3859 
G01 X-0.3131 Y1.3794 
G01 X-0.3072 Y1.3794 
G01 X-0.3066 Y1.3800 
G01 X-0.3066 Y1.3854 
G00 Z0.0200 
G00 X-0.3438 Y1.4641 
G01 Z-0.0100 F10.00 
G01 X-0.3379 Y1.4641 
G01 X-0.3373 Y1.4647 
G01 X-0.3373 Y1.4854 
G01 X-0.3379 Y1.4859 
G01 X-0.3438 Y1.4859 
G01 X-0.3438 Y1.4641 
G00 Z0.0200 
G00 X-0.4174 Y1.4845 
G01 Z-0.0100 F10.00 
G01 X-0.4141 Y1.4812 
G01 X-0.4141 Y1.4861 
G01 X-0.4174 Y1.4845 
G00 Z0.0200 
G00 X-1.9277 Y0.1200 
G01 Z-0.0100 F10.00 
G01 X-1.9283 Y0.1206 
G01 X-1.9343 Y0.1206 
G01 X-1.9343 Y0.1141 
G01 X-1.9283 Y0.1141 
G01 X-1.9277 Y0.1147 
G01 X-1.9277 Y0.1200 
G00 Z0.0200 
G00 X-1.7956 Y0.1206 
G01 Z-0.0100 F10.00 
G01 X-1.7961 Y0.1200 
G01 X-1.7961 Y0.1147 
G01 X-1.7956 Y0.1141 
G01 X-1.7743 Y0.1141 
G01 X-1.7743 Y0.1206 
G01 X-1.7956 Y0.1206 
G00 Z0.0200 
G00 X-1.6132 Y0.1354 
G01 Z-0.0100 F10.00 
G01 X-1.6138 Y0.1359 
G01 X-1.6197 Y0.1359 
G01 X-1.6197 Y0.1294 
G01 X-1.6138 Y0.1294 
G01 X-1.6132 Y0.1300 
G01 X-1.6132 Y0.1354 
G00 Z0.0200 
G00 X-1.1593 Y0.1359 
G01 Z-0.0100 F10.00 
G01 X-1.1593 Y0.1354 
G01 X-1.1593 Y0.1235 
G01 X-1.1469 Y0.1359 
G01 X-1.1593 Y0.1359 
G00 Z0.0200 
G00 X-1.2650 Y0.1141 
G01 Z-0.0100 F10.00 
G01 X-1.2602 Y0.1141 
G01 X-1.2602 Y0.1147 
G01 X-1.2602 Y0.1147 
G01 X-1.2602 Y0.1188 
G01 X-1.2650 Y0.1141 
G00 Z0.0200 
G00 X-2.0641 Y1.4972 
G01 Z-0.0100 F10.00 
G01 X-2.0647 Y1.4978 
G01 X-2.0700 Y1.4978 
G01 X-2.0706 Y1.4972 
G01 X-2.0706 Y1.4919 
G01 X-2.0700 Y1.4913 
G01 X-2.0647 Y1.4913 
G01 X-2.0641 Y1.4919 
G01 X-2.0641 Y1.4972 
G00 Z0.0200 
G00 X-1.6112 Y0.4141 
G01 Z-0.0100 F10.00 
G01 X-1.6106 Y0.4147 
G01 X-1.6106 Y0.4200 
G01 X-1.6112 Y0.4206 
G01 X-1.6165 Y0.4206 
G01 X-1.6171 Y0.4200 
G01 X-1.6171 Y0.4147 
G01 X-1.6165 Y0.4141 
G01 X-1.6112 Y0.4141 
G00 Z0.0200 
G00 X-1.6938 Y0.4147 
G01 Z-0.0100 F10.00 
G01 X-1.6932 Y0.4141 
G01 X-1.6873 Y0.4141 
G01 X-1.6873 Y0.4206 
G01 X-1.6932 Y0.4206 
G01 X-1.6938 Y0.4200 
G01 X-1.6938 Y0.4147 
G00 Z0.0200 
G00 X-2.2194 Y0.1971 
G01 Z-0.0100 F10.00 
G01 X-2.2176 Y0.2044 
G01 X-2.2162 Y0.2109 
G01 X-2.2150 Y0.2243 
G01 X-2.2160 Y0.2377 
G01 X-2.2190 Y0.2507 
G01 X-2.2241 Y0.2631 
G01 X-2.2310 Y0.2746 
G01 X-2.2397 Y0.2848 
G01 X-2.2498 Y0.2936 
G01 X-2.2612 Y0.3006 
G01 X-2.2736 Y0.3058 
G01 X-2.2866 Y0.3089 
G01 X-2.3000 Y0.3100 
G01 X-2.3134 Y0.3089 
G01 X-2.3264 Y0.3058 
G01 X-2.3388 Y0.3006 
G01 X-2.3502 Y0.2936 
G01 X-2.3603 Y0.2848 
G01 X-2.3690 Y0.2746 
G01 X-2.3759 Y0.2631 
G01 X-2.3810 Y0.2507 
G01 X-2.3840 Y0.2377 
G01 X-2.3850 Y0.2243 
G01 X-2.3838 Y0.2110 
G01 X-2.3824 Y0.2044 
G01 X-2.3806 Y0.1971 
G01 X-2.3883 Y0.1843 
G01 X-2.4029 Y0.1806 
G01 X-2.4157 Y0.1883 
G01 X-2.4176 Y0.1956 
G01 X-2.4199 Y0.2049 
G01 X-2.4199 Y0.2049 
G01 X-2.4215 Y0.2240 
G01 X-2.4215 Y0.2240 
G01 X-2.4202 Y0.2431 
G01 X-2.4202 Y0.2431 
G01 X-2.4158 Y0.2618 
G01 X-2.4158 Y0.2618 
G01 X-2.4086 Y0.2796 
G01 X-2.4086 Y0.2796 
G01 X-2.3987 Y0.2960 
G01 X-2.3987 Y0.2960 
G01 X-2.3863 Y0.3106 
G01 X-2.3863 Y0.3106 
G01 X-2.3863 Y0.3106 
G01 X-2.3718 Y0.3231 
G01 X-2.3718 Y0.3231 
G01 X-2.3554 Y0.3332 
G01 X-2.3554 Y0.3332 
G01 X-2.3377 Y0.3405 
G01 X-2.3377 Y0.3405 
G01 X-2.3191 Y0.3450 
G01 X-2.3191 Y0.3450 
G01 X-2.3000 Y0.3465 
G01 X-2.3000 Y0.3465 
G01 X-2.2809 Y0.3450 
G01 X-2.2809 Y0.3450 
G01 X-2.2623 Y0.3405 
G01 X-2.2622 Y0.3405 
G01 X-2.2446 Y0.3332 
G01 X-2.2446 Y0.3332 
G01 X-2.2282 Y0.3231 
G01 X-2.2282 Y0.3231 
G01 X-2.2137 Y0.3106 
G01 X-2.2137 Y0.3106 
G01 X-2.2013 Y0.2960 
G01 X-2.2013 Y0.2960 
G01 X-2.1914 Y0.2796 
G01 X-2.1842 Y0.2618 
G01 X-2.1798 Y0.2431 
G01 X-2.1785 Y0.2240 
G01 X-2.1801 Y0.2049 
G01 X-2.1824 Y0.1956 
G01 X-2.1843 Y0.1883 
G01 X-2.1971 Y0.1806 
G01 X-2.2117 Y0.1843 
G01 X-2.2194 Y0.1971 
G00 Z0.0200 
G00 X-2.1691 Y0.1956 
G01 Z-0.0100 F10.00 
G01 X-2.1678 Y0.2030 
G01 X-2.1667 Y0.2118 
G01 X-2.1661 Y0.2297 
G01 X-2.1679 Y0.2475 
G01 X-2.1721 Y0.2649 
G01 X-2.1785 Y0.2815 
G01 X-2.1871 Y0.2972 
G01 X-2.1978 Y0.3116 
G01 X-2.2102 Y0.3244 
G01 X-2.2242 Y0.3355 
G01 X-2.2396 Y0.3446 
G01 X-2.2561 Y0.3516 
G01 X-2.2733 Y0.3563 
G01 X-2.2911 Y0.3587 
G01 X-2.3089 Y0.3587 
G01 X-2.3267 Y0.3563 
G01 X-2.3439 Y0.3516 
G01 X-2.3604 Y0.3446 
G01 X-2.3757 Y0.3355 
G01 X-2.3898 Y0.3244 
G01 X-2.4022 Y0.3116 
G01 X-2.4128 Y0.2972 
G01 X-2.4215 Y0.2815 
G01 X-2.4279 Y0.2649 
G01 X-2.4321 Y0.2475 
G01 X-2.4339 Y0.2297 
G01 X-2.4333 Y0.2118 
G01 X-2.4322 Y0.2030 
G01 X-2.4309 Y0.1956 
G01 X-2.4396 Y0.1834 
G01 X-2.4544 Y0.1809 
G01 X-2.4666 Y0.1896 
G01 X-2.4678 Y0.1970 
G01 X-2.4697 Y0.2082 
G01 X-2.4697 Y0.2082 
G01 X-2.4704 Y0.2310 
G01 X-2.4704 Y0.2310 
G01 X-2.4681 Y0.2536 
G01 X-2.4681 Y0.2536 
G01 X-2.4628 Y0.2758 
G01 X-2.4628 Y0.2758 
G01 X-2.4546 Y0.2970 
G01 X-2.4546 Y0.2970 
G01 X-2.4436 Y0.3169 
G01 X-2.4436 Y0.3169 
G01 X-2.4301 Y0.3352 
G01 X-2.4301 Y0.3352 
G01 X-2.4143 Y0.3516 
G01 X-2.4143 Y0.3516 
G01 X-2.3964 Y0.3657 
G01 X-2.3964 Y0.3657 
G01 X-2.3768 Y0.3773 
G01 X-2.3768 Y0.3773 
G01 X-2.3559 Y0.3861 
G01 X-2.3559 Y0.3861 
G01 X-2.3339 Y0.3921 
G01 X-2.3339 Y0.3921 
G01 X-2.3114 Y0.3952 
G01 X-2.3114 Y0.3952 
G01 X-2.2886 Y0.3952 
G01 X-2.2886 Y0.3952 
G01 X-2.2661 Y0.3921 
G01 X-2.2661 Y0.3921 
G01 X-2.2441 Y0.3861 
G01 X-2.2441 Y0.3861 
G01 X-2.2232 Y0.3773 
G01 X-2.2232 Y0.3773 
G01 X-2.2036 Y0.3657 
G01 X-2.2036 Y0.3657 
G01 X-2.1857 Y0.3516 
G01 X-2.1857 Y0.3516 
G01 X-2.1857 Y0.3516 
G01 X-2.1699 Y0.3352 
G01 X-2.1699 Y0.3352 
G01 X-2.1564 Y0.3169 
G01 X-2.1564 Y0.3169 
G01 X-2.1454 Y0.2970 
G01 X-2.1454 Y0.2970 
G01 X-2.1372 Y0.2758 
G01 X-2.1372 Y0.2758 
G01 X-2.1319 Y0.2536 
G01 X-2.1319 Y0.2536 
G01 X-2.1296 Y0.2310 
G01 X-2.1296 Y0.2310 
G01 X-2.1303 Y0.2082 
G01 X-2.1303 Y0.2082 
G01 X-2.1321 Y0.1970 
G01 X-2.1334 Y0.1896 
G01 X-2.1456 Y0.1809 
G01 X-2.1604 Y0.1834 
G01 X-2.1691 Y0.1956 
G00 Z0.0200 
G00 X-1.6873 Y0.4530 
G01 Z-0.0100 F10.00 
G01 X-1.6802 Y0.4601 
G01 X-1.6702 Y0.4601 
G01 X-1.6643 Y0.4542 
G01 X-1.6643 Y0.4607 
G01 X-1.6572 Y0.4678 
G01 X-1.6472 Y0.4678 
G01 X-1.6401 Y0.4607 
G01 X-1.6401 Y0.4430 
G01 X-1.6428 Y0.4404 
G01 X-1.6401 Y0.4377 
G01 X-1.6401 Y0.4312 
G01 X-1.6357 Y0.4356 
G01 X-1.6336 Y0.4377 
G01 X-1.6336 Y0.4377 
G01 X-1.6303 Y0.4410 
G01 X-1.6301 Y0.4412 
G01 X-1.6265 Y0.4448 
G01 X-1.6165 Y0.4448 
G01 X-1.6012 Y0.4448 
G01 X-1.5941 Y0.4377 
G01 X-1.5864 Y0.4300 
G01 X-1.5864 Y0.4200 
G01 X-1.5864 Y0.4047 
G01 X-1.5891 Y0.4020 
G01 X-1.5900 Y0.4011 
G01 X-1.5900 Y0.4011 
G01 X-1.5935 Y0.3976 
G01 X-1.5935 Y0.3976 
G01 X-1.5957 Y0.3954 
G01 X-1.6012 Y0.3899 
G01 X-1.6012 Y0.3899 
G01 X-1.6112 Y0.3899 
G01 X-1.6165 Y0.3899 
G01 X-1.6265 Y0.3899 
G01 X-1.6330 Y0.3964 
G01 X-1.6395 Y0.3899 
G01 X-1.6649 Y0.3899 
G01 X-1.6676 Y0.3926 
G01 X-1.6702 Y0.3899 
G01 X-1.6932 Y0.3899 
G01 X-1.7033 Y0.3899 
G01 X-1.7098 Y0.3964 
G01 X-1.7163 Y0.3899 
G01 X-1.7263 Y0.3899 
G01 X-1.7493 Y0.3899 
G01 X-1.7558 Y0.3964 
G01 X-1.7623 Y0.3899 
G01 X-1.7723 Y0.3899 
G01 X-1.7794 Y0.3970 
G01 X-1.7794 Y0.4129 
G01 X-1.7859 Y0.4129 
G01 X-1.7859 Y0.3970 
G01 X-1.7930 Y0.3899 
G01 X-1.8030 Y0.3899 
G01 X-1.8101 Y0.3970 
G01 X-1.8101 Y0.4200 
G01 X-1.8101 Y0.4300 
G01 X-1.8101 Y0.4377 
G01 X-1.8101 Y0.4377 
G01 X-1.8030 Y0.4448 
G01 X-1.8030 Y0.4448 
G01 X-1.7947 Y0.4530 
G01 X-1.7947 Y0.4530 
G01 X-1.7914 Y0.4564 
G01 X-1.7912 Y0.4566 
G01 X-1.7890 Y0.4588 
G01 X-1.7877 Y0.4601 
G01 X-1.7776 Y0.4601 
G01 X-1.7623 Y0.4448 
G01 X-1.7596 Y0.4421 
G01 X-1.7570 Y0.4448 
G01 X-1.7470 Y0.4448 
G01 X-1.7399 Y0.4377 
G01 X-1.7399 Y0.4147 
G01 X-1.7393 Y0.4141 
G01 X-1.7334 Y0.4141 
G01 X-1.7334 Y0.4377 
G01 X-1.7263 Y0.4448 
G01 X-1.7163 Y0.4448 
G01 X-1.7098 Y0.4383 
G01 X-1.7033 Y0.4448 
G01 X-1.6873 Y0.4448 
G01 X-1.6873 Y0.4530 
G00 Z0.0200 
G00 X-2.1101 Y1.4282 
G01 Z-0.0100 F10.00 
G01 X-2.1101 Y1.4382 
G01 X-2.1030 Y1.4453 
G01 X-2.0724 Y1.4453 
G01 X-2.0691 Y1.4485 
G01 X-2.0723 Y1.4518 
G01 X-2.1030 Y1.4518 
G01 X-2.1101 Y1.4589 
G01 X-2.1101 Y1.4689 
G01 X-2.1030 Y1.4760 
G01 X-2.0889 Y1.4760 
G01 X-2.0910 Y1.4781 
G01 X-2.0912 Y1.4783 
G01 X-2.0948 Y1.4819 
G01 X-2.0948 Y1.4919 
G01 X-2.0948 Y1.5073 
G01 X-2.0883 Y1.5138 
G01 X-2.0948 Y1.5203 
G01 X-2.0948 Y1.5303 
G01 X-2.0877 Y1.5374 
G01 X-2.0647 Y1.5374 
G01 X-2.0641 Y1.5379 
G01 X-2.0641 Y1.5439 
G01 X-2.0877 Y1.5439 
G01 X-2.0948 Y1.5509 
G01 X-2.0948 Y1.5610 
G01 X-2.0921 Y1.5636 
G01 X-2.0948 Y1.5663 
G01 X-2.0948 Y1.5669 
G01 X-2.0954 Y1.5669 
G01 X-2.1025 Y1.5740 
G01 X-2.1025 Y1.5840 
G01 X-2.0954 Y1.5911 
G01 X-2.0948 Y1.5911 
G01 X-2.0948 Y1.5916 
G01 X-2.0877 Y1.5987 
G01 X-2.0777 Y1.5987 
G01 X-2.0706 Y1.5916 
G01 X-2.0706 Y1.5911 
G01 X-2.0647 Y1.5911 
G01 X-2.0605 Y1.5952 
G01 X-2.0570 Y1.5987 
G01 X-2.0470 Y1.5987 
G01 X-2.0399 Y1.5916 
G01 X-2.0399 Y1.5816 
G01 X-2.0476 Y1.5740 
G01 X-2.0476 Y1.5740 
G01 X-2.0508 Y1.5707 
G01 X-2.0511 Y1.5704 
G01 X-2.0535 Y1.5680 
G01 X-2.0470 Y1.5680 
G01 X-2.0399 Y1.5610 
G01 X-2.0399 Y1.5509 
G01 X-2.0399 Y1.5279 
G01 X-2.0470 Y1.5208 
G01 X-2.0502 Y1.5176 
G01 X-2.0476 Y1.5149 
G01 X-2.0476 Y1.5149 
G01 X-2.0454 Y1.5127 
G01 X-2.0399 Y1.5073 
G01 X-2.0399 Y1.5072 
G01 X-2.0399 Y1.4972 
G01 X-2.0399 Y1.4919 
G01 X-2.0399 Y1.4819 
G01 X-2.0541 Y1.4677 
G01 X-2.0470 Y1.4606 
G01 X-2.0470 Y1.4606 
G01 X-2.0399 Y1.4535 
G01 X-2.0399 Y1.4535 
G01 X-2.0399 Y1.4435 
G01 X-2.0470 Y1.4364 
G01 X-2.0623 Y1.4211 
G01 X-2.0724 Y1.4211 
G01 X-2.1030 Y1.4211 
G01 X-2.1101 Y1.4282 
G00 Z0.0200 
G00 X-1.2585 Y0.0899 
G01 Z-0.0100 F10.00 
G01 X-1.2892 Y0.0899 
G01 X-1.2992 Y0.0899 
G01 X-1.3063 Y0.0970 
G01 X-1.3063 Y0.1070 
G01 X-1.2773 Y0.1359 
G01 X-1.2815 Y0.1359 
G01 X-1.2856 Y0.1318 
G01 X-1.2892 Y0.1283 
G01 X-1.2992 Y0.1283 
G01 X-1.3063 Y0.1354 
G01 X-1.3063 Y0.1454 
G01 X-1.2986 Y0.1530 
G01 X-1.2986 Y0.1530 
G01 X-1.2952 Y0.1564 
G01 X-1.2951 Y0.1566 
G01 X-1.2915 Y0.1601 
G01 X-1.2815 Y0.1601 
G01 X-1.2662 Y0.1601 
G01 X-1.2591 Y0.1530 
G01 X-1.2558 Y0.1498 
G01 X-1.2547 Y0.1509 
G01 X-1.2526 Y0.1530 
G01 X-1.2526 Y0.1530 
G01 X-1.2455 Y0.1601 
G01 X-1.2301 Y0.1601 
G01 X-1.2201 Y0.1601 
G01 X-1.2124 Y0.1525 
G01 X-1.2124 Y0.1525 
G01 X-1.2098 Y0.1498 
G01 X-1.2087 Y0.1508 
G01 X-1.2065 Y0.1530 
G01 X-1.2065 Y0.1530 
G01 X-1.2030 Y0.1565 
G01 X-1.2030 Y0.1566 
G01 X-1.2017 Y0.1579 
G01 X-1.1994 Y0.1601 
G01 X-1.1841 Y0.1601 
G01 X-1.1741 Y0.1601 
G01 X-1.1676 Y0.1536 
G01 X-1.1611 Y0.1601 
G01 X-1.1304 Y0.1601 
G01 X-1.1204 Y0.1601 
G01 X-1.1133 Y0.1530 
G01 X-1.1133 Y0.1454 
G01 X-1.1133 Y0.1354 
G01 X-1.1133 Y0.1354 
G01 X-1.1204 Y0.1283 
G01 X-1.1204 Y0.1283 
G01 X-1.1440 Y0.1047 
G01 X-1.1440 Y0.0970 
G01 X-1.1511 Y0.0899 
G01 X-1.1611 Y0.0899 
G01 X-1.1676 Y0.0964 
G01 X-1.1685 Y0.0955 
G01 X-1.1741 Y0.0899 
G01 X-1.1894 Y0.0899 
G01 X-1.1994 Y0.0899 
G01 X-1.2071 Y0.0976 
G01 X-1.2098 Y0.1002 
G01 X-1.2124 Y0.0976 
G01 X-1.2124 Y0.0976 
G01 X-1.2145 Y0.0955 
G01 X-1.2201 Y0.0899 
G01 X-1.2355 Y0.0899 
G01 X-1.2455 Y0.0899 
G01 X-1.2520 Y0.0964 
G01 X-1.2585 Y0.0899 
G00 Z0.0200 
G00 X-1.9496 Y0.1454 
G01 Z-0.0100 F10.00 
G01 X-1.9496 Y0.1448 
G01 X-1.9283 Y0.1448 
G01 X-1.9183 Y0.1448 
G01 X-1.9106 Y0.1371 
G01 X-1.9080 Y0.1344 
G01 X-1.9069 Y0.1355 
G01 X-1.9047 Y0.1377 
G01 X-1.9047 Y0.1377 
G01 X-1.8976 Y0.1448 
G01 X-1.8823 Y0.1448 
G01 X-1.8723 Y0.1448 
G01 X-1.8658 Y0.1383 
G01 X-1.8593 Y0.1448 
G01 X-1.8363 Y0.1448 
G01 X-1.8262 Y0.1448 
G01 X-1.8186 Y0.1371 
G01 X-1.8159 Y0.1344 
G01 X-1.8147 Y0.1356 
G01 X-1.8127 Y0.1377 
G01 X-1.8127 Y0.1377 
G01 X-1.8093 Y0.1410 
G01 X-1.8091 Y0.1412 
G01 X-1.8056 Y0.1448 
G01 X-1.7956 Y0.1448 
G01 X-1.7725 Y0.1448 
G01 X-1.7660 Y0.1383 
G01 X-1.7632 Y0.1411 
G01 X-1.7631 Y0.1412 
G01 X-1.7611 Y0.1432 
G01 X-1.7595 Y0.1448 
G01 X-1.7442 Y0.1448 
G01 X-1.7342 Y0.1448 
G01 X-1.7277 Y0.1383 
G01 X-1.7212 Y0.1448 
G01 X-1.7112 Y0.1448 
G01 X-1.7085 Y0.1421 
G01 X-1.7071 Y0.1435 
G01 X-1.7058 Y0.1448 
G01 X-1.6881 Y0.1448 
G01 X-1.6811 Y0.1377 
G01 X-1.6811 Y0.1277 
G01 X-1.6881 Y0.1206 
G01 X-1.6958 Y0.1206 
G01 X-1.7041 Y0.1123 
G01 X-1.7041 Y0.0970 
G01 X-1.7112 Y0.0899 
G01 X-1.7212 Y0.0899 
G01 X-1.7277 Y0.0964 
G01 X-1.7342 Y0.0899 
G01 X-1.7495 Y0.0899 
G01 X-1.7595 Y0.0899 
G01 X-1.7660 Y0.0964 
G01 X-1.7725 Y0.0899 
G01 X-1.8056 Y0.0899 
G01 X-1.8121 Y0.0964 
G01 X-1.8186 Y0.0899 
G01 X-1.8286 Y0.0899 
G01 X-1.8357 Y0.0970 
G01 X-1.8357 Y0.1200 
G01 X-1.8363 Y0.1206 
G01 X-1.8422 Y0.1206 
G01 X-1.8422 Y0.0970 
G01 X-1.8493 Y0.0899 
G01 X-1.8593 Y0.0899 
G01 X-1.8658 Y0.0964 
G01 X-1.8723 Y0.0899 
G01 X-1.8876 Y0.0899 
G01 X-1.8976 Y0.0899 
G01 X-1.9053 Y0.0976 
G01 X-1.9080 Y0.1002 
G01 X-1.9106 Y0.0976 
G01 X-1.9106 Y0.0976 
G01 X-1.9127 Y0.0956 
G01 X-1.9183 Y0.0899 
G01 X-1.9343 Y0.0899 
G01 X-1.9343 Y0.0816 
G01 X-1.9413 Y0.0746 
G01 X-1.9514 Y0.0746 
G01 X-1.9584 Y0.0816 
G01 X-1.9584 Y0.0958 
G01 X-1.9588 Y0.0955 
G01 X-1.9644 Y0.0899 
G01 X-1.9897 Y0.0899 
G01 X-1.9968 Y0.0970 
G01 X-1.9968 Y0.0970 
G01 X-2.0045 Y0.1047 
G01 X-2.0045 Y0.1147 
G01 X-1.9980 Y0.1212 
G01 X-1.9990 Y0.1223 
G01 X-2.0045 Y0.1277 
G01 X-2.0045 Y0.1277 
G01 X-2.0045 Y0.1377 
G01 X-2.0045 Y0.1454 
G01 X-1.9989 Y0.1510 
G01 X-1.9968 Y0.1530 
G01 X-1.9968 Y0.1530 
G01 X-1.9935 Y0.1563 
G01 X-1.9933 Y0.1566 
G01 X-1.9897 Y0.1601 
G01 X-1.9797 Y0.1601 
G01 X-1.9644 Y0.1601 
G01 X-1.9573 Y0.1530 
G01 X-1.9496 Y0.1454 
G00 Z0.0200 
G00 X-2.0965 Y0.1200 
G01 Z-0.0100 F10.00 
G01 X-2.0965 Y0.1300 
G01 X-2.0895 Y0.1371 
G01 X-2.0488 Y0.1371 
G01 X-2.0417 Y0.1300 
G01 X-2.0417 Y0.1200 
G01 X-2.0488 Y0.1129 
G01 X-2.0895 Y0.1129 
G01 X-2.0965 Y0.1200 
G00 Z0.0200 
G00 X-0.3527 Y0.6970 
G01 Z-0.0100 F10.00 
G01 X-0.3527 Y0.7359 
G01 X-0.3592 Y0.7359 
G01 X-0.3592 Y0.6970 
G01 X-0.3663 Y0.6899 
G01 X-0.3763 Y0.6899 
G01 X-0.3834 Y0.6970 
G01 X-0.3834 Y0.6983 
G01 X-0.3899 Y0.7081 
G01 X-0.3899 Y0.6970 
G01 X-0.3970 Y0.6899 
G01 X-0.4070 Y0.6899 
G01 X-0.4096 Y0.6926 
G01 X-0.4123 Y0.6899 
G01 X-0.4223 Y0.6899 
G01 X-0.4294 Y0.6970 
G01 X-0.4294 Y0.7129 
G01 X-0.4359 Y0.7129 
G01 X-0.4359 Y0.6970 
G01 X-0.4430 Y0.6899 
G01 X-0.4530 Y0.6899 
G01 X-0.4601 Y0.6970 
G01 X-0.4601 Y0.7200 
G01 X-0.4601 Y0.7300 
G01 X-0.4601 Y0.7377 
G01 X-0.4601 Y0.7377 
G01 X-0.4530 Y0.7448 
G01 X-0.4530 Y0.7448 
G01 X-0.4447 Y0.7530 
G01 X-0.4447 Y0.7530 
G01 X-0.4377 Y0.7601 
G01 X-0.4276 Y0.7601 
G01 X-0.4141 Y0.7465 
G01 X-0.4141 Y0.7530 
G01 X-0.4070 Y0.7601 
G01 X-0.3970 Y0.7601 
G01 X-0.3926 Y0.7557 
G01 X-0.3926 Y0.7557 
G01 X-0.3899 Y0.7530 
G01 X-0.3899 Y0.7517 
G01 X-0.3834 Y0.7419 
G01 X-0.3834 Y0.7530 
G01 X-0.3763 Y0.7601 
G01 X-0.3663 Y0.7601 
G01 X-0.3636 Y0.7575 
G01 X-0.3609 Y0.7601 
G01 X-0.3202 Y0.7601 
G01 X-0.3131 Y0.7530 
G01 X-0.3131 Y0.7430 
G01 X-0.3202 Y0.7359 
G01 X-0.3285 Y0.7359 
G01 X-0.3285 Y0.6970 
G01 X-0.3356 Y0.6899 
G01 X-0.3456 Y0.6899 
G01 X-0.3527 Y0.6970 
G00 Z0.0200 
G00 X-0.2671 Y1.4954 
G01 Z-0.0100 F10.00 
G01 X-0.2671 Y1.4854 
G01 X-0.2742 Y1.4783 
G01 X-0.2842 Y1.4783 
G01 X-0.2919 Y1.4859 
G01 X-0.2972 Y1.4859 
G01 X-0.2978 Y1.4854 
G01 X-0.2978 Y1.4647 
G01 X-0.2972 Y1.4641 
G01 X-0.2919 Y1.4641 
G01 X-0.2842 Y1.4718 
G01 X-0.2742 Y1.4718 
G01 X-0.2671 Y1.4647 
G01 X-0.2671 Y1.4547 
G01 X-0.2706 Y1.4511 
G01 X-0.2765 Y1.4453 
G01 X-0.2819 Y1.4399 
G01 X-0.2819 Y1.4399 
G01 X-0.2919 Y1.4399 
G01 X-0.3072 Y1.4399 
G01 X-0.3143 Y1.4470 
G01 X-0.3176 Y1.4502 
G01 X-0.3202 Y1.4476 
G01 X-0.3202 Y1.4476 
G01 X-0.3225 Y1.4454 
G01 X-0.3279 Y1.4399 
G01 X-0.3279 Y1.4399 
G01 X-0.3379 Y1.4399 
G01 X-0.3609 Y1.4399 
G01 X-0.3680 Y1.4470 
G01 X-0.3680 Y1.4535 
G01 X-0.3745 Y1.4470 
G01 X-0.3745 Y1.4470 
G01 X-0.3816 Y1.4399 
G01 X-0.3816 Y1.4399 
G01 X-0.3916 Y1.4399 
G01 X-0.3987 Y1.4470 
G01 X-0.4058 Y1.4541 
G01 X-0.4081 Y1.4518 
G01 X-0.4088 Y1.4511 
G01 X-0.4088 Y1.4511 
G01 X-0.4123 Y1.4476 
G01 X-0.4123 Y1.4476 
G01 X-0.4145 Y1.4454 
G01 X-0.4200 Y1.4399 
G01 X-0.4200 Y1.4399 
G01 X-0.4300 Y1.4399 
G01 X-0.4453 Y1.4399 
G01 X-0.4524 Y1.4470 
G01 X-0.4601 Y1.4547 
G01 X-0.4601 Y1.4647 
G01 X-0.4601 Y1.4700 
G01 X-0.4601 Y1.4800 
G01 X-0.4530 Y1.4871 
G01 X-0.4530 Y1.4871 
G01 X-0.4447 Y1.4954 
G01 X-0.4447 Y1.4954 
G01 X-0.4414 Y1.4987 
G01 X-0.4412 Y1.4989 
G01 X-0.4377 Y1.5025 
G01 X-0.4355 Y1.5025 
G01 X-0.4202 Y1.5101 
G01 X-0.4123 Y1.5101 
G01 X-0.4096 Y1.5075 
G01 X-0.4070 Y1.5101 
G01 X-0.3970 Y1.5101 
G01 X-0.3899 Y1.5030 
G01 X-0.3899 Y1.4724 
G01 X-0.3866 Y1.4691 
G01 X-0.3834 Y1.4723 
G01 X-0.3834 Y1.5030 
G01 X-0.3763 Y1.5101 
G01 X-0.3663 Y1.5101 
G01 X-0.3636 Y1.5075 
G01 X-0.3609 Y1.5101 
G01 X-0.3279 Y1.5101 
G01 X-0.3208 Y1.5030 
G01 X-0.3176 Y1.4998 
G01 X-0.3164 Y1.5010 
G01 X-0.3143 Y1.5030 
G01 X-0.3143 Y1.5030 
G01 X-0.3111 Y1.5063 
G01 X-0.3108 Y1.5066 
G01 X-0.3072 Y1.5101 
G01 X-0.2972 Y1.5101 
G01 X-0.2819 Y1.5101 
G01 X-0.2748 Y1.5030 
G01 X-0.2671 Y1.4954 
G00 Z0.0200 
G00 X-0.4601 Y1.3700 
G01 Z-0.0100 F10.00 
G01 X-0.4601 Y1.3800 
G01 X-0.4530 Y1.3871 
G01 X-0.4447 Y1.3871 
G01 X-0.4447 Y1.3954 
G01 X-0.4377 Y1.4025 
G01 X-0.4276 Y1.4025 
G01 X-0.4206 Y1.3954 
G01 X-0.4206 Y1.3871 
G01 X-0.4123 Y1.3871 
G01 X-0.4052 Y1.3800 
G01 X-0.4052 Y1.3700 
G01 X-0.4123 Y1.3629 
G01 X-0.4206 Y1.3629 
G01 X-0.4206 Y1.3547 
G01 X-0.4276 Y1.3476 
G01 X-0.4377 Y1.3476 
G01 X-0.4447 Y1.3547 
G01 X-0.4447 Y1.3629 
G01 X-0.4530 Y1.3629 
G01 X-0.4601 Y1.3700 
G00 Z0.0200 
G00 X-0.3680 Y1.3470 
G01 Z-0.0100 F10.00 
G01 X-0.3680 Y1.3570 
G01 X-0.3609 Y1.3641 
G01 X-0.3604 Y1.3641 
G01 X-0.3604 Y1.3859 
G01 X-0.3609 Y1.3859 
G01 X-0.3636 Y1.3886 
G01 X-0.3663 Y1.3859 
G01 X-0.3745 Y1.3859 
G01 X-0.3745 Y1.3470 
G01 X-0.3816 Y1.3399 
G01 X-0.3916 Y1.3399 
G01 X-0.3987 Y1.3470 
G01 X-0.3987 Y1.3859 
G01 X-0.4070 Y1.3859 
G01 X-0.4141 Y1.3930 
G01 X-0.4141 Y1.4030 
G01 X-0.4070 Y1.4101 
G01 X-0.3663 Y1.4101 
G01 X-0.3636 Y1.4075 
G01 X-0.3609 Y1.4101 
G01 X-0.3356 Y1.4101 
G01 X-0.3329 Y1.4075 
G01 X-0.3302 Y1.4101 
G01 X-0.3072 Y1.4101 
G01 X-0.2972 Y1.4101 
G01 X-0.2895 Y1.4025 
G01 X-0.2825 Y1.3954 
G01 X-0.2825 Y1.3800 
G01 X-0.2825 Y1.3700 
G01 X-0.2901 Y1.3623 
G01 X-0.2972 Y1.3552 
G01 X-0.3131 Y1.3552 
G01 X-0.3131 Y1.3470 
G01 X-0.3202 Y1.3399 
G01 X-0.3302 Y1.3399 
G01 X-0.3329 Y1.3426 
G01 X-0.3356 Y1.3399 
G01 X-0.3432 Y1.3399 
G01 X-0.3533 Y1.3399 
G01 X-0.3609 Y1.3399 
G01 X-0.3680 Y1.3470 
G00 Z0.0200 
G00 X-2.7552 Y0.1454 
G01 Z-0.0100 F10.00 
G01 X-2.7552 Y0.1389 
G01 X-2.7493 Y0.1448 
G01 X-2.7340 Y0.1448 
G01 X-2.7239 Y0.1448 
G01 X-2.7174 Y0.1383 
G01 X-2.7109 Y0.1448 
G01 X-2.6879 Y0.1448 
G01 X-2.6779 Y0.1448 
G01 X-2.6720 Y0.1389 
G01 X-2.6720 Y0.1454 
G01 X-2.6664 Y0.1509 
G01 X-2.6643 Y0.1530 
G01 X-2.6643 Y0.1530 
G01 X-2.6611 Y0.1563 
G01 X-2.6608 Y0.1566 
G01 X-2.6572 Y0.1601 
G01 X-2.6472 Y0.1601 
G01 X-2.6319 Y0.1601 
G01 X-2.6248 Y0.1530 
G01 X-2.6171 Y0.1454 
G01 X-2.6171 Y0.1389 
G01 X-2.6112 Y0.1448 
G01 X-2.5959 Y0.1448 
G01 X-2.5858 Y0.1448 
G01 X-2.5793 Y0.1383 
G01 X-2.5728 Y0.1448 
G01 X-2.5498 Y0.1448 
G01 X-2.5398 Y0.1448 
G01 X-2.5321 Y0.1371 
G01 X-2.5295 Y0.1344 
G01 X-2.5284 Y0.1355 
G01 X-2.5262 Y0.1377 
G01 X-2.5262 Y0.1377 
G01 X-2.5227 Y0.1412 
G01 X-2.5227 Y0.1412 
G01 X-2.5208 Y0.1431 
G01 X-2.5191 Y0.1448 
G01 X-2.4861 Y0.1448 
G01 X-2.4796 Y0.1383 
G01 X-2.4767 Y0.1411 
G01 X-2.4766 Y0.1412 
G01 X-2.4745 Y0.1433 
G01 X-2.4731 Y0.1448 
G01 X-2.4577 Y0.1448 
G01 X-2.4477 Y0.1448 
G01 X-2.4401 Y0.1371 
G01 X-2.4330 Y0.1300 
G01 X-2.4330 Y0.1224 
G01 X-2.4330 Y0.1123 
G01 X-2.4401 Y0.1052 
G01 X-2.4406 Y0.1052 
G01 X-2.4406 Y0.0970 
G01 X-2.4477 Y0.0899 
G01 X-2.4631 Y0.0899 
G01 X-2.4731 Y0.0899 
G01 X-2.4808 Y0.0976 
G01 X-2.4834 Y0.1002 
G01 X-2.4861 Y0.0976 
G01 X-2.4861 Y0.0976 
G01 X-2.4883 Y0.0954 
G01 X-2.4938 Y0.0899 
G01 X-2.4938 Y0.0899 
G01 X-2.5038 Y0.0899 
G01 X-2.5268 Y0.0899 
G01 X-2.5295 Y0.0926 
G01 X-2.5321 Y0.0899 
G01 X-2.5421 Y0.0899 
G01 X-2.5492 Y0.0970 
G01 X-2.5492 Y0.1200 
G01 X-2.5498 Y0.1206 
G01 X-2.5557 Y0.1206 
G01 X-2.5557 Y0.0970 
G01 X-2.5628 Y0.0899 
G01 X-2.5728 Y0.0899 
G01 X-2.5793 Y0.0964 
G01 X-2.5858 Y0.0899 
G01 X-2.6012 Y0.0899 
G01 X-2.6112 Y0.0899 
G01 X-2.6189 Y0.0976 
G01 X-2.6215 Y0.1002 
G01 X-2.6242 Y0.0976 
G01 X-2.6242 Y0.0976 
G01 X-2.6262 Y0.0956 
G01 X-2.6319 Y0.0899 
G01 X-2.6472 Y0.0899 
G01 X-2.6572 Y0.0899 
G01 X-2.6676 Y0.1002 
G01 X-2.6702 Y0.0976 
G01 X-2.6702 Y0.0976 
G01 X-2.6723 Y0.0955 
G01 X-2.6779 Y0.0899 
G01 X-2.6938 Y0.0899 
G01 X-2.6938 Y0.0816 
G01 X-2.7009 Y0.0746 
G01 X-2.7109 Y0.0746 
G01 X-2.7180 Y0.0816 
G01 X-2.7180 Y0.0899 
G01 X-2.7393 Y0.0899 
G01 X-2.7493 Y0.0899 
G01 X-2.7570 Y0.0976 
G01 X-2.7596 Y0.1002 
G01 X-2.7645 Y0.0954 
G01 X-2.7700 Y0.0899 
G01 X-2.7700 Y0.0899 
G01 X-2.7800 Y0.0899 
G01 X-2.7953 Y0.0899 
G01 X-2.8024 Y0.0970 
G01 X-2.8101 Y0.1047 
G01 X-2.8101 Y0.1147 
G01 X-2.8101 Y0.1454 
G01 X-2.8045 Y0.1510 
G01 X-2.8024 Y0.1530 
G01 X-2.8024 Y0.1530 
G01 X-2.7991 Y0.1564 
G01 X-2.7989 Y0.1566 
G01 X-2.7953 Y0.1601 
G01 X-2.7853 Y0.1601 
G01 X-2.7700 Y0.1601 
G01 X-2.7629 Y0.1530 
G01 X-2.7552 Y0.1454 
G00 Z0.0200 
G00 X-2.3958 Y0.0970 
G01 Z-0.0100 F10.00 
G01 X-2.3958 Y0.1430 
G01 X-2.3958 Y0.1530 
G01 X-2.3887 Y0.1601 
G01 X-2.3557 Y0.1601 
G01 X-2.3486 Y0.1530 
G01 X-2.3486 Y0.1530 
G01 X-2.3480 Y0.1525 
G01 X-2.3480 Y0.1525 
G01 X-2.3409 Y0.1454 
G01 X-2.3409 Y0.1389 
G01 X-2.3350 Y0.1448 
G01 X-2.3196 Y0.1448 
G01 X-2.3096 Y0.1448 
G01 X-2.3031 Y0.1383 
G01 X-2.2966 Y0.1448 
G01 X-2.2866 Y0.1448 
G01 X-2.2817 Y0.1399 
G01 X-2.2763 Y0.1290 
G01 X-2.2709 Y0.1399 
G01 X-2.2659 Y0.1448 
G01 X-2.2559 Y0.1448 
G01 X-2.2488 Y0.1377 
G01 X-2.2488 Y0.1298 
G01 X-2.2552 Y0.1172 
G01 X-2.2506 Y0.1218 
G01 X-2.2429 Y0.1218 
G01 X-2.2329 Y0.1218 
G01 X-2.2258 Y0.1147 
G01 X-2.2258 Y0.1070 
G01 X-2.2258 Y0.0970 
G01 X-2.2329 Y0.0899 
G01 X-2.2506 Y0.0899 
G01 X-2.2577 Y0.0970 
G01 X-2.2577 Y0.1070 
G01 X-2.2577 Y0.1122 
G01 X-2.2642 Y0.0991 
G01 X-2.2642 Y0.0970 
G01 X-2.2663 Y0.0948 
G01 X-2.2713 Y0.0899 
G01 X-2.2813 Y0.0899 
G01 X-2.2884 Y0.0970 
G01 X-2.2884 Y0.0991 
G01 X-2.2949 Y0.1123 
G01 X-2.3019 Y0.1052 
G01 X-2.3025 Y0.1052 
G01 X-2.3025 Y0.0970 
G01 X-2.3096 Y0.0899 
G01 X-2.3250 Y0.0899 
G01 X-2.3350 Y0.0899 
G01 X-2.3415 Y0.0964 
G01 X-2.3480 Y0.0899 
G01 X-2.3580 Y0.0899 
G01 X-2.3716 Y0.1035 
G01 X-2.3716 Y0.0970 
G01 X-2.3787 Y0.0899 
G01 X-2.3887 Y0.0899 
G01 X-2.3958 Y0.0970 
G00 Z0.0200 
G00 X-2.1408 Y0.1141 
G01 Z-0.0100 F10.00 
G01 X-2.1337 Y0.1070 
G01 X-2.1337 Y0.0970 
G01 X-2.1408 Y0.0899 
G01 X-2.1715 Y0.0899 
G01 X-2.1815 Y0.0899 
G01 X-2.1886 Y0.0970 
G01 X-2.1886 Y0.1070 
G01 X-2.1597 Y0.1359 
G01 X-2.1638 Y0.1359 
G01 X-2.1680 Y0.1318 
G01 X-2.1715 Y0.1283 
G01 X-2.1815 Y0.1283 
G01 X-2.1886 Y0.1354 
G01 X-2.1886 Y0.1454 
G01 X-2.1809 Y0.1530 
G01 X-2.1809 Y0.1530 
G01 X-2.1776 Y0.1563 
G01 X-2.1774 Y0.1566 
G01 X-2.1739 Y0.1601 
G01 X-2.1638 Y0.1601 
G01 X-2.1485 Y0.1601 
G01 X-2.1414 Y0.1530 
G01 X-2.1337 Y0.1454 
G01 X-2.1337 Y0.1354 
G01 X-2.1337 Y0.1277 
G01 X-2.1408 Y0.1206 
G01 X-2.1473 Y0.1141 
G01 X-2.1408 Y0.1141 
G00 Z0.0200 
G00 X-1.4137 Y0.1430 
G01 Z-0.0100 F10.00 
G01 X-1.4137 Y0.1530 
G01 X-1.4066 Y0.1601 
G01 X-1.3989 Y0.1601 
G01 X-1.3889 Y0.1601 
G01 X-1.3824 Y0.1536 
G01 X-1.3759 Y0.1601 
G01 X-1.3582 Y0.1601 
G01 X-1.3511 Y0.1530 
G01 X-1.3511 Y0.1430 
G01 X-1.3511 Y0.1141 
G01 X-1.3506 Y0.1141 
G01 X-1.3435 Y0.1070 
G01 X-1.3435 Y0.0970 
G01 X-1.3506 Y0.0899 
G01 X-1.3759 Y0.0899 
G01 X-1.3786 Y0.0926 
G01 X-1.3812 Y0.0899 
G01 X-1.4066 Y0.0899 
G01 X-1.4131 Y0.0964 
G01 X-1.4196 Y0.0899 
G01 X-1.4349 Y0.0899 
G01 X-1.4450 Y0.0899 
G01 X-1.4526 Y0.0976 
G01 X-1.4553 Y0.1002 
G01 X-1.4580 Y0.0976 
G01 X-1.4580 Y0.0976 
G01 X-1.4602 Y0.0954 
G01 X-1.4656 Y0.0899 
G01 X-1.4656 Y0.0899 
G01 X-1.4757 Y0.0899 
G01 X-1.4987 Y0.0899 
G01 X-1.5052 Y0.0964 
G01 X-1.5062 Y0.0954 
G01 X-1.5117 Y0.0899 
G01 X-1.5117 Y0.0899 
G01 X-1.5217 Y0.0899 
G01 X-1.5447 Y0.0899 
G01 X-1.5474 Y0.0926 
G01 X-1.5500 Y0.0899 
G01 X-1.5601 Y0.0899 
G01 X-1.5831 Y0.0899 
G01 X-1.5896 Y0.0964 
G01 X-1.5961 Y0.0899 
G01 X-1.6061 Y0.0899 
G01 X-1.6197 Y0.1035 
G01 X-1.6197 Y0.0970 
G01 X-1.6268 Y0.0899 
G01 X-1.6368 Y0.0899 
G01 X-1.6439 Y0.0970 
G01 X-1.6439 Y0.1530 
G01 X-1.6368 Y0.1601 
G01 X-1.6268 Y0.1601 
G01 X-1.6138 Y0.1601 
G01 X-1.6037 Y0.1601 
G01 X-1.5961 Y0.1525 
G01 X-1.5961 Y0.1525 
G01 X-1.5890 Y0.1454 
G01 X-1.5890 Y0.1448 
G01 X-1.5807 Y0.1448 
G01 X-1.5736 Y0.1377 
G01 X-1.5736 Y0.1147 
G01 X-1.5731 Y0.1141 
G01 X-1.5671 Y0.1141 
G01 X-1.5671 Y0.1377 
G01 X-1.5601 Y0.1448 
G01 X-1.5500 Y0.1448 
G01 X-1.5435 Y0.1383 
G01 X-1.5406 Y0.1412 
G01 X-1.5406 Y0.1412 
G01 X-1.5397 Y0.1421 
G01 X-1.5370 Y0.1448 
G01 X-1.5040 Y0.1448 
G01 X-1.4975 Y0.1383 
G01 X-1.4946 Y0.1412 
G01 X-1.4945 Y0.1412 
G01 X-1.4929 Y0.1429 
G01 X-1.4910 Y0.1448 
G01 X-1.4580 Y0.1448 
G01 X-1.4515 Y0.1383 
G01 X-1.4486 Y0.1411 
G01 X-1.4485 Y0.1412 
G01 X-1.4465 Y0.1432 
G01 X-1.4450 Y0.1448 
G01 X-1.4296 Y0.1448 
G01 X-1.4196 Y0.1448 
G01 X-1.4119 Y0.1371 
G01 X-1.4060 Y0.1312 
G01 X-1.4060 Y0.1359 
G01 X-1.4066 Y0.1359 
G01 X-1.4137 Y0.1430 
G00 Z0.0200 
G00 X-1.4899 Y1.4919 
G01 Z-0.0100 F10.00 
G01 X-1.4899 Y1.4665 
G01 X-1.4970 Y1.4595 
G01 X-1.5047 Y1.4518 
G01 X-1.5147 Y1.4518 
G01 X-1.5454 Y1.4518 
G01 X-1.5509 Y1.4574 
G01 X-1.5530 Y1.4595 
G01 X-1.5530 Y1.4595 
G01 X-1.5563 Y1.4627 
G01 X-1.5566 Y1.4630 
G01 X-1.5601 Y1.4665 
G01 X-1.5601 Y1.4766 
G01 X-1.5601 Y1.4919 
G01 X-1.5536 Y1.4984 
G01 X-1.5601 Y1.5049 
G01 X-1.5601 Y1.5149 
G01 X-1.5557 Y1.5193 
G01 X-1.5557 Y1.5193 
G01 X-1.5530 Y1.5220 
G01 X-1.5517 Y1.5220 
G01 X-1.5419 Y1.5285 
G01 X-1.5530 Y1.5285 
G01 X-1.5601 Y1.5356 
G01 X-1.5601 Y1.5456 
G01 X-1.5575 Y1.5483 
G01 X-1.5601 Y1.5509 
G01 X-1.5601 Y1.5840 
G01 X-1.5530 Y1.5911 
G01 X-1.5454 Y1.5987 
G01 X-1.5354 Y1.5987 
G01 X-1.5047 Y1.5987 
G01 X-1.4976 Y1.5917 
G01 X-1.4976 Y1.5916 
G01 X-1.4954 Y1.5895 
G01 X-1.4899 Y1.5840 
G01 X-1.4899 Y1.5840 
G01 X-1.4899 Y1.5740 
G01 X-1.4899 Y1.5509 
G01 X-1.4926 Y1.5483 
G01 X-1.4899 Y1.5456 
G01 X-1.4899 Y1.5356 
G01 X-1.4970 Y1.5285 
G01 X-1.4983 Y1.5285 
G01 X-1.5081 Y1.5220 
G01 X-1.4970 Y1.5220 
G01 X-1.4899 Y1.5149 
G01 X-1.4899 Y1.5049 
G01 X-1.4964 Y1.4984 
G01 X-1.4899 Y1.4919 
G00 Z0.0200 
G00 X-0.9149 Y0.7621 
G01 Z-0.0100 F10.00 
G01 X-0.8850 Y0.7621 
G01 X-0.8639 Y0.7409 
G01 X-0.8639 Y0.6590 
G01 X-0.8850 Y0.6379 
G01 X-0.9149 Y0.6379 
G01 X-0.9361 Y0.6590 
G01 X-0.9361 Y0.7409 
G01 X-0.9149 Y0.7621 
G00 Z0.0200 
G00 X-0.9149 Y1.0621 
G01 Z-0.0100 F10.00 
G01 X-0.8850 Y1.0621 
G01 X-0.8639 Y1.0409 
G01 X-0.8639 Y0.9590 
G01 X-0.8819 Y0.9410 
G01 X-0.8819 Y0.8925 
G01 X-0.8925 Y0.8819 
G01 X-0.9075 Y0.8819 
G01 X-1.1075 Y0.8819 
G01 X-1.1181 Y0.8925 
G01 X-1.1181 Y0.9075 
G01 X-1.1181 Y0.9410 
G01 X-1.1361 Y0.9590 
G01 X-1.1361 Y1.0409 
G01 X-1.1181 Y1.0589 
G01 X-1.1181 Y1.4425 
G01 X-1.1895 Y1.5139 
G01 X-1.2149 Y1.5139 
G01 X-1.2361 Y1.5350 
G01 X-1.2361 Y1.5605 
G01 X-1.2895 Y1.6139 
G01 X-1.3149 Y1.6139 
G01 X-1.3361 Y1.6350 
G01 X-1.3361 Y1.6649 
G01 X-1.3149 Y1.6861 
G01 X-1.2850 Y1.6861 
G01 X-1.2639 Y1.6649 
G01 X-1.2639 Y1.6395 
G01 X-1.2105 Y1.5861 
G01 X-1.1850 Y1.5861 
G01 X-1.1639 Y1.5649 
G01 X-1.1639 Y1.5395 
G01 X-1.0925 Y1.4681 
G01 X-1.0819 Y1.4575 
G01 X-1.0819 Y1.0589 
G01 X-1.0639 Y1.0409 
G01 X-1.0639 Y0.9590 
G01 X-1.0819 Y0.9410 
G01 X-1.0819 Y0.9181 
G01 X-0.9181 Y0.9181 
G01 X-0.9181 Y0.9410 
G01 X-0.9361 Y0.9590 
G01 X-0.9361 Y1.0409 
G01 X-0.9149 Y1.0621 
G00 Z0.0200 
G00 X-2.3649 Y1.0121 
G01 Z-0.0100 F10.00 
G01 X-2.3350 Y1.0121 
G01 X-2.3139 Y0.9909 
G01 X-2.3139 Y0.9090 
G01 X-2.3149 Y0.9081 
G01 X-2.3149 Y0.8355 
G01 X-2.3355 Y0.8149 
G01 X-2.3645 Y0.8149 
G01 X-2.3649 Y0.8149 
G01 X-2.3649 Y0.7659 
G01 X-2.3639 Y0.7649 
G01 X-2.3639 Y0.7350 
G01 X-2.3850 Y0.7139 
G01 X-2.4149 Y0.7139 
G01 X-2.4361 Y0.7350 
G01 X-2.4361 Y0.7649 
G01 X-2.4351 Y0.7659 
G01 X-2.4351 Y0.8149 
G01 X-2.5784 Y0.8149 
G01 X-2.5834 Y0.8099 
G01 X-2.6166 Y0.8099 
G01 X-2.6401 Y0.8334 
G01 X-2.6401 Y0.8666 
G01 X-2.6166 Y0.8901 
G01 X-2.5834 Y0.8901 
G01 X-2.5784 Y0.8851 
G01 X-2.4145 Y0.8851 
G01 X-2.3855 Y0.8851 
G01 X-2.3851 Y0.8851 
G01 X-2.3851 Y0.9081 
G01 X-2.3861 Y0.9090 
G01 X-2.3861 Y0.9909 
G01 X-2.3649 Y1.0121 
G00 Z0.0200 
G00 X-0.9401 Y1.2666 
G01 Z-0.0100 F10.00 
G01 X-0.9166 Y1.2901 
G01 X-0.8834 Y1.2901 
G01 X-0.8599 Y1.2666 
G01 X-0.8599 Y1.2334 
G01 X-0.8834 Y1.2099 
G01 X-0.9145 Y1.2099 
G01 X-0.9819 Y1.1425 
G01 X-0.9819 Y1.0589 
G01 X-0.9639 Y1.0409 
G01 X-0.9639 Y0.9590 
G01 X-0.9850 Y0.9379 
G01 X-1.0149 Y0.9379 
G01 X-1.0361 Y0.9590 
G01 X-1.0361 Y1.0409 
G01 X-1.0181 Y1.0589 
G01 X-1.0181 Y1.1425 
G01 X-1.0181 Y1.1575 
G01 X-0.9401 Y1.2355 
G01 X-0.9401 Y1.2666 
G00 Z0.0200 
G00 X-2.2361 Y0.7350 
G01 Z-0.0100 F10.00 
G01 X-2.2361 Y0.7365 
G01 X-2.2851 Y0.7855 
G01 X-2.2851 Y0.8145 
G01 X-2.2851 Y0.9081 
G01 X-2.2861 Y0.9090 
G01 X-2.2861 Y0.9909 
G01 X-2.2649 Y1.0121 
G01 X-2.2350 Y1.0121 
G01 X-2.2139 Y0.9909 
G01 X-2.2139 Y0.9090 
G01 X-2.2149 Y0.9081 
G01 X-2.2149 Y0.8145 
G01 X-2.1865 Y0.7861 
G01 X-2.1850 Y0.7861 
G01 X-2.1639 Y0.7649 
G01 X-2.1639 Y0.7350 
G01 X-2.1850 Y0.7139 
G01 X-2.2149 Y0.7139 
G01 X-2.2361 Y0.7350 
G00 Z0.0200 
G00 X-2.1194 Y0.1971 
G01 Z-0.0100 F10.00 
G01 X-2.1176 Y0.2044 
G01 X-2.1152 Y0.2151 
G01 X-2.1124 Y0.2370 
G01 X-2.1122 Y0.2590 
G01 X-2.1145 Y0.2809 
G01 X-2.1194 Y0.3024 
G01 X-2.1267 Y0.3231 
G01 X-2.1365 Y0.3429 
G01 X-2.1484 Y0.3613 
G01 X-2.1625 Y0.3783 
G01 X-2.1784 Y0.3935 
G01 X-2.1960 Y0.4067 
G01 X-2.2151 Y0.4178 
G01 X-2.2353 Y0.4266 
G01 X-2.2563 Y0.4329 
G01 X-2.2780 Y0.4368 
G01 X-2.3000 Y0.4381 
G01 X-2.3220 Y0.4368 
G01 X-2.3437 Y0.4329 
G01 X-2.3647 Y0.4266 
G01 X-2.3849 Y0.4178 
G01 X-2.4040 Y0.4067 
G01 X-2.4216 Y0.3935 
G01 X-2.4375 Y0.3783 
G01 X-2.4516 Y0.3613 
G01 X-2.4635 Y0.3429 
G01 X-2.4733 Y0.3231 
G01 X-2.4733 Y0.3231 
G01 X-2.4806 Y0.3024 
G01 X-2.4855 Y0.2809 
G01 X-2.4878 Y0.2590 
G01 X-2.4876 Y0.2370 
G01 X-2.4848 Y0.2151 
G01 X-2.4824 Y0.2044 
G01 X-2.4806 Y0.1971 
G01 X-2.4883 Y0.1843 
G01 X-2.5029 Y0.1806 
G01 X-2.5157 Y0.1883 
G01 X-2.5175 Y0.1956 
G01 X-2.5207 Y0.2084 
G01 X-2.5241 Y0.2345 
G01 X-2.5244 Y0.2608 
G01 X-2.5216 Y0.2869 
G01 X-2.5157 Y0.3125 
G01 X-2.5070 Y0.3373 
G01 X-2.4953 Y0.3609 
G01 X-2.4953 Y0.3609 
G01 X-2.4810 Y0.3830 
G01 X-2.4810 Y0.3830 
G01 X-2.4762 Y0.3888 
G01 X-2.5399 Y0.3251 
G01 X-2.5399 Y0.2749 
G01 X-2.5399 Y0.2251 
G01 X-2.5751 Y0.1899 
G01 X-2.8249 Y0.1899 
G01 X-2.9249 Y0.1899 
G01 X-2.9601 Y0.2251 
G01 X-2.9601 Y0.2749 
G01 X-2.9601 Y1.1749 
G01 X-2.9249 Y1.2101 
G01 X-2.8249 Y1.3101 
G01 X-2.7751 Y1.3101 
G01 X-2.7399 Y1.2749 
G01 X-2.7251 Y1.2601 
G01 X-2.6251 Y1.2601 
G01 X-2.5899 Y1.2249 
G01 X-2.5899 Y1.1751 
G01 X-2.6251 Y1.1399 
G01 X-2.7251 Y1.1399 
G01 X-2.7749 Y1.1399 
G01 X-2.8000 Y1.1650 
G01 X-2.8399 Y1.1251 
G01 X-2.8399 Y0.8668 
G01 X-2.8351 Y0.8716 
G01 X-2.8351 Y1.0340 
G01 X-2.8361 Y1.0350 
G01 X-2.8361 Y1.0649 
G01 X-2.8149 Y1.0861 
G01 X-2.7850 Y1.0861 
G01 X-2.7840 Y1.0851 
G01 X-2.4645 Y1.0851 
G01 X-2.4145 Y1.0851 
G01 X-2.2861 Y1.2135 
G01 X-2.2861 Y1.2909 
G01 X-2.2851 Y1.2919 
G01 X-2.2851 Y1.3145 
G01 X-2.2645 Y1.3351 
G01 X-2.2575 Y1.3351 
G01 X-2.1801 Y1.4125 
G01 X-2.1801 Y1.4830 
G01 X-2.3239 Y1.3392 
G01 X-2.3239 Y1.3089 
G01 X-2.2899 Y1.2749 
G01 X-2.2899 Y1.2251 
G01 X-2.3251 Y1.1899 
G01 X-2.3331 Y1.1899 
G01 X-2.3350 Y1.1879 
G01 X-2.3649 Y1.1879 
G01 X-2.3669 Y1.1899 
G01 X-2.4331 Y1.1899 
G01 X-2.4350 Y1.1879 
G01 X-2.4649 Y1.1879 
G01 X-2.4669 Y1.1899 
G01 X-2.4749 Y1.1899 
G01 X-2.5101 Y1.2251 
G01 X-2.5101 Y1.2749 
G01 X-2.4749 Y1.3101 
G01 X-2.4669 Y1.3101 
G01 X-2.4649 Y1.3121 
G01 X-2.4350 Y1.3121 
G01 X-2.4331 Y1.3101 
G01 X-2.3761 Y1.3101 
G01 X-2.3761 Y1.3608 
G01 X-2.3608 Y1.3761 
G01 X-2.2261 Y1.5108 
G01 X-2.2261 Y1.7729 
G01 X-2.2350 Y1.7639 
G01 X-2.2649 Y1.7639 
G01 X-2.2659 Y1.7649 
G01 X-2.6284 Y1.7649 
G01 X-2.6334 Y1.7599 
G01 X-2.6666 Y1.7599 
G01 X-2.6901 Y1.7834 
G01 X-2.6901 Y1.8166 
G01 X-2.6666 Y1.8401 
G01 X-2.6334 Y1.8401 
G01 X-2.6284 Y1.8351 
G01 X-2.2659 Y1.8351 
G01 X-2.2649 Y1.8361 
G01 X-2.2350 Y1.8361 
G01 X-2.2261 Y1.8271 
G01 X-2.2261 Y1.8411 
G01 X-2.2601 Y1.8751 
G01 X-2.2601 Y1.9249 
G01 X-2.2249 Y1.9601 
G01 X-0.4251 Y1.9601 
G01 X-0.3899 Y1.9249 
G01 X-0.3326 Y1.8676 
G01 X-0.2901 Y1.8676 
G01 X-0.2612 Y1.8386 
G01 X-0.2612 Y1.7976 
G01 X-0.2899 Y1.7689 
G01 X-0.2899 Y1.7325 
G01 X-0.2105 Y1.6530 
G01 X-0.2105 Y1.7599 
G01 X-0.1815 Y1.7888 
G01 X-0.1405 Y1.7888 
G01 X-0.1116 Y1.7599 
G01 X-0.1116 Y1.6401 
G01 X-0.1405 Y1.6112 
G01 X-0.1699 Y1.6112 
G01 X-0.1699 Y1.1487 
G01 X-0.1647 Y1.1436 
G01 X-0.1584 Y1.1283 
G01 X-0.1584 Y1.1117 
G01 X-0.1647 Y1.0964 
G01 X-0.1649 Y1.0963 
G01 X-0.1649 Y1.0855 
G01 X-0.1855 Y1.0649 
G01 X-0.4855 Y1.0649 
G01 X-0.5639 Y0.9865 
G01 X-0.5639 Y0.9590 
G01 X-0.5850 Y0.9379 
G01 X-0.6149 Y0.9379 
G01 X-0.6361 Y0.9590 
G01 X-0.6361 Y1.0409 
G01 X-0.6149 Y1.0621 
G01 X-0.5875 Y1.0621 
G01 X-0.5145 Y1.1351 
G01 X-0.4855 Y1.1351 
G01 X-0.2388 Y1.1351 
G01 X-0.2353 Y1.1436 
G01 X-0.2301 Y1.1487 
G01 X-0.2301 Y1.5875 
G01 X-0.3325 Y1.6899 
G01 X-0.3749 Y1.6899 
G01 X-0.4101 Y1.7251 
G01 X-0.4101 Y1.7689 
G01 X-0.4388 Y1.7976 
G01 X-0.4388 Y1.8038 
G01 X-0.4749 Y1.8399 
G01 X-0.7832 Y1.8399 
G01 X-0.7599 Y1.8166 
G01 X-0.7599 Y1.7855 
G01 X-0.6925 Y1.7181 
G01 X-0.6819 Y1.7075 
G01 X-0.6819 Y1.6829 
G01 X-0.6639 Y1.6649 
G01 X-0.6639 Y1.6350 
G01 X-0.6850 Y1.6139 
G01 X-0.7105 Y1.6139 
G01 X-0.7819 Y1.5425 
G01 X-0.7819 Y1.0589 
G01 X-0.7639 Y1.0409 
G01 X-0.7639 Y0.9590 
G01 X-0.7850 Y0.9379 
G01 X-0.8149 Y0.9379 
G01 X-0.8361 Y0.9590 
G01 X-0.8361 Y1.0409 
G01 X-0.8181 Y1.0589 
G01 X-0.8181 Y1.5575 
G01 X-0.8075 Y1.5681 
G01 X-0.7361 Y1.6395 
G01 X-0.7361 Y1.6649 
G01 X-0.7181 Y1.6829 
G01 X-0.7181 Y1.6925 
G01 X-0.7855 Y1.7599 
G01 X-0.8166 Y1.7599 
G01 X-0.8401 Y1.7834 
G01 X-0.8401 Y1.8166 
G01 X-0.8168 Y1.8399 
G01 X-1.3832 Y1.8399 
G01 X-1.3599 Y1.8166 
G01 X-1.3599 Y1.7834 
G01 X-1.3819 Y1.7614 
G01 X-1.3819 Y1.5829 
G01 X-1.3639 Y1.5649 
G01 X-1.3639 Y1.5350 
G01 X-1.3850 Y1.5139 
G01 X-1.4149 Y1.5139 
G01 X-1.4361 Y1.5350 
G01 X-1.4361 Y1.5649 
G01 X-1.4181 Y1.5829 
G01 X-1.4181 Y1.7614 
G01 X-1.4401 Y1.7834 
G01 X-1.4401 Y1.8166 
G01 X-1.4168 Y1.8399 
G01 X-2.1739 Y1.8399 
G01 X-2.1739 Y1.8271 
G01 X-2.1649 Y1.8361 
G01 X-2.1350 Y1.8361 
G01 X-2.1139 Y1.8149 
G01 X-2.1139 Y1.7850 
G01 X-2.1199 Y1.7791 
G01 X-2.1199 Y1.6801 
G01 X-1.9498 Y1.6801 
G01 X-1.9498 Y1.7125 
G01 X-1.9197 Y1.7426 
G01 X-1.8772 Y1.7426 
G01 X-1.8471 Y1.7125 
G01 X-1.8471 Y1.5875 
G01 X-1.8772 Y1.5574 
G01 X-1.9197 Y1.5574 
G01 X-1.9498 Y1.5875 
G01 X-1.9498 Y1.6199 
G01 X-2.1199 Y1.6199 
G01 X-2.1199 Y1.3875 
G01 X-2.1375 Y1.3699 
G01 X-2.2149 Y1.2925 
G01 X-2.2149 Y1.2919 
G01 X-2.2139 Y1.2909 
G01 X-2.2139 Y1.2090 
G01 X-2.2149 Y1.2081 
G01 X-2.2149 Y1.1855 
G01 X-2.3649 Y1.0355 
G01 X-2.3855 Y1.0149 
G01 X-2.4149 Y1.0149 
G01 X-2.4149 Y0.9919 
G01 X-2.4139 Y0.9909 
G01 X-2.4139 Y0.9090 
G01 X-2.4350 Y0.8879 
G01 X-2.4649 Y0.8879 
G01 X-2.4861 Y0.9090 
G01 X-2.4861 Y0.9909 
G01 X-2.4851 Y0.9919 
G01 X-2.4851 Y1.0149 
G01 X-2.7649 Y1.0149 
G01 X-2.7649 Y0.8716 
G01 X-2.7599 Y0.8666 
G01 X-2.7599 Y0.8334 
G01 X-2.7834 Y0.8099 
G01 X-2.8166 Y0.8099 
G01 X-2.8399 Y0.8332 
G01 X-2.8399 Y0.3101 
G01 X-2.8249 Y0.3101 
G01 X-2.6601 Y0.3101 
G01 X-2.6601 Y0.3749 
G01 X-2.6249 Y0.4101 
G01 X-2.4601 Y0.5749 
G01 X-2.4601 Y0.5749 
G01 X-2.4249 Y0.6101 
G01 X-2.1751 Y0.6101 
G01 X-2.1399 Y0.5749 
G01 X-2.1399 Y0.5749 
G01 X-1.9399 Y0.3749 
G01 X-1.9399 Y0.3251 
G01 X-1.9399 Y0.3101 
G01 X-1.5101 Y0.3101 
G01 X-1.5101 Y0.6751 
G01 X-1.5101 Y0.7249 
G01 X-1.5101 Y0.7649 
G01 X-1.5145 Y0.7649 
G01 X-1.8145 Y1.0649 
G01 X-1.8351 Y1.0855 
G01 X-1.8351 Y1.2261 
G01 X-1.8519 Y1.2093 
G01 X-1.8519 Y0.9875 
G01 X-1.8519 Y0.9725 
G01 X-1.9563 Y0.8681 
G01 X-1.9075 Y0.8681 
G01 X-1.8925 Y0.8681 
G01 X-1.7686 Y0.7442 
G01 X-1.7652 Y0.7476 
G01 X-1.7229 Y0.7651 
G01 X-1.6771 Y0.7651 
G01 X-1.6348 Y0.7476 
G01 X-1.6024 Y0.7152 
G01 X-1.5849 Y0.6729 
G01 X-1.5849 Y0.6271 
G01 X-1.6024 Y0.5848 
G01 X-1.6348 Y0.5524 
G01 X-1.6771 Y0.5349 
G01 X-1.7229 Y0.5349 
G01 X-1.7652 Y0.5524 
G01 X-1.7976 Y0.5848 
G01 X-1.8151 Y0.6271 
G01 X-1.8151 Y0.6729 
G01 X-1.7976 Y0.7152 
G01 X-1.7942 Y0.7186 
G01 X-1.9075 Y0.8319 
G01 X-1.9614 Y0.8319 
G01 X-1.9834 Y0.8099 
G01 X-2.0166 Y0.8099 
G01 X-2.0386 Y0.8319 
G01 X-2.0575 Y0.8319 
G01 X-2.0681 Y0.8425 
G01 X-2.1243 Y0.8987 
G01 X-2.1350 Y0.8879 
G01 X-2.1649 Y0.8879 
G01 X-2.1861 Y0.9090 
G01 X-2.1861 Y0.9909 
G01 X-2.1649 Y1.0121 
G01 X-2.1350 Y1.0121 
G01 X-2.1139 Y0.9909 
G01 X-2.1139 Y0.9395 
G01 X-2.0425 Y0.8681 
G01 X-2.0386 Y0.8681 
G01 X-2.0166 Y0.8901 
G01 X-1.9855 Y0.8901 
G01 X-1.8881 Y0.9875 
G01 X-1.8881 Y1.2093 
G01 X-1.9116 Y1.2328 
G01 X-1.9116 Y1.2672 
G01 X-1.8889 Y1.2899 
G01 X-2.0251 Y1.2899 
G01 X-2.1251 Y1.1899 
G01 X-2.1331 Y1.1899 
G01 X-2.1350 Y1.1879 
G01 X-2.1649 Y1.1879 
G01 X-2.1669 Y1.1899 
G01 X-2.1749 Y1.1899 
G01 X-2.2101 Y1.2251 
G01 X-2.2101 Y1.2749 
G01 X-2.0749 Y1.4101 
G01 X-2.0251 Y1.4101 
G01 X-1.7751 Y1.4101 
G01 X-1.7617 Y1.4101 
G01 X-1.7617 Y1.6749 
G01 X-1.7529 Y1.6836 
