( This gcode generated by /opt/eagle/ulp/pcb-gcode.ulp )
( Copyright 2005 by John Johnson. See readme.txt for licensing terms. )

( This file generated from the board /home/srussell/Documents/Capacitive Distance Sensor/Rev2.brd )
( This file generated  6/08/2007 15:24:59  )

( T01 0.023622 )
( T02 0.032000 )
( T03 0.039370 )
( T04 0.040000 )
( T05 0.055000 )
( T06 0.110236 )
G20

G90
M05
G00 X5.5000 Y3.4000 Z7.6000 
M06 T01  ; 0.0236 
G00 Z0.0200 
M03
G04 P3.000000
G82 X-0.1000 Y0.1000 Z-0.1200 F5.00  R0.0200 P10.000000
G82 X-0.1000 Y1.9000 
G82 X-2.9000 Y0.1000 
G82 X-2.9000 Y1.9000 
M05
G00 X5.5000 Y3.4000 Z7.6000 
M06 T02  ; 0.0320 
G00 Z0.0200 
M03
G04 P3.000000
G82 X-0.2000 Y0.9800 Z-0.1200 F5.00  R0.0200 P10.000000
G82 X-0.2000 Y1.1200 
G82 X-0.6000 Y0.3500 
G82 X-0.6000 Y0.5500 
G82 X-0.6000 Y0.7000 
G82 X-0.6000 Y1.0000 
G82 X-0.7000 Y0.7000 
G82 X-0.7000 Y1.0000 
G82 X-0.7000 Y1.4500 
G82 X-0.7000 Y1.6500 
G82 X-0.8000 Y0.7000 
G82 X-0.8000 Y1.0000 
G82 X-0.9000 Y0.7000 
G82 X-0.9000 Y1.0000 
G82 X-1.0000 Y0.7000 
G82 X-1.0000 Y1.0000 
G82 X-1.1000 Y0.7000 
G82 X-1.1000 Y1.0000 
G82 X-1.2000 Y0.7000 
G82 X-1.2000 Y1.0000 
G82 X-1.2000 Y1.5500 
G82 X-1.3000 Y1.6500 
G82 X-1.4000 Y1.5500 
G82 X-1.4500 Y0.8000 
G82 X-1.4500 Y1.0000 
G82 X-1.7300 Y1.2500 
G82 X-1.8700 Y1.2500 
G82 X-2.1500 Y0.9500 
G82 X-2.1500 Y1.2500 
G82 X-2.1500 Y1.8000 
G82 X-2.2000 Y0.5500 
G82 X-2.2000 Y0.7500 
G82 X-2.2500 Y0.9500 
G82 X-2.2500 Y1.2500 
G82 X-2.2500 Y1.8000 
G82 X-2.3500 Y0.9500 
G82 X-2.3500 Y1.2500 
G82 X-2.4000 Y0.5500 
G82 X-2.4000 Y0.7500 
G82 X-2.4500 Y0.9500 
G82 X-2.4500 Y1.2500 
G82 X-2.8000 Y1.0500 
G82 X-2.8000 Y1.2500 
M05
G00 X5.5000 Y3.4000 Z7.6000 
M06 T03  ; 0.0394 
G00 Z0.0200 
M03
G04 P3.000000
G82 X-0.1610 Y1.7000 Z-0.1200 F5.00  R0.0200 P10.000000
G82 X-0.3500 Y1.5780 
G82 X-0.3500 Y1.8181 
M05
G00 X5.5000 Y3.4000 Z7.6000 
M06 T04  ; 0.0400 
G00 Z0.0200 
M03
G04 P3.000000
G82 X-0.7000 Y0.3500 Z-0.1200 F5.00  R0.0200 P10.000000
G82 X-0.8000 Y1.8000 
G82 X-0.9000 Y1.2500 
G82 X-1.3000 Y0.3500 
G82 X-1.4000 Y1.8000 
G82 X-1.5000 Y1.2500 
G82 X-2.0000 Y0.2500 
G82 X-2.0000 Y0.8500 
G82 X-2.6000 Y0.2500 
G82 X-2.6000 Y0.8500 
G82 X-2.6500 Y1.2000 
G82 X-2.6500 Y1.8000 
G82 X-2.8000 Y0.2500 
G82 X-2.8000 Y0.8500 
M05
G00 X5.5000 Y3.4000 Z7.6000 
M06 T05  ; 0.0550 
G00 Z0.0200 
M03
G04 P3.000000
G82 X-0.3500 Y0.3516 Z-0.1200 F5.00  R0.0200 P10.000000
G82 X-0.3500 Y0.5484 
G82 X-1.7016 Y1.6500 
G82 X-1.8984 Y1.6500 
M05
G00 X5.5000 Y3.4000 Z7.6000 
M06 T06  ; 0.1102 
G00 Z0.0200 
M03
G04 P3.000000
G82 X-1.7000 Y0.6500 Z-0.1200 F5.00  R0.0200 P10.000000
(File Footer)
T01 
G00 Z0.1000 
M05
M02
