( This gcode generated by /opt/eagle/ulp/pcb-gcode.ulp )
( Copyright 2005 by John Johnson. See readme.txt for licensing terms. )

( This file generated from the board /home/srussell/Electronics Projects/CapSense/Rev3.brd )
( This file generated  6/12/2007 10:35:47  )

G20

G90
G00 Z0.1000 
G00 X0 Y0
M03
G04 P3.000000
G00 Z0.0200 
G00 X-0.1851 Y1.8711 
G01 Z-0.0100 F10.00 
G01 X-0.1851 Y1.8947 
G01 X-0.1920 Y1.9016 
G01 X-0.2320 Y1.9016 
G01 X-0.2390 Y1.8947 
G01 X-0.2390 Y1.8711 
G01 X-0.1851 Y1.8711 
G00 Z0.0200 
G00 X-1.5587 Y0.4111 
G01 Z-0.0100 F10.00 
G01 X-1.5518 Y0.4180 
G01 X-1.5518 Y0.4347 
G01 X-1.5587 Y0.4416 
G01 X-1.5754 Y0.4416 
G01 X-1.5823 Y0.4347 
G01 X-1.5823 Y0.4180 
G01 X-1.5754 Y0.4111 
G01 X-1.5587 Y0.4111 
G00 Z0.0200 
G00 X-1.8084 Y0.4464 
G01 Z-0.0100 F10.00 
G01 X-1.8236 Y0.4616 
G01 X-1.8389 Y0.4464 
G01 X-1.8389 Y0.4461 
G01 X-1.8084 Y0.4461 
G01 X-1.8084 Y0.4464 
G00 Z0.0200 
G00 X-2.0019 Y1.4851 
G01 Z-0.0100 F10.00 
G01 X-1.9950 Y1.4920 
G01 X-1.9950 Y1.5087 
G01 X-2.0019 Y1.5156 
G01 X-2.0186 Y1.5156 
G01 X-2.0255 Y1.5087 
G01 X-2.0255 Y1.4920 
G01 X-2.0186 Y1.4851 
G01 X-2.0019 Y1.4851 
G00 Z0.0200 
G00 X-1.5089 Y1.7351 
G01 Z-0.0100 F10.00 
G01 X-1.4853 Y1.7351 
G01 X-1.4784 Y1.7420 
G01 X-1.4784 Y1.7820 
G01 X-1.4853 Y1.7890 
G01 X-1.5089 Y1.7890 
G01 X-1.5089 Y1.7351 
G00 Z0.0200 
G00 X-0.9856 Y0.1414 
G01 Z-0.0100 F10.00 
G01 X-0.9856 Y0.1580 
G01 X-0.9926 Y0.1650 
G01 X-1.0162 Y0.1650 
G01 X-1.0162 Y0.1344 
G01 X-1.0043 Y0.1344 
G01 X-0.9976 Y0.1344 
G01 X-0.9926 Y0.1344 
G01 X-0.9856 Y0.1414 
G00 Z0.0200 
G00 X-1.4638 Y0.1180 
G01 Z-0.0100 F10.00 
G01 X-1.4638 Y0.1347 
G01 X-1.4708 Y0.1416 
G01 X-1.4943 Y0.1416 
G01 X-1.4943 Y0.1111 
G01 X-1.4708 Y0.1111 
G01 X-1.4638 Y0.1180 
G00 Z0.0200 
G00 X-2.2686 Y0.1347 
G01 Z-0.0100 F10.00 
G01 X-2.2755 Y0.1416 
G01 X-2.2921 Y0.1416 
G01 X-2.2991 Y0.1347 
G01 X-2.2991 Y0.1344 
G01 X-2.2686 Y0.1344 
G01 X-2.2686 Y0.1347 
G00 Z0.0200 
G00 X-2.4785 Y0.1347 
G01 Z-0.0100 F10.00 
G01 X-2.4854 Y0.1416 
G01 X-2.5021 Y0.1416 
G01 X-2.5090 Y0.1347 
G01 X-2.5090 Y0.1344 
G01 X-2.4785 Y0.1344 
G01 X-2.4785 Y0.1347 
G00 Z0.0200 
G00 X-0.5584 Y0.4464 
G01 Z-0.0100 F10.00 
G01 X-0.5736 Y0.4616 
G01 X-0.5889 Y0.4464 
G01 X-0.5889 Y0.4461 
G01 X-0.5584 Y0.4461 
G01 X-0.5584 Y0.4464 
G00 Z0.0200 
G00 X-2.7156 Y0.1147 
G01 Z-0.0100 F10.00 
G01 X-2.7120 Y0.1111 
G01 X-2.6884 Y0.1111 
G01 X-2.6884 Y0.1183 
G01 X-2.7120 Y0.1183 
G01 X-2.7156 Y0.1147 
G00 Z0.0200 
G00 X-2.6184 Y0.1180 
G01 Z-0.0100 F10.00 
G01 X-2.6184 Y0.1347 
G01 X-2.6254 Y0.1416 
G01 X-2.6490 Y0.1416 
G01 X-2.6490 Y0.1111 
G01 X-2.6254 Y0.1111 
G01 X-2.6184 Y0.1180 
G00 Z0.0200 
G00 X-2.1286 Y0.1414 
G01 Z-0.0100 F10.00 
G01 X-2.1286 Y0.1580 
G01 X-2.1355 Y0.1650 
G01 X-2.1591 Y0.1650 
G01 X-2.1591 Y0.1344 
G01 X-2.1472 Y0.1344 
G01 X-2.1405 Y0.1344 
G01 X-2.1355 Y0.1344 
G01 X-2.1286 Y0.1414 
G00 Z0.0200 
G00 X-2.0586 Y0.1347 
G01 Z-0.0100 F10.00 
G01 X-2.0656 Y0.1416 
G01 X-2.0822 Y0.1416 
G01 X-2.0891 Y0.1347 
G01 X-2.0891 Y0.1344 
G01 X-2.0586 Y0.1344 
G01 X-2.0586 Y0.1347 
G00 Z0.0200 
G00 X-1.3938 Y0.1347 
G01 Z-0.0100 F10.00 
G01 X-1.4008 Y0.1416 
G01 X-1.4174 Y0.1416 
G01 X-1.4244 Y0.1347 
G01 X-1.4244 Y0.1344 
G01 X-1.3938 Y0.1344 
G01 X-1.3938 Y0.1347 
G00 Z0.0200 
G00 X-1.1839 Y0.1347 
G01 Z-0.0100 F10.00 
G01 X-1.1909 Y0.1416 
G01 X-1.2075 Y0.1416 
G01 X-1.2144 Y0.1347 
G01 X-1.2144 Y0.1344 
G01 X-1.1839 Y0.1344 
G01 X-1.1839 Y0.1347 
G00 Z0.0200 
G00 X-0.7057 Y0.1347 
G01 Z-0.0100 F10.00 
G01 X-0.7127 Y0.1416 
G01 X-0.7293 Y0.1416 
G01 X-0.7363 Y0.1347 
G01 X-0.7363 Y0.1344 
G01 X-0.7057 Y0.1344 
G01 X-0.7057 Y0.1347 
G00 Z0.0200 
G00 X-0.4094 Y0.1111 
G01 Z-0.0100 F10.00 
G01 X-0.4025 Y0.1180 
G01 X-0.4025 Y0.1418 
G01 X-0.4297 Y0.1147 
G01 X-0.4261 Y0.1111 
G01 X-0.4094 Y0.1111 
G00 Z0.0200 
G00 X-0.4095 Y0.1650 
G01 Z-0.0100 F10.00 
G01 X-0.4261 Y0.1650 
G01 X-0.4330 Y0.1580 
G01 X-0.4330 Y0.1342 
G01 X-0.4059 Y0.1614 
G01 X-0.4095 Y0.1650 
G00 Z0.0200 
G00 X-0.3395 Y0.1111 
G01 Z-0.0100 F10.00 
G01 X-0.3325 Y0.1180 
G01 X-0.3325 Y0.1418 
G01 X-0.3597 Y0.1147 
G01 X-0.3561 Y0.1111 
G01 X-0.3395 Y0.1111 
G00 Z0.0200 
G00 X-0.3395 Y0.1650 
G01 Z-0.0100 F10.00 
G01 X-0.3561 Y0.1650 
G01 X-0.3631 Y0.1580 
G01 X-0.3631 Y0.1342 
G01 X-0.3359 Y0.1614 
G01 X-0.3395 Y0.1650 
G00 Z0.0200 
G00 X-1.6990 Y0.4347 
G01 Z-0.0100 F10.00 
G01 X-1.6990 Y0.4180 
G01 X-1.6920 Y0.4111 
G01 X-1.6684 Y0.4111 
G01 X-1.6684 Y0.4416 
G01 X-1.6920 Y0.4416 
G01 X-1.6990 Y0.4347 
G00 Z0.0200 
G00 X-0.4351 Y1.2911 
G01 Z-0.0100 F10.00 
G01 X-0.4351 Y1.3147 
G01 X-0.4420 Y1.3216 
G01 X-0.4820 Y1.3216 
G01 X-0.4890 Y1.3147 
G01 X-0.4890 Y1.2911 
G01 X-0.4351 Y1.2911 
G00 Z0.0200 
G00 X-2.1631 Y0.1946 
G01 Z-0.0100 F10.00 
G01 X-2.1631 Y0.2000 
G01 X-2.1634 Y0.2093 
G01 X-2.1660 Y0.2279 
G01 X-2.1710 Y0.2458 
G01 X-2.1784 Y0.2630 
G01 X-2.1881 Y0.2789 
G01 X-2.1999 Y0.2934 
G01 X-2.2136 Y0.3062 
G01 X-2.2289 Y0.3170 
G01 X-2.2455 Y0.3256 
G01 X-2.2631 Y0.3318 
G01 X-2.2814 Y0.3356 
G01 X-2.3000 Y0.3369 
G01 X-2.3186 Y0.3356 
G01 X-2.3369 Y0.3318 
G01 X-2.3545 Y0.3256 
G01 X-2.3711 Y0.3170 
G01 X-2.3864 Y0.3062 
G01 X-2.4001 Y0.2934 
G01 X-2.4118 Y0.2789 
G01 X-2.4216 Y0.2630 
G01 X-2.4290 Y0.2458 
G01 X-2.4340 Y0.2279 
G01 X-2.4366 Y0.2093 
G01 X-2.4369 Y0.2000 
G01 X-2.4369 Y0.1946 
G01 X-2.4446 Y0.1869 
G01 X-2.4554 Y0.1869 
G01 X-2.4631 Y0.1946 
G01 X-2.4631 Y0.2000 
G01 X-2.4631 Y0.2111 
G01 X-2.4631 Y0.2112 
G01 X-2.4601 Y0.2333 
G01 X-2.4601 Y0.2333 
G01 X-2.4540 Y0.2547 
G01 X-2.4540 Y0.2547 
G01 X-2.4451 Y0.2752 
G01 X-2.4451 Y0.2752 
G01 X-2.4335 Y0.2943 
G01 X-2.4335 Y0.2943 
G01 X-2.4195 Y0.3116 
G01 X-2.4195 Y0.3116 
G01 X-2.4195 Y0.3116 
G01 X-2.4032 Y0.3268 
G01 X-2.4032 Y0.3268 
G01 X-2.3849 Y0.3397 
G01 X-2.3849 Y0.3397 
G01 X-2.3651 Y0.3499 
G01 X-2.3651 Y0.3499 
G01 X-2.3441 Y0.3574 
G01 X-2.3441 Y0.3574 
G01 X-2.3223 Y0.3619 
G01 X-2.3223 Y0.3619 
G01 X-2.3000 Y0.3635 
G01 X-2.3000 Y0.3635 
G01 X-2.2777 Y0.3619 
G01 X-2.2777 Y0.3619 
G01 X-2.2559 Y0.3574 
G01 X-2.2559 Y0.3574 
G01 X-2.2349 Y0.3499 
G01 X-2.2151 Y0.3397 
G01 X-2.1968 Y0.3268 
G01 X-2.1968 Y0.3268 
G01 X-2.1805 Y0.3116 
G01 X-2.1805 Y0.3116 
G01 X-2.1664 Y0.2943 
G01 X-2.1549 Y0.2752 
G01 X-2.1460 Y0.2547 
G01 X-2.1399 Y0.2333 
G01 X-2.1399 Y0.2333 
G01 X-2.1369 Y0.2112 
G01 X-2.1369 Y0.2111 
G01 X-2.1369 Y0.2000 
G01 X-2.1369 Y0.1946 
G01 X-2.1446 Y0.1869 
G01 X-2.1554 Y0.1869 
G01 X-2.1631 Y0.1946 
G00 Z0.0200 
G00 X-2.2131 Y0.1946 
G01 Z-0.0100 F10.00 
G01 X-2.2131 Y0.2000 
G01 X-2.2134 Y0.2072 
G01 X-2.2157 Y0.2213 
G01 X-2.2204 Y0.2349 
G01 X-2.2272 Y0.2475 
G01 X-2.2361 Y0.2589 
G01 X-2.2466 Y0.2686 
G01 X-2.2466 Y0.2686 
G01 X-2.2586 Y0.2764 
G01 X-2.2718 Y0.2822 
G01 X-2.2857 Y0.2857 
G01 X-2.3000 Y0.2869 
G01 X-2.3143 Y0.2857 
G01 X-2.3282 Y0.2822 
G01 X-2.3414 Y0.2764 
G01 X-2.3534 Y0.2686 
G01 X-2.3639 Y0.2589 
G01 X-2.3728 Y0.2475 
G01 X-2.3796 Y0.2349 
G01 X-2.3842 Y0.2213 
G01 X-2.3866 Y0.2072 
G01 X-2.3869 Y0.2000 
G01 X-2.3869 Y0.1946 
G01 X-2.3946 Y0.1869 
G01 X-2.4054 Y0.1869 
G01 X-2.4131 Y0.1946 
G01 X-2.4131 Y0.2000 
G01 X-2.4131 Y0.2094 
G01 X-2.4131 Y0.2094 
G01 X-2.4100 Y0.2279 
G01 X-2.4100 Y0.2279 
G01 X-2.4039 Y0.2456 
G01 X-2.4039 Y0.2456 
G01 X-2.3950 Y0.2621 
G01 X-2.3950 Y0.2621 
G01 X-2.3835 Y0.2769 
G01 X-2.3835 Y0.2769 
G01 X-2.3835 Y0.2769 
G01 X-2.3697 Y0.2895 
G01 X-2.3697 Y0.2895 
G01 X-2.3540 Y0.2998 
G01 X-2.3540 Y0.2998 
G01 X-2.3368 Y0.3073 
G01 X-2.3187 Y0.3119 
G01 X-2.3000 Y0.3135 
G01 X-2.2813 Y0.3119 
G01 X-2.2631 Y0.3073 
G01 X-2.2460 Y0.2998 
G01 X-2.2460 Y0.2998 
G01 X-2.2303 Y0.2895 
G01 X-2.2165 Y0.2769 
G01 X-2.2165 Y0.2769 
G01 X-2.2050 Y0.2621 
G01 X-2.2050 Y0.2621 
G01 X-2.1961 Y0.2456 
G01 X-2.1961 Y0.2456 
G01 X-2.1900 Y0.2279 
G01 X-2.1900 Y0.2279 
G01 X-2.1869 Y0.2094 
G01 X-2.1869 Y0.2094 
G01 X-2.1869 Y0.2000 
G01 X-2.1869 Y0.1946 
G01 X-2.1946 Y0.1869 
G01 X-2.2054 Y0.1869 
G01 X-2.2131 Y0.1946 
G00 Z0.0200 
G00 X-0.2624 Y1.6176 
G01 Z-0.0100 F10.00 
G01 X-0.2624 Y1.5792 
G01 X-0.2626 Y1.5790 
G01 X-0.1801 Y1.4965 
G01 X-0.1519 Y1.4683 
G01 X-0.1519 Y1.0501 
G01 X-0.1519 Y1.0301 
G01 X-0.1801 Y1.0019 
G01 X-0.2199 Y1.0019 
G01 X-0.2481 Y1.0301 
G01 X-0.2481 Y1.0501 
G01 X-0.2481 Y1.4285 
G01 X-0.3508 Y1.5312 
G01 X-0.5519 Y1.3301 
G01 X-0.5519 Y0.9801 
G01 X-0.5519 Y0.6801 
G01 X-0.5689 Y0.6631 
G01 X-0.5689 Y0.6611 
G01 X-0.5871 Y0.6429 
G01 X-0.6129 Y0.6429 
G01 X-0.6311 Y0.6611 
G01 X-0.6311 Y0.6631 
G01 X-0.6481 Y0.6801 
G01 X-0.6481 Y0.9749 
G01 X-0.6689 Y0.9749 
G01 X-0.6689 Y0.9611 
G01 X-0.6871 Y0.9429 
G01 X-0.7129 Y0.9429 
G01 X-0.7311 Y0.9611 
G01 X-0.7311 Y1.0389 
G01 X-0.7129 Y1.0571 
G01 X-0.6871 Y1.0571 
G01 X-0.6689 Y1.0389 
G01 X-0.6689 Y1.0251 
G01 X-0.6481 Y1.0251 
G01 X-0.6481 Y1.3301 
G01 X-0.6481 Y1.3699 
G01 X-0.4376 Y1.5804 
G01 X-0.4376 Y1.6176 
G01 X-0.4104 Y1.6448 
G01 X-0.3981 Y1.6448 
G01 X-0.3981 Y1.8519 
G01 X-2.7019 Y1.8519 
G01 X-2.7019 Y1.5699 
G01 X-2.4391 Y1.3071 
G01 X-2.4371 Y1.3071 
G01 X-2.4351 Y1.3051 
G01 X-2.3649 Y1.3051 
G01 X-2.3629 Y1.3071 
G01 X-2.3371 Y1.3071 
G01 X-2.3351 Y1.3051 
G01 X-2.3272 Y1.3051 
G01 X-2.2949 Y1.2728 
G01 X-2.2949 Y1.2272 
G01 X-2.3272 Y1.1949 
G01 X-2.3351 Y1.1949 
G01 X-2.3371 Y1.1929 
G01 X-2.3629 Y1.1929 
G01 X-2.3649 Y1.1949 
G01 X-2.4351 Y1.1949 
G01 X-2.4371 Y1.1929 
G01 X-2.4629 Y1.1929 
G01 X-2.4649 Y1.1949 
G01 X-2.4728 Y1.1949 
G01 X-2.5051 Y1.2272 
G01 X-2.5051 Y1.2371 
G01 X-2.7981 Y1.5301 
G01 X-2.7981 Y1.5699 
G01 X-2.7981 Y1.9199 
G01 X-2.7699 Y1.9481 
G01 X-2.7301 Y1.9481 
G01 X-0.3301 Y1.9481 
G01 X-0.3019 Y1.9199 
G01 X-0.3019 Y1.8801 
G01 X-0.3019 Y1.6448 
G01 X-0.2896 Y1.6448 
G01 X-0.2624 Y1.6176 
G00 Z0.0200 
G00 X-1.5899 Y0.6719 
G01 Z-0.0100 F10.00 
G01 X-1.5899 Y0.6281 
G01 X-1.6067 Y0.5876 
G01 X-1.6376 Y0.5567 
G01 X-1.6781 Y0.5399 
G01 X-1.7219 Y0.5399 
G01 X-1.7624 Y0.5567 
G01 X-1.7933 Y0.5876 
G01 X-1.8101 Y0.6281 
G01 X-1.8101 Y0.6719 
G01 X-1.7933 Y0.7124 
G01 X-1.7899 Y0.7158 
G01 X-1.9071 Y0.8329 
G01 X-1.9675 Y0.8329 
G01 X-1.9855 Y0.8149 
G01 X-2.0145 Y0.8149 
G01 X-2.0325 Y0.8329 
G01 X-2.0571 Y0.8329 
G01 X-2.0671 Y0.8429 
G01 X-2.1271 Y0.9029 
G01 X-2.1371 Y0.8929 
G01 X-2.1629 Y0.8929 
G01 X-2.1811 Y0.9111 
G01 X-2.1811 Y0.9889 
G01 X-2.1629 Y1.0071 
G01 X-2.1371 Y1.0071 
G01 X-2.1189 Y0.9889 
G01 X-2.1189 Y0.9431 
G01 X-2.0429 Y0.8671 
G01 X-2.0325 Y0.8671 
G01 X-2.0145 Y0.8851 
G01 X-1.9891 Y0.8851 
G01 X-1.8871 Y0.9871 
G01 X-1.8871 Y1.2153 
G01 X-1.9066 Y1.2348 
G01 X-1.9066 Y1.2652 
G01 X-1.8852 Y1.2866 
G01 X-1.8548 Y1.2866 
G01 X-1.8334 Y1.2652 
G01 X-1.8334 Y1.2348 
G01 X-1.8529 Y1.2153 
G01 X-1.8529 Y0.9729 
G01 X-1.8629 Y0.9629 
G01 X-1.8629 Y0.9629 
G01 X-1.9587 Y0.8671 
G01 X-1.9071 Y0.8671 
G01 X-1.8929 Y0.8671 
G01 X-1.7658 Y0.7399 
G01 X-1.7624 Y0.7433 
G01 X-1.7219 Y0.7601 
G01 X-1.6781 Y0.7601 
G01 X-1.6376 Y0.7433 
G01 X-1.6067 Y0.7124 
G01 X-1.5899 Y0.6719 
G00 Z0.0200 
G00 X-2.2629 Y1.8311 
G01 Z-0.0100 F10.00 
G01 X-2.2371 Y1.8311 
G01 X-2.2189 Y1.8129 
G01 X-2.2189 Y1.7871 
G01 X-2.2371 Y1.7689 
G01 X-2.2629 Y1.7689 
G01 X-2.2639 Y1.7699 
G01 X-2.6305 Y1.7699 
G01 X-2.6355 Y1.7649 
G01 X-2.6645 Y1.7649 
G01 X-2.6851 Y1.7855 
G01 X-2.6851 Y1.8145 
G01 X-2.6645 Y1.8351 
G01 X-2.6355 Y1.8351 
G01 X-2.6305 Y1.8301 
G01 X-2.2639 Y1.8301 
G01 X-2.2629 Y1.8311 
G00 Z0.0200 
G00 X-2.1811 Y1.7871 
G01 Z-0.0100 F10.00 
G01 X-2.1811 Y1.8129 
G01 X-2.1629 Y1.8311 
G01 X-2.1371 Y1.8311 
G01 X-2.1189 Y1.8129 
G01 X-2.1189 Y1.7871 
G01 X-2.1249 Y1.7811 
G01 X-2.1249 Y1.6751 
G01 X-1.9448 Y1.6751 
G01 X-1.9448 Y1.7104 
G01 X-1.9176 Y1.7376 
G01 X-1.8792 Y1.7376 
G01 X-1.8521 Y1.7104 
G01 X-1.8521 Y1.5896 
G01 X-1.8792 Y1.5624 
G01 X-1.9176 Y1.5624 
G01 X-1.9448 Y1.5896 
G01 X-1.9448 Y1.6249 
G01 X-2.1249 Y1.6249 
G01 X-2.1249 Y1.3896 
G01 X-2.1396 Y1.3749 
G01 X-2.2199 Y1.2946 
G01 X-2.2199 Y1.2899 
G01 X-2.2189 Y1.2889 
G01 X-2.2189 Y1.2111 
G01 X-2.2199 Y1.2101 
G01 X-2.2199 Y1.1875 
G01 X-2.3699 Y1.0375 
G01 X-2.3875 Y1.0199 
G01 X-2.4199 Y1.0199 
G01 X-2.4199 Y0.9899 
G01 X-2.4189 Y0.9889 
G01 X-2.4189 Y0.9111 
G01 X-2.4371 Y0.8929 
G01 X-2.4629 Y0.8929 
G01 X-2.4811 Y0.9111 
G01 X-2.4811 Y0.9889 
G01 X-2.4801 Y0.9899 
G01 X-2.4801 Y1.0199 
G01 X-2.7699 Y1.0199 
G01 X-2.7699 Y0.8695 
G01 X-2.7649 Y0.8645 
G01 X-2.7649 Y0.8355 
G01 X-2.7855 Y0.8149 
G01 X-2.8145 Y0.8149 
G01 X-2.8351 Y0.8355 
G01 X-2.8351 Y0.8645 
G01 X-2.8301 Y0.8695 
G01 X-2.8301 Y1.0361 
G01 X-2.8311 Y1.0371 
G01 X-2.8311 Y1.0629 
G01 X-2.8129 Y1.0811 
G01 X-2.7871 Y1.0811 
G01 X-2.7861 Y1.0801 
G01 X-2.4625 Y1.0801 
G01 X-2.4125 Y1.0801 
G01 X-2.2811 Y1.2115 
G01 X-2.2811 Y1.2889 
G01 X-2.2801 Y1.2899 
G01 X-2.2801 Y1.3125 
G01 X-2.2625 Y1.3301 
G01 X-2.2554 Y1.3301 
G01 X-2.1751 Y1.4104 
G01 X-2.1751 Y1.6396 
G01 X-2.1751 Y1.6604 
G01 X-2.1751 Y1.7811 
G01 X-2.1811 Y1.7871 
G00 Z0.0200 
G00 X-1.5145 Y1.2851 
G01 Z-0.0100 F10.00 
G01 X-1.4855 Y1.2851 
G01 X-1.4649 Y1.2645 
G01 X-1.4649 Y1.2391 
G01 X-1.4329 Y1.2071 
G01 X-1.4329 Y1.1929 
G01 X-1.4329 Y1.0269 
G01 X-1.4189 Y1.0129 
G01 X-1.4189 Y0.9871 
G01 X-1.4371 Y0.9689 
G01 X-1.4629 Y0.9689 
G01 X-1.4811 Y0.9871 
G01 X-1.4811 Y1.0129 
G01 X-1.4671 Y1.0269 
G01 X-1.4671 Y1.1929 
G01 X-1.4891 Y1.2149 
G01 X-1.5145 Y1.2149 
G01 X-1.5325 Y1.2329 
G01 X-1.6975 Y1.2329 
G01 X-1.6990 Y1.2293 
G01 X-1.7093 Y1.2190 
G01 X-1.7227 Y1.2134 
G01 X-1.7373 Y1.2134 
G01 X-1.7507 Y1.2190 
G01 X-1.7610 Y1.2293 
G01 X-1.7666 Y1.2427 
G01 X-1.7666 Y1.2573 
G01 X-1.7610 Y1.2707 
G01 X-1.7507 Y1.2810 
G01 X-1.7373 Y1.2866 
G01 X-1.7227 Y1.2866 
G01 X-1.7093 Y1.2810 
G01 X-1.6990 Y1.2707 
G01 X-1.6975 Y1.2671 
G01 X-1.5325 Y1.2671 
G01 X-1.5145 Y1.2851 
G00 Z0.0200 
G00 X-0.9351 Y1.2645 
G01 Z-0.0100 F10.00 
G01 X-0.9145 Y1.2851 
G01 X-0.8855 Y1.2851 
G01 X-0.8649 Y1.2645 
G01 X-0.8649 Y1.2355 
G01 X-0.8855 Y1.2149 
G01 X-0.9109 Y1.2149 
G01 X-0.9829 Y1.1429 
G01 X-0.9829 Y1.0529 
G01 X-0.9689 Y1.0389 
G01 X-0.9689 Y0.9611 
G01 X-0.9871 Y0.9429 
G01 X-1.0129 Y0.9429 
G01 X-1.0311 Y0.9611 
G01 X-1.0311 Y1.0389 
G01 X-1.0171 Y1.0529 
G01 X-1.0171 Y1.1429 
G01 X-1.0171 Y1.1571 
G01 X-0.9351 Y1.2391 
G01 X-0.9351 Y1.2645 
G00 Z0.0200 
G00 X-1.4311 Y1.5371 
G01 Z-0.0100 F10.00 
G01 X-1.4311 Y1.5629 
G01 X-1.4131 Y1.5809 
G01 X-1.4131 Y1.7649 
G01 X-1.4145 Y1.7649 
G01 X-1.4351 Y1.7855 
G01 X-1.4351 Y1.8145 
G01 X-1.4145 Y1.8351 
G01 X-1.3855 Y1.8351 
G01 X-1.3649 Y1.8145 
G01 X-1.3649 Y1.7855 
G01 X-1.3855 Y1.7649 
G01 X-1.3869 Y1.7649 
G01 X-1.3869 Y1.5809 
G01 X-1.3689 Y1.5629 
G01 X-1.3689 Y1.5371 
G01 X-1.3871 Y1.5189 
G01 X-1.4129 Y1.5189 
G01 X-1.4311 Y1.5371 
G00 Z0.0200 
G00 X-2.3629 Y1.0071 
G01 Z-0.0100 F10.00 
G01 X-2.3371 Y1.0071 
G01 X-2.3189 Y0.9889 
G01 X-2.3189 Y0.9111 
G01 X-2.3199 Y0.9101 
G01 X-2.3199 Y0.8375 
G01 X-2.3375 Y0.8199 
G01 X-2.3625 Y0.8199 
G01 X-2.3699 Y0.8199 
G01 X-2.3699 Y0.7639 
G01 X-2.3689 Y0.7629 
G01 X-2.3689 Y0.7371 
G01 X-2.3871 Y0.7189 
G01 X-2.4129 Y0.7189 
G01 X-2.4311 Y0.7371 
G01 X-2.4311 Y0.7629 
G01 X-2.4301 Y0.7639 
G01 X-2.4301 Y0.8199 
G01 X-2.5805 Y0.8199 
G01 X-2.5855 Y0.8149 
G01 X-2.6145 Y0.8149 
G01 X-2.6351 Y0.8355 
G01 X-2.6351 Y0.8645 
G01 X-2.6145 Y0.8851 
G01 X-2.5855 Y0.8851 
G01 X-2.5805 Y0.8801 
G01 X-2.4125 Y0.8801 
G01 X-2.3875 Y0.8801 
G01 X-2.3801 Y0.8801 
G01 X-2.3801 Y0.9101 
G01 X-2.3811 Y0.9111 
G01 X-2.3811 Y0.9889 
G01 X-2.3629 Y1.0071 
G00 Z0.0200 
G00 X-2.2629 Y1.0071 
G01 Z-0.0100 F10.00 
G01 X-2.2371 Y1.0071 
G01 X-2.2189 Y0.9889 
G01 X-2.2189 Y0.9111 
G01 X-2.2199 Y0.9101 
G01 X-2.2199 Y0.8125 
G01 X-2.1885 Y0.7811 
G01 X-2.1871 Y0.7811 
G01 X-2.1689 Y0.7629 
G01 X-2.1689 Y0.7371 
G01 X-2.1871 Y0.7189 
G01 X-2.2129 Y0.7189 
G01 X-2.2311 Y0.7371 
G01 X-2.2311 Y0.7385 
G01 X-2.2801 Y0.7875 
G01 X-2.2801 Y0.8125 
G01 X-2.2801 Y0.9101 
G01 X-2.2811 Y0.9111 
G01 X-2.2811 Y0.9889 
G01 X-2.2629 Y1.0071 
G00 Z0.0200 
G00 X-0.7689 Y1.0389 
G01 Z-0.0100 F10.00 
G01 X-0.7689 Y0.9611 
G01 X-0.7871 Y0.9429 
G01 X-0.8129 Y0.9429 
G01 X-0.8311 Y0.9611 
G01 X-0.8311 Y1.0389 
G01 X-0.8171 Y1.0529 
G01 X-0.8171 Y1.5571 
G01 X-0.8071 Y1.5671 
G01 X-0.7311 Y1.6431 
G01 X-0.7311 Y1.6629 
G01 X-0.7171 Y1.6769 
G01 X-0.7171 Y1.6929 
G01 X-0.7891 Y1.7649 
G01 X-0.8145 Y1.7649 
G01 X-0.8351 Y1.7855 
G01 X-0.8351 Y1.8145 
G01 X-0.8145 Y1.8351 
G01 X-0.7855 Y1.8351 
G01 X-0.7649 Y1.8145 
G01 X-0.7649 Y1.7891 
G01 X-0.6929 Y1.7171 
G01 X-0.6829 Y1.7071 
G01 X-0.6829 Y1.6769 
G01 X-0.6689 Y1.6629 
G01 X-0.6689 Y1.6371 
G01 X-0.6871 Y1.6189 
G01 X-0.7069 Y1.6189 
G01 X-0.7829 Y1.5429 
G01 X-0.7829 Y1.0529 
G01 X-0.7689 Y1.0389 
G00 Z0.0200 
G00 X-0.9129 Y1.0571 
G01 Z-0.0100 F10.00 
G01 X-0.8871 Y1.0571 
G01 X-0.8689 Y1.0389 
G01 X-0.8689 Y0.9611 
G01 X-0.8829 Y0.9471 
G01 X-0.8829 Y0.8929 
G01 X-0.8929 Y0.8829 
G01 X-0.9071 Y0.8829 
G01 X-1.1071 Y0.8829 
G01 X-1.1171 Y0.8929 
G01 X-1.1171 Y0.9071 
G01 X-1.1171 Y0.9471 
G01 X-1.1311 Y0.9611 
G01 X-1.1311 Y1.0389 
G01 X-1.1171 Y1.0529 
G01 X-1.1171 Y1.4429 
G01 X-1.1931 Y1.5189 
G01 X-1.2129 Y1.5189 
G01 X-1.2311 Y1.5371 
G01 X-1.2311 Y1.5569 
G01 X-1.2931 Y1.6189 
G01 X-1.3129 Y1.6189 
G01 X-1.3311 Y1.6371 
G01 X-1.3311 Y1.6629 
G01 X-1.3129 Y1.6811 
G01 X-1.2871 Y1.6811 
G01 X-1.2689 Y1.6629 
G01 X-1.2689 Y1.6431 
G01 X-1.2069 Y1.5811 
G01 X-1.1871 Y1.5811 
G01 X-1.1689 Y1.5629 
G01 X-1.1689 Y1.5431 
G01 X-1.0929 Y1.4671 
G01 X-1.0829 Y1.4571 
G01 X-1.0829 Y1.0529 
G01 X-1.0689 Y1.0389 
G01 X-1.0689 Y0.9611 
G01 X-1.0829 Y0.9471 
G01 X-1.0829 Y0.9171 
G01 X-0.9171 Y0.9171 
G01 X-0.9171 Y0.9471 
G01 X-0.9311 Y0.9611 
G01 X-0.9311 Y1.0389 
G01 X-0.9129 Y1.0571 
G00 Z0.0200 
G00 X-0.9129 Y0.7571 
G01 Z-0.0100 F10.00 
G01 X-0.8871 Y0.7571 
G01 X-0.8689 Y0.7389 
G01 X-0.8689 Y0.6611 
G01 X-0.8871 Y0.6429 
G01 X-0.9129 Y0.6429 
G01 X-0.9311 Y0.6611 
G01 X-0.9311 Y0.7389 
G01 X-0.9129 Y0.7571 
G00 Z0.0200 
G00 X-0.7689 Y0.7389 
G01 Z-0.0100 F10.00 
G01 X-0.7689 Y0.6611 
G01 X-0.7829 Y0.6471 
G01 X-0.7829 Y0.5429 
G01 X-0.7929 Y0.5329 
G01 X-0.9929 Y0.3329 
G01 X-1.0071 Y0.3329 
G01 X-1.2675 Y0.3329 
G01 X-1.2855 Y0.3149 
G01 X-1.3145 Y0.3149 
G01 X-1.3351 Y0.3355 
G01 X-1.3351 Y0.3645 
G01 X-1.3145 Y0.3851 
G01 X-1.2855 Y0.3851 
G01 X-1.2675 Y0.3671 
G01 X-1.0071 Y0.3671 
G01 X-0.8171 Y0.5571 
G01 X-0.8171 Y0.6471 
G01 X-0.8311 Y0.6611 
G01 X-0.8311 Y0.7389 
G01 X-0.8171 Y0.7529 
G01 X-0.8171 Y0.7829 
G01 X-1.2071 Y0.7829 
G01 X-1.2171 Y0.7929 
G01 X-1.2171 Y0.8071 
G01 X-1.2171 Y0.9471 
G01 X-1.2311 Y0.9611 
G01 X-1.2311 Y1.0389 
G01 X-1.2129 Y1.0571 
G01 X-1.1871 Y1.0571 
G01 X-1.1689 Y1.0389 
G01 X-1.1689 Y0.9611 
G01 X-1.1829 Y0.9471 
G01 X-1.1829 Y0.8171 
G01 X-0.8071 Y0.8171 
G01 X-0.7929 Y0.8171 
G01 X-0.7829 Y0.8071 
G01 X-0.7829 Y0.7529 
G01 X-0.7689 Y0.7389 
G00 Z0.0200 
G00 X-0.2551 Y1.9647 
G01 Z-0.0100 F10.00 
G01 X-0.2551 Y1.9714 
G01 X-0.2387 Y1.9878 
G01 X-0.2320 Y1.9878 
G01 X-0.2273 Y1.9831 
G01 X-0.2273 Y1.9764 
G01 X-0.2390 Y1.9647 
G01 X-0.2390 Y1.9480 
G01 X-0.2320 Y1.9411 
G01 X-0.1920 Y1.9411 
G01 X-0.1851 Y1.9480 
G01 X-0.1851 Y1.9647 
G01 X-0.1968 Y1.9764 
G01 X-0.1968 Y1.9831 
G01 X-0.1920 Y1.9878 
G01 X-0.1853 Y1.9878 
G01 X-0.1829 Y1.9854 
G01 X-0.1689 Y1.9714 
G01 X-0.1689 Y1.9647 
G01 X-0.1689 Y1.9413 
G01 X-0.1736 Y1.9366 
G01 X-0.1853 Y1.9249 
G01 X-0.1920 Y1.9249 
G01 X-0.2387 Y1.9249 
G01 X-0.2389 Y1.9251 
G01 X-0.2504 Y1.9366 
G01 X-0.2504 Y1.9366 
G01 X-0.2525 Y1.9387 
G01 X-0.2528 Y1.9390 
G01 X-0.2551 Y1.9413 
G01 X-0.2551 Y1.9480 
G01 X-0.2551 Y1.9647 
G00 Z0.0200 
G00 X-0.2551 Y1.7897 
G01 Z-0.0100 F10.00 
G01 X-0.2551 Y1.7964 
G01 X-0.2504 Y1.8011 
G01 X-0.2037 Y1.8011 
G01 X-0.1884 Y1.8164 
G01 X-0.2037 Y1.8317 
G01 X-0.2504 Y1.8317 
G01 X-0.2551 Y1.8364 
G01 X-0.2551 Y1.8431 
G01 X-0.2504 Y1.8478 
G01 X-0.1970 Y1.8478 
G01 X-0.1960 Y1.8468 
G01 X-0.1946 Y1.8455 
G01 X-0.1942 Y1.8450 
G01 X-0.1923 Y1.8431 
G01 X-0.1689 Y1.8198 
G01 X-0.1689 Y1.8130 
G01 X-0.1736 Y1.8083 
G01 X-0.1970 Y1.7850 
G01 X-0.2037 Y1.7850 
G01 X-0.2504 Y1.7850 
G01 X-0.2551 Y1.7897 
G00 Z0.0200 
G00 X-0.2551 Y1.7731 
G01 Z-0.0100 F10.00 
G01 X-0.2504 Y1.7779 
G01 X-0.2437 Y1.7779 
G01 X-0.2390 Y1.7731 
G01 X-0.2390 Y1.7312 
G01 X-0.2251 Y1.7312 
G01 X-0.2304 Y1.7416 
G01 X-0.2318 Y1.7431 
G01 X-0.2318 Y1.7445 
G01 X-0.2318 Y1.7446 
G01 X-0.2318 Y1.7547 
G01 X-0.2318 Y1.7615 
G01 X-0.2201 Y1.7731 
G01 X-0.2154 Y1.7779 
G01 X-0.1920 Y1.7779 
G01 X-0.1853 Y1.7779 
G01 X-0.1829 Y1.7755 
G01 X-0.1824 Y1.7749 
G01 X-0.1806 Y1.7731 
G01 X-0.1806 Y1.7731 
G01 X-0.1691 Y1.7616 
G01 X-0.1689 Y1.7615 
G01 X-0.1689 Y1.7381 
G01 X-0.1689 Y1.7314 
G01 X-0.1853 Y1.7150 
G01 X-0.1920 Y1.7150 
G01 X-0.1968 Y1.7197 
G01 X-0.1968 Y1.7264 
G01 X-0.1851 Y1.7381 
G01 X-0.1851 Y1.7548 
G01 X-0.1920 Y1.7617 
G01 X-0.2087 Y1.7617 
G01 X-0.2156 Y1.7547 
G01 X-0.2156 Y1.7483 
G01 X-0.2054 Y1.7279 
G01 X-0.2039 Y1.7264 
G01 X-0.2039 Y1.7250 
G01 X-0.2039 Y1.7197 
G01 X-0.2087 Y1.7150 
G01 X-0.2154 Y1.7150 
G01 X-0.2504 Y1.7150 
G01 X-0.2551 Y1.7197 
G01 X-0.2551 Y1.7264 
G01 X-0.2551 Y1.7731 
G00 Z0.0200 
G00 X-0.2551 Y1.6148 
G01 Z-0.0100 F10.00 
G01 X-0.2551 Y1.6615 
G01 X-0.2551 Y1.6682 
G01 X-0.2504 Y1.6729 
G01 X-0.2387 Y1.6729 
G01 X-0.2320 Y1.6729 
G01 X-0.1853 Y1.6262 
G01 X-0.1736 Y1.6262 
G01 X-0.1689 Y1.6215 
G01 X-0.1689 Y1.6148 
G01 X-0.1736 Y1.6100 
G01 X-0.1920 Y1.6100 
G01 X-0.1927 Y1.6107 
G01 X-0.2387 Y1.6567 
G01 X-0.2390 Y1.6567 
G01 X-0.2390 Y1.6148 
G01 X-0.2437 Y1.6100 
G01 X-0.2504 Y1.6100 
G01 X-0.2551 Y1.6148 
G00 Z0.0200 
G00 X-0.4887 Y1.3378 
G01 Z-0.0100 F10.00 
G01 X-0.4820 Y1.3378 
G01 X-0.4353 Y1.3378 
G01 X-0.4306 Y1.3331 
G01 X-0.4306 Y1.3331 
G01 X-0.4189 Y1.3214 
G01 X-0.4189 Y1.3147 
G01 X-0.4189 Y1.2797 
G01 X-0.4236 Y1.2749 
G01 X-0.4304 Y1.2749 
G01 X-0.4937 Y1.2749 
G01 X-0.5004 Y1.2749 
G01 X-0.5051 Y1.2797 
G01 X-0.5051 Y1.3214 
G01 X-0.5004 Y1.3261 
G01 X-0.4887 Y1.3378 
G00 Z0.0200 
G00 X-0.5004 Y1.2211 
G01 Z-0.0100 F10.00 
G01 X-0.4995 Y1.2211 
G01 X-0.4537 Y1.2516 
G01 X-0.5004 Y1.2516 
G01 X-0.5051 Y1.2564 
G01 X-0.5051 Y1.2631 
G01 X-0.5004 Y1.2678 
G01 X-0.4294 Y1.2678 
G01 X-0.4283 Y1.2678 
G01 X-0.4236 Y1.2678 
G01 X-0.4189 Y1.2631 
G01 X-0.4189 Y1.2564 
G01 X-0.4200 Y1.2553 
G01 X-0.4218 Y1.2535 
G01 X-0.4236 Y1.2516 
G01 X-0.4246 Y1.2516 
G01 X-0.4703 Y1.2211 
G01 X-0.4236 Y1.2211 
G01 X-0.4189 Y1.2164 
G01 X-0.4189 Y1.2097 
G01 X-0.4236 Y1.2049 
G01 X-0.4946 Y1.2049 
G01 X-0.5004 Y1.2049 
G01 X-0.5051 Y1.2097 
G01 X-0.5051 Y1.2164 
G01 X-0.5022 Y1.2193 
G01 X-0.5004 Y1.2211 
G00 Z0.0200 
G00 X-0.4887 Y1.1979 
G01 Z-0.0100 F10.00 
G01 X-0.4820 Y1.1979 
G01 X-0.4773 Y1.1931 
G01 X-0.4773 Y1.1864 
G01 X-0.4890 Y1.1747 
G01 X-0.4890 Y1.1581 
G01 X-0.4820 Y1.1512 
G01 X-0.4420 Y1.1512 
G01 X-0.4351 Y1.1581 
G01 X-0.4351 Y1.1747 
G01 X-0.4420 Y1.1817 
G01 X-0.4539 Y1.1817 
G01 X-0.4539 Y1.1631 
G01 X-0.4587 Y1.1583 
G01 X-0.4654 Y1.1583 
G01 X-0.4701 Y1.1631 
G01 X-0.4701 Y1.1931 
G01 X-0.4654 Y1.1979 
G01 X-0.4587 Y1.1979 
G01 X-0.4353 Y1.1979 
G01 X-0.4344 Y1.1969 
G01 X-0.4329 Y1.1955 
G01 X-0.4326 Y1.1952 
G01 X-0.4306 Y1.1931 
G01 X-0.4306 Y1.1931 
G01 X-0.4189 Y1.1814 
G01 X-0.4189 Y1.1747 
G01 X-0.4189 Y1.1514 
G01 X-0.4236 Y1.1466 
G01 X-0.4353 Y1.1350 
G01 X-0.4420 Y1.1350 
G01 X-0.4887 Y1.1350 
G01 X-0.4889 Y1.1352 
G01 X-0.5004 Y1.1466 
G01 X-0.5004 Y1.1466 
G01 X-0.5021 Y1.1484 
G01 X-0.5028 Y1.1490 
G01 X-0.5051 Y1.1514 
G01 X-0.5051 Y1.1581 
G01 X-0.5051 Y1.1814 
G01 X-0.5004 Y1.1862 
G01 X-0.4887 Y1.1979 
G00 Z0.0200 
G00 X-1.6684 Y0.4764 
G01 Z-0.0100 F10.00 
G01 X-1.6637 Y0.4811 
G01 X-1.6570 Y0.4811 
G01 X-1.6522 Y0.4764 
G01 X-1.6522 Y0.4531 
G01 X-1.6522 Y0.4464 
G01 X-1.6522 Y0.4064 
G01 X-1.6522 Y0.3996 
G01 X-1.6570 Y0.3949 
G01 X-1.6920 Y0.3949 
G01 X-1.6987 Y0.3949 
G01 X-1.7104 Y0.4066 
G01 X-1.7151 Y0.4113 
G01 X-1.7151 Y0.4347 
G01 X-1.7151 Y0.4414 
G01 X-1.7035 Y0.4531 
G01 X-1.7035 Y0.4531 
G01 X-1.6987 Y0.4578 
G01 X-1.6684 Y0.4578 
G01 X-1.6684 Y0.4764 
G00 Z0.0200 
G00 X-1.9717 Y1.5271 
G01 Z-0.0100 F10.00 
G01 X-1.9670 Y1.5318 
G01 X-1.9603 Y1.5318 
G01 X-1.9555 Y1.5271 
G01 X-1.9555 Y1.4920 
G01 X-1.9486 Y1.4851 
G01 X-1.9250 Y1.4851 
G01 X-1.9250 Y1.5271 
G01 X-1.9203 Y1.5318 
G01 X-1.9136 Y1.5318 
G01 X-1.9088 Y1.5271 
G01 X-1.9088 Y1.4736 
G01 X-1.9136 Y1.4689 
G01 X-1.9203 Y1.4689 
G01 X-1.9553 Y1.4689 
G01 X-1.9601 Y1.4736 
G01 X-1.9717 Y1.4853 
G01 X-1.9717 Y1.4920 
G01 X-1.9717 Y1.5271 
G00 Z0.0200 
G00 X-2.1117 Y1.5504 
G01 Z-0.0100 F10.00 
G01 X-2.1069 Y1.5551 
G01 X-2.1002 Y1.5551 
G01 X-2.0955 Y1.5504 
G01 X-2.0955 Y1.5037 
G01 X-2.0802 Y1.4884 
G01 X-2.0650 Y1.5037 
G01 X-2.0650 Y1.5504 
G01 X-2.0602 Y1.5551 
G01 X-2.0535 Y1.5551 
G01 X-2.0488 Y1.5504 
G01 X-2.0488 Y1.4970 
G01 X-2.0505 Y1.4953 
G01 X-2.0512 Y1.4946 
G01 X-2.0513 Y1.4945 
G01 X-2.0535 Y1.4923 
G01 X-2.0535 Y1.4923 
G01 X-2.0769 Y1.4689 
G01 X-2.0836 Y1.4689 
G01 X-2.0883 Y1.4736 
G01 X-2.1117 Y1.4970 
G01 X-2.1117 Y1.5037 
G01 X-2.1117 Y1.5504 
G00 Z0.0200 
G00 X-0.3093 Y0.1697 
G01 Z-0.0100 F10.00 
G01 X-0.3093 Y0.1764 
G01 X-0.3045 Y0.1811 
G01 X-0.2578 Y0.1811 
G01 X-0.2511 Y0.1811 
G01 X-0.2464 Y0.1764 
G01 X-0.2464 Y0.1647 
G01 X-0.2464 Y0.1580 
G01 X-0.2931 Y0.1113 
G01 X-0.2931 Y0.0996 
G01 X-0.2978 Y0.0949 
G01 X-0.3045 Y0.0949 
G01 X-0.3093 Y0.0996 
G01 X-0.3093 Y0.1180 
G01 X-0.3086 Y0.1187 
G01 X-0.2626 Y0.1647 
G01 X-0.2626 Y0.1650 
G01 X-0.3045 Y0.1650 
G01 X-0.3093 Y0.1697 
G00 Z0.0200 
G00 X-0.3792 Y0.1580 
G01 Z-0.0100 F10.00 
G01 X-0.3792 Y0.1647 
G01 X-0.3676 Y0.1764 
G01 X-0.3676 Y0.1764 
G01 X-0.3653 Y0.1786 
G01 X-0.3652 Y0.1788 
G01 X-0.3642 Y0.1798 
G01 X-0.3628 Y0.1811 
G01 X-0.3395 Y0.1811 
G01 X-0.3328 Y0.1811 
G01 X-0.3211 Y0.1695 
G01 X-0.3164 Y0.1647 
G01 X-0.3164 Y0.1580 
G01 X-0.3164 Y0.1180 
G01 X-0.3164 Y0.1113 
G01 X-0.3187 Y0.1089 
G01 X-0.3193 Y0.1083 
G01 X-0.3211 Y0.1066 
G01 X-0.3211 Y0.1066 
G01 X-0.3326 Y0.0951 
G01 X-0.3328 Y0.0949 
G01 X-0.3561 Y0.0949 
G01 X-0.3628 Y0.0949 
G01 X-0.3745 Y0.1066 
G01 X-0.3792 Y0.1113 
G01 X-0.3792 Y0.1180 
G01 X-0.3792 Y0.1580 
G00 Z0.0200 
G00 X-0.4492 Y0.1580 
G01 Z-0.0100 F10.00 
G01 X-0.4492 Y0.1647 
G01 X-0.4375 Y0.1764 
G01 X-0.4375 Y0.1764 
G01 X-0.4328 Y0.1811 
G01 X-0.4095 Y0.1811 
G01 X-0.4027 Y0.1811 
G01 X-0.3911 Y0.1695 
G01 X-0.3863 Y0.1647 
G01 X-0.3863 Y0.1580 
G01 X-0.3863 Y0.1180 
G01 X-0.3863 Y0.1113 
G01 X-0.3887 Y0.1089 
G01 X-0.3892 Y0.1085 
G01 X-0.3911 Y0.1066 
G01 X-0.3911 Y0.1066 
G01 X-0.4026 Y0.0951 
G01 X-0.4027 Y0.0949 
G01 X-0.4261 Y0.0949 
G01 X-0.4328 Y0.0949 
G01 X-0.4445 Y0.1066 
G01 X-0.4492 Y0.1113 
G01 X-0.4492 Y0.1180 
G01 X-0.4492 Y0.1580 
G00 Z0.0200 
G00 X-0.7060 Y0.1111 
G01 Z-0.0100 F10.00 
G01 X-0.7012 Y0.1064 
G01 X-0.7012 Y0.0996 
G01 X-0.7060 Y0.0949 
G01 X-0.7293 Y0.0949 
G01 X-0.7360 Y0.0949 
G01 X-0.7477 Y0.1066 
G01 X-0.7524 Y0.1113 
G01 X-0.7524 Y0.1230 
G01 X-0.7524 Y0.1297 
G01 X-0.7524 Y0.1347 
G01 X-0.7524 Y0.1414 
G01 X-0.7408 Y0.1531 
G01 X-0.7408 Y0.1531 
G01 X-0.7387 Y0.1551 
G01 X-0.7384 Y0.1554 
G01 X-0.7370 Y0.1568 
G01 X-0.7360 Y0.1578 
G01 X-0.7127 Y0.1578 
G01 X-0.7060 Y0.1578 
G01 X-0.6943 Y0.1461 
G01 X-0.6896 Y0.1414 
G01 X-0.6896 Y0.1297 
G01 X-0.6896 Y0.1230 
G01 X-0.6943 Y0.1183 
G01 X-0.7363 Y0.1183 
G01 X-0.7363 Y0.1180 
G01 X-0.7293 Y0.1111 
G01 X-0.7060 Y0.1111 
G00 Z0.0200 
G00 X-0.8224 Y0.0996 
G01 Z-0.0100 F10.00 
G01 X-0.8224 Y0.1064 
G01 X-0.8177 Y0.1111 
G01 X-0.7827 Y0.1111 
G01 X-0.7791 Y0.1147 
G01 X-0.7827 Y0.1183 
G01 X-0.7993 Y0.1183 
G01 X-0.8060 Y0.1183 
G01 X-0.8084 Y0.1206 
G01 X-0.8090 Y0.1212 
G01 X-0.8108 Y0.1230 
G01 X-0.8108 Y0.1230 
G01 X-0.8222 Y0.1345 
G01 X-0.8224 Y0.1347 
G01 X-0.8224 Y0.1414 
G01 X-0.8108 Y0.1531 
G01 X-0.8108 Y0.1531 
G01 X-0.8086 Y0.1552 
G01 X-0.8084 Y0.1554 
G01 X-0.8072 Y0.1566 
G01 X-0.8060 Y0.1578 
G01 X-0.7643 Y0.1578 
G01 X-0.7595 Y0.1531 
G01 X-0.7595 Y0.1464 
G01 X-0.7643 Y0.1416 
G01 X-0.7993 Y0.1416 
G01 X-0.8029 Y0.1380 
G01 X-0.7993 Y0.1344 
G01 X-0.7760 Y0.1344 
G01 X-0.7712 Y0.1297 
G01 X-0.7595 Y0.1180 
G01 X-0.7595 Y0.1113 
G01 X-0.7609 Y0.1099 
G01 X-0.7619 Y0.1089 
G01 X-0.7621 Y0.1088 
G01 X-0.7643 Y0.1066 
G01 X-0.7643 Y0.1066 
G01 X-0.7760 Y0.0949 
G01 X-0.7827 Y0.0949 
G01 X-0.8177 Y0.0949 
G01 X-0.8224 Y0.0996 
G00 Z0.0200 
G00 X-0.8924 Y0.0996 
G01 Z-0.0100 F10.00 
G01 X-0.8924 Y0.1064 
G01 X-0.8877 Y0.1111 
G01 X-0.8526 Y0.1111 
G01 X-0.8490 Y0.1147 
G01 X-0.8526 Y0.1183 
G01 X-0.8693 Y0.1183 
G01 X-0.8760 Y0.1183 
G01 X-0.8784 Y0.1206 
G01 X-0.8788 Y0.1211 
G01 X-0.8807 Y0.1230 
G01 X-0.8807 Y0.1230 
G01 X-0.8922 Y0.1345 
G01 X-0.8924 Y0.1347 
G01 X-0.8924 Y0.1414 
G01 X-0.8807 Y0.1531 
G01 X-0.8807 Y0.1531 
G01 X-0.8785 Y0.1553 
G01 X-0.8784 Y0.1554 
G01 X-0.8776 Y0.1562 
G01 X-0.8760 Y0.1578 
G01 X-0.8343 Y0.1578 
G01 X-0.8295 Y0.1531 
G01 X-0.8295 Y0.1464 
G01 X-0.8343 Y0.1416 
G01 X-0.8693 Y0.1416 
G01 X-0.8729 Y0.1380 
G01 X-0.8693 Y0.1344 
G01 X-0.8459 Y0.1344 
G01 X-0.8412 Y0.1297 
G01 X-0.8295 Y0.1180 
G01 X-0.8295 Y0.1113 
G01 X-0.8316 Y0.1093 
G01 X-0.8319 Y0.1089 
G01 X-0.8319 Y0.1089 
G01 X-0.8343 Y0.1066 
G01 X-0.8343 Y0.1066 
G01 X-0.8459 Y0.0949 
G01 X-0.8526 Y0.0949 
G01 X-0.8877 Y0.0949 
G01 X-0.8924 Y0.0996 
G00 Z0.0200 
G00 X-1.1841 Y0.1111 
G01 Z-0.0100 F10.00 
G01 X-1.1794 Y0.1064 
G01 X-1.1794 Y0.0996 
G01 X-1.1841 Y0.0949 
G01 X-1.2075 Y0.0949 
G01 X-1.2142 Y0.0949 
G01 X-1.2259 Y0.1066 
G01 X-1.2306 Y0.1113 
G01 X-1.2306 Y0.1230 
G01 X-1.2306 Y0.1297 
G01 X-1.2306 Y0.1347 
G01 X-1.2306 Y0.1414 
G01 X-1.2189 Y0.1531 
G01 X-1.2189 Y0.1531 
G01 X-1.2169 Y0.1551 
G01 X-1.2166 Y0.1554 
G01 X-1.2152 Y0.1568 
G01 X-1.2142 Y0.1578 
G01 X-1.1909 Y0.1578 
G01 X-1.1841 Y0.1578 
G01 X-1.1725 Y0.1461 
G01 X-1.1677 Y0.1414 
G01 X-1.1677 Y0.1297 
G01 X-1.1677 Y0.1230 
G01 X-1.1725 Y0.1183 
G01 X-1.2144 Y0.1183 
G01 X-1.2144 Y0.1180 
G01 X-1.2075 Y0.1111 
G01 X-1.1841 Y0.1111 
G00 Z0.0200 
G00 X-1.2889 Y0.1531 
G01 Z-0.0100 F10.00 
G01 X-1.2871 Y0.1549 
G01 X-1.2866 Y0.1554 
G01 X-1.2842 Y0.1578 
G01 X-1.2775 Y0.1578 
G01 X-1.2424 Y0.1578 
G01 X-1.2377 Y0.1531 
G01 X-1.2377 Y0.1464 
G01 X-1.2424 Y0.1416 
G01 X-1.2775 Y0.1416 
G01 X-1.2844 Y0.1347 
G01 X-1.2844 Y0.1180 
G01 X-1.2775 Y0.1111 
G01 X-1.2424 Y0.1111 
G01 X-1.2377 Y0.1064 
G01 X-1.2377 Y0.0996 
G01 X-1.2424 Y0.0949 
G01 X-1.2842 Y0.0949 
G01 X-1.2889 Y0.0996 
G01 X-1.3006 Y0.1113 
G01 X-1.3006 Y0.1180 
G01 X-1.3006 Y0.1414 
G01 X-1.3004 Y0.1416 
G01 X-1.2889 Y0.1531 
G01 X-1.2889 Y0.1531 
G00 Z0.0200 
G00 X-1.3941 Y0.1111 
G01 Z-0.0100 F10.00 
G01 X-1.3893 Y0.1064 
G01 X-1.3893 Y0.0996 
G01 X-1.3941 Y0.0949 
G01 X-1.4174 Y0.0949 
G01 X-1.4241 Y0.0949 
G01 X-1.4358 Y0.1066 
G01 X-1.4406 Y0.1113 
G01 X-1.4406 Y0.1230 
G01 X-1.4406 Y0.1297 
G01 X-1.4406 Y0.1347 
G01 X-1.4406 Y0.1414 
G01 X-1.4289 Y0.1531 
G01 X-1.4289 Y0.1531 
G01 X-1.4265 Y0.1554 
G01 X-1.4265 Y0.1554 
G01 X-1.4264 Y0.1556 
G01 X-1.4241 Y0.1578 
G01 X-1.4008 Y0.1578 
G01 X-1.3941 Y0.1578 
G01 X-1.3824 Y0.1461 
G01 X-1.3777 Y0.1414 
G01 X-1.3777 Y0.1297 
G01 X-1.3777 Y0.1230 
G01 X-1.3824 Y0.1183 
G01 X-1.4244 Y0.1183 
G01 X-1.4244 Y0.1180 
G01 X-1.4174 Y0.1111 
G01 X-1.3941 Y0.1111 
G00 Z0.0200 
G00 X-1.9654 Y0.1113 
G01 Z-0.0100 F10.00 
G01 X-1.9654 Y0.1180 
G01 X-1.9606 Y0.1228 
G01 X-1.9490 Y0.1228 
G01 X-1.9423 Y0.1228 
G01 X-1.9375 Y0.1180 
G01 X-1.9375 Y0.1064 
G01 X-1.9375 Y0.0996 
G01 X-1.9423 Y0.0949 
G01 X-1.9606 Y0.0949 
G01 X-1.9654 Y0.0996 
G01 X-1.9654 Y0.1064 
G01 X-1.9654 Y0.1113 
G00 Z0.0200 
G00 X-2.0589 Y0.1111 
G01 Z-0.0100 F10.00 
G01 X-2.0541 Y0.1064 
G01 X-2.0541 Y0.0996 
G01 X-2.0589 Y0.0949 
G01 X-2.0822 Y0.0949 
G01 X-2.0889 Y0.0949 
G01 X-2.1006 Y0.1066 
G01 X-2.1053 Y0.1113 
G01 X-2.1053 Y0.1230 
G01 X-2.1053 Y0.1297 
G01 X-2.1053 Y0.1347 
G01 X-2.1053 Y0.1414 
G01 X-2.0937 Y0.1531 
G01 X-2.0937 Y0.1531 
G01 X-2.0889 Y0.1578 
G01 X-2.0656 Y0.1578 
G01 X-2.0589 Y0.1578 
G01 X-2.0472 Y0.1461 
G01 X-2.0424 Y0.1414 
G01 X-2.0424 Y0.1297 
G01 X-2.0424 Y0.1230 
G01 X-2.0472 Y0.1183 
G01 X-2.0891 Y0.1183 
G01 X-2.0891 Y0.1180 
G01 X-2.0822 Y0.1111 
G01 X-2.0589 Y0.1111 
G00 Z0.0200 
G00 X-2.1753 Y0.0996 
G01 Z-0.0100 F10.00 
G01 X-2.1753 Y0.1697 
G01 X-2.1753 Y0.1764 
G01 X-2.1706 Y0.1811 
G01 X-2.1355 Y0.1811 
G01 X-2.1288 Y0.1811 
G01 X-2.1172 Y0.1695 
G01 X-2.1124 Y0.1647 
G01 X-2.1124 Y0.1414 
G01 X-2.1124 Y0.1347 
G01 X-2.1266 Y0.1205 
G01 X-2.1148 Y0.1087 
G01 X-2.1124 Y0.1064 
G01 X-2.1124 Y0.0996 
G01 X-2.1172 Y0.0949 
G01 X-2.1239 Y0.0949 
G01 X-2.1472 Y0.1183 
G01 X-2.1591 Y0.1183 
G01 X-2.1591 Y0.0996 
G01 X-2.1639 Y0.0949 
G01 X-2.1706 Y0.0949 
G01 X-2.1753 Y0.0996 
G00 Z0.0200 
G00 X-2.4552 Y0.0996 
G01 Z-0.0100 F10.00 
G01 X-2.4552 Y0.1464 
G01 X-2.4552 Y0.1531 
G01 X-2.4505 Y0.1578 
G01 X-2.4154 Y0.1578 
G01 X-2.4087 Y0.1578 
G01 X-2.3971 Y0.1461 
G01 X-2.3923 Y0.1414 
G01 X-2.3923 Y0.0996 
G01 X-2.3971 Y0.0949 
G01 X-2.4038 Y0.0949 
G01 X-2.4085 Y0.0996 
G01 X-2.4085 Y0.1347 
G01 X-2.4154 Y0.1416 
G01 X-2.4390 Y0.1416 
G01 X-2.4390 Y0.0996 
G01 X-2.4438 Y0.0949 
G01 X-2.4505 Y0.0949 
G01 X-2.4552 Y0.0996 
G00 Z0.0200 
G00 X-2.6651 Y0.0763 
G01 Z-0.0100 F10.00 
G01 X-2.6651 Y0.0996 
G01 X-2.6651 Y0.1064 
G01 X-2.6651 Y0.1464 
G01 X-2.6651 Y0.1531 
G01 X-2.6604 Y0.1578 
G01 X-2.6254 Y0.1578 
G01 X-2.6187 Y0.1578 
G01 X-2.6070 Y0.1461 
G01 X-2.6022 Y0.1414 
G01 X-2.6022 Y0.1180 
G01 X-2.6022 Y0.1113 
G01 X-2.6046 Y0.1089 
G01 X-2.6053 Y0.1083 
G01 X-2.6070 Y0.1066 
G01 X-2.6070 Y0.1066 
G01 X-2.6185 Y0.0951 
G01 X-2.6187 Y0.0949 
G01 X-2.6490 Y0.0949 
G01 X-2.6490 Y0.0763 
G01 X-2.6537 Y0.0716 
G01 X-2.6604 Y0.0716 
G01 X-2.6651 Y0.0763 
G00 Z0.0200 
G00 X-2.7234 Y0.1464 
G01 Z-0.0100 F10.00 
G01 X-2.7234 Y0.1531 
G01 X-2.7187 Y0.1578 
G01 X-2.6953 Y0.1578 
G01 X-2.6886 Y0.1578 
G01 X-2.6770 Y0.1461 
G01 X-2.6722 Y0.1414 
G01 X-2.6722 Y0.1297 
G01 X-2.6722 Y0.1230 
G01 X-2.6722 Y0.1064 
G01 X-2.6722 Y0.0996 
G01 X-2.6770 Y0.0949 
G01 X-2.7120 Y0.0949 
G01 X-2.7187 Y0.0949 
G01 X-2.7304 Y0.1066 
G01 X-2.7351 Y0.1113 
G01 X-2.7351 Y0.1180 
G01 X-2.7234 Y0.1297 
G01 X-2.7234 Y0.1297 
G01 X-2.7212 Y0.1319 
G01 X-2.7211 Y0.1321 
G01 X-2.7200 Y0.1331 
G01 X-2.7187 Y0.1344 
G01 X-2.6884 Y0.1344 
G01 X-2.6884 Y0.1347 
G01 X-2.6953 Y0.1416 
G01 X-2.7187 Y0.1416 
G01 X-2.7234 Y0.1464 
G00 Z0.0200 
G00 X-2.7422 Y0.1647 
G01 Z-0.0100 F10.00 
G01 X-2.7422 Y0.1580 
G01 X-2.7469 Y0.1533 
G01 X-2.7536 Y0.1533 
G01 X-2.7653 Y0.1650 
G01 X-2.7820 Y0.1650 
G01 X-2.7889 Y0.1580 
G01 X-2.7889 Y0.1180 
G01 X-2.7820 Y0.1111 
G01 X-2.7653 Y0.1111 
G01 X-2.7536 Y0.1228 
G01 X-2.7469 Y0.1228 
G01 X-2.7422 Y0.1180 
G01 X-2.7422 Y0.1113 
G01 X-2.7446 Y0.1089 
G01 X-2.7586 Y0.0949 
G01 X-2.7653 Y0.0949 
G01 X-2.7887 Y0.0949 
G01 X-2.7934 Y0.0996 
G01 X-2.8051 Y0.1113 
G01 X-2.8051 Y0.1180 
G01 X-2.8051 Y0.1647 
G01 X-2.8049 Y0.1649 
G01 X-2.7934 Y0.1764 
G01 X-2.7934 Y0.1764 
G01 X-2.7914 Y0.1784 
G01 X-2.7910 Y0.1788 
G01 X-2.7887 Y0.1811 
G01 X-2.7820 Y0.1811 
G01 X-2.7586 Y0.1811 
G01 X-2.7539 Y0.1764 
G01 X-2.7422 Y0.1647 
G00 Z0.0200 
G00 X-0.6051 Y0.3996 
G01 Z-0.0100 F10.00 
G01 X-0.6051 Y0.4347 
G01 X-0.6051 Y0.4414 
G01 X-0.6051 Y0.4464 
G01 X-0.6051 Y0.4531 
G01 X-0.5817 Y0.4764 
G01 X-0.5817 Y0.4764 
G01 X-0.5770 Y0.4811 
G01 X-0.5703 Y0.4811 
G01 X-0.5469 Y0.4578 
G01 X-0.5469 Y0.4578 
G01 X-0.5422 Y0.4531 
G01 X-0.5422 Y0.4414 
G01 X-0.5422 Y0.4347 
G01 X-0.5422 Y0.3996 
G01 X-0.5469 Y0.3949 
G01 X-0.5536 Y0.3949 
G01 X-0.5584 Y0.3996 
G01 X-0.5584 Y0.4299 
G01 X-0.5889 Y0.4299 
G01 X-0.5889 Y0.3996 
G01 X-0.5936 Y0.3949 
G01 X-0.6004 Y0.3949 
G01 X-0.6051 Y0.3996 
G00 Z0.0200 
G00 X-0.5351 Y0.3996 
G01 Z-0.0100 F10.00 
G01 X-0.5351 Y0.4706 
G01 X-0.5351 Y0.4764 
G01 X-0.5304 Y0.4811 
G01 X-0.5237 Y0.4811 
G01 X-0.5207 Y0.4782 
G01 X-0.5207 Y0.4782 
G01 X-0.5189 Y0.4764 
G01 X-0.5189 Y0.4755 
G01 X-0.4884 Y0.4297 
G01 X-0.4884 Y0.4764 
G01 X-0.4837 Y0.4811 
G01 X-0.4770 Y0.4811 
G01 X-0.4722 Y0.4764 
G01 X-0.4722 Y0.3996 
G01 X-0.4770 Y0.3949 
G01 X-0.4837 Y0.3949 
G01 X-0.4884 Y0.3996 
G01 X-0.4884 Y0.4006 
G01 X-0.5189 Y0.4463 
G01 X-0.5189 Y0.3996 
G01 X-0.5237 Y0.3949 
G01 X-0.5304 Y0.3949 
G01 X-0.5351 Y0.3996 
G00 Z0.0200 
G00 X-0.4418 Y0.3996 
G01 Z-0.0100 F10.00 
G01 X-0.4418 Y0.4650 
G01 X-0.4604 Y0.4650 
G01 X-0.4651 Y0.4697 
G01 X-0.4651 Y0.4764 
G01 X-0.4604 Y0.4811 
G01 X-0.4070 Y0.4811 
G01 X-0.4022 Y0.4764 
G01 X-0.4022 Y0.4697 
G01 X-0.4070 Y0.4650 
G01 X-0.4256 Y0.4650 
G01 X-0.4256 Y0.3996 
G01 X-0.4303 Y0.3949 
G01 X-0.4370 Y0.3949 
G01 X-0.4418 Y0.3996 
G00 Z0.0200 
G00 X-2.5323 Y0.1647 
G01 Z-0.0100 F10.00 
G01 X-2.5323 Y0.1580 
G01 X-2.5370 Y0.1533 
G01 X-2.5437 Y0.1533 
G01 X-2.5554 Y0.1650 
G01 X-2.5720 Y0.1650 
G01 X-2.5790 Y0.1580 
G01 X-2.5790 Y0.1531 
G01 X-2.5720 Y0.1461 
G01 X-2.5554 Y0.1461 
G01 X-2.5487 Y0.1461 
G01 X-2.5323 Y0.1297 
G01 X-2.5323 Y0.1230 
G01 X-2.5323 Y0.1180 
G01 X-2.5323 Y0.1113 
G01 X-2.5346 Y0.1089 
G01 X-2.5349 Y0.1087 
G01 X-2.5370 Y0.1066 
G01 X-2.5370 Y0.1066 
G01 X-2.5485 Y0.0951 
G01 X-2.5487 Y0.0949 
G01 X-2.5720 Y0.0949 
G01 X-2.5787 Y0.0949 
G01 X-2.5952 Y0.1113 
G01 X-2.5952 Y0.1180 
G01 X-2.5904 Y0.1228 
G01 X-2.5837 Y0.1228 
G01 X-2.5720 Y0.1111 
G01 X-2.5554 Y0.1111 
G01 X-2.5485 Y0.1180 
G01 X-2.5485 Y0.1230 
G01 X-2.5554 Y0.1299 
G01 X-2.5787 Y0.1299 
G01 X-2.5796 Y0.1308 
G01 X-2.5811 Y0.1323 
G01 X-2.5815 Y0.1327 
G01 X-2.5835 Y0.1347 
G01 X-2.5835 Y0.1347 
G01 X-2.5952 Y0.1464 
G01 X-2.5952 Y0.1531 
G01 X-2.5952 Y0.1647 
G01 X-2.5950 Y0.1649 
G01 X-2.5835 Y0.1764 
G01 X-2.5818 Y0.1781 
G01 X-2.5811 Y0.1788 
G01 X-2.5787 Y0.1811 
G01 X-2.5720 Y0.1811 
G01 X-2.5487 Y0.1811 
G01 X-2.5439 Y0.1764 
G01 X-2.5323 Y0.1647 
G00 Z0.0200 
G00 X-2.4787 Y0.1111 
G01 Z-0.0100 F10.00 
G01 X-2.4740 Y0.1064 
G01 X-2.4740 Y0.0996 
G01 X-2.4787 Y0.0949 
G01 X-2.5021 Y0.0949 
G01 X-2.5088 Y0.0949 
G01 X-2.5204 Y0.1066 
G01 X-2.5252 Y0.1113 
G01 X-2.5252 Y0.1230 
G01 X-2.5252 Y0.1297 
G01 X-2.5252 Y0.1347 
G01 X-2.5252 Y0.1414 
G01 X-2.5135 Y0.1531 
G01 X-2.5135 Y0.1531 
G01 X-2.5088 Y0.1578 
G01 X-2.4854 Y0.1578 
G01 X-2.4787 Y0.1578 
G01 X-2.4670 Y0.1461 
G01 X-2.4623 Y0.1414 
G01 X-2.4623 Y0.1297 
G01 X-2.4623 Y0.1230 
G01 X-2.4670 Y0.1183 
G01 X-2.5090 Y0.1183 
G01 X-2.5090 Y0.1180 
G01 X-2.5021 Y0.1111 
G01 X-2.4787 Y0.1111 
G00 Z0.0200 
G00 X-2.3852 Y0.0996 
G01 Z-0.0100 F10.00 
G01 X-2.3852 Y0.1064 
G01 X-2.3805 Y0.1111 
G01 X-2.3455 Y0.1111 
G01 X-2.3419 Y0.1147 
G01 X-2.3455 Y0.1183 
G01 X-2.3621 Y0.1183 
G01 X-2.3688 Y0.1183 
G01 X-2.3712 Y0.1206 
G01 X-2.3717 Y0.1212 
G01 X-2.3736 Y0.1230 
G01 X-2.3736 Y0.1230 
G01 X-2.3850 Y0.1345 
G01 X-2.3852 Y0.1347 
G01 X-2.3852 Y0.1414 
G01 X-2.3736 Y0.1531 
G01 X-2.3736 Y0.1531 
G01 X-2.3714 Y0.1553 
G01 X-2.3712 Y0.1554 
G01 X-2.3701 Y0.1565 
G01 X-2.3688 Y0.1578 
G01 X-2.3271 Y0.1578 
G01 X-2.3223 Y0.1531 
G01 X-2.3223 Y0.1464 
G01 X-2.3271 Y0.1416 
G01 X-2.3621 Y0.1416 
G01 X-2.3657 Y0.1380 
G01 X-2.3621 Y0.1344 
G01 X-2.3388 Y0.1344 
G01 X-2.3340 Y0.1297 
G01 X-2.3223 Y0.1180 
G01 X-2.3223 Y0.1113 
G01 X-2.3239 Y0.1097 
G01 X-2.3247 Y0.1089 
G01 X-2.3248 Y0.1089 
G01 X-2.3271 Y0.1066 
G01 X-2.3271 Y0.1066 
G01 X-2.3388 Y0.0949 
G01 X-2.3455 Y0.0949 
G01 X-2.3805 Y0.0949 
G01 X-2.3852 Y0.0996 
G00 Z0.0200 
G00 X-2.2688 Y0.1111 
G01 Z-0.0100 F10.00 
G01 X-2.2640 Y0.1064 
G01 X-2.2640 Y0.0996 
G01 X-2.2688 Y0.0949 
G01 X-2.2921 Y0.0949 
G01 X-2.2988 Y0.0949 
G01 X-2.3105 Y0.1066 
G01 X-2.3153 Y0.1113 
G01 X-2.3153 Y0.1230 
G01 X-2.3153 Y0.1297 
G01 X-2.3153 Y0.1347 
G01 X-2.3153 Y0.1414 
G01 X-2.3036 Y0.1531 
G01 X-2.3036 Y0.1531 
G01 X-2.3015 Y0.1552 
G01 X-2.3012 Y0.1554 
G01 X-2.2999 Y0.1567 
G01 X-2.2988 Y0.1578 
G01 X-2.2755 Y0.1578 
G01 X-2.2688 Y0.1578 
G01 X-2.2571 Y0.1461 
G01 X-2.2524 Y0.1414 
G01 X-2.2524 Y0.1297 
G01 X-2.2524 Y0.1230 
G01 X-2.2571 Y0.1183 
G01 X-2.2991 Y0.1183 
G01 X-2.2991 Y0.1180 
G01 X-2.2921 Y0.1111 
G01 X-2.2688 Y0.1111 
G00 Z0.0200 
G00 X-2.0354 Y0.1478 
G01 Z-0.0100 F10.00 
G01 X-2.0354 Y0.1531 
G01 X-2.0306 Y0.1578 
G01 X-2.0239 Y0.1578 
G01 X-2.0206 Y0.1545 
G01 X-2.0039 Y0.1211 
G01 X-1.9872 Y0.1545 
G01 X-1.9839 Y0.1578 
G01 X-1.9772 Y0.1578 
G01 X-1.9725 Y0.1531 
G01 X-1.9725 Y0.1478 
G01 X-1.9958 Y0.1011 
G01 X-1.9958 Y0.0996 
G01 X-1.9973 Y0.0982 
G01 X-2.0006 Y0.0949 
G01 X-2.0073 Y0.0949 
G01 X-2.0120 Y0.0996 
G01 X-2.0120 Y0.1011 
G01 X-2.0354 Y0.1478 
G00 Z0.0200 
G00 X-1.8604 Y0.1580 
G01 Z-0.0100 F10.00 
G01 X-1.8604 Y0.1647 
G01 X-1.8487 Y0.1764 
G01 X-1.8487 Y0.1764 
G01 X-1.8464 Y0.1787 
G01 X-1.8464 Y0.1788 
G01 X-1.8457 Y0.1795 
G01 X-1.8440 Y0.1811 
G01 X-1.8206 Y0.1811 
G01 X-1.8139 Y0.1811 
G01 X-1.8023 Y0.1695 
G01 X-1.7975 Y0.1647 
G01 X-1.7975 Y0.1531 
G01 X-1.7975 Y0.1464 
G01 X-1.8058 Y0.1380 
G01 X-1.8023 Y0.1344 
G01 X-1.7975 Y0.1297 
G01 X-1.7975 Y0.1180 
G01 X-1.7975 Y0.1113 
G01 X-1.7999 Y0.1089 
G01 X-1.8005 Y0.1083 
G01 X-1.8023 Y0.1066 
G01 X-1.8023 Y0.1066 
G01 X-1.8137 Y0.0951 
G01 X-1.8139 Y0.0949 
G01 X-1.8373 Y0.0949 
G01 X-1.8440 Y0.0949 
G01 X-1.8604 Y0.1113 
G01 X-1.8604 Y0.1180 
G01 X-1.8557 Y0.1228 
G01 X-1.8490 Y0.1228 
G01 X-1.8373 Y0.1111 
G01 X-1.8206 Y0.1111 
G01 X-1.8137 Y0.1180 
G01 X-1.8137 Y0.1230 
G01 X-1.8206 Y0.1299 
G01 X-1.8323 Y0.1299 
G01 X-1.8371 Y0.1347 
G01 X-1.8371 Y0.1414 
G01 X-1.8323 Y0.1461 
G01 X-1.8206 Y0.1461 
G01 X-1.8137 Y0.1531 
G01 X-1.8137 Y0.1580 
G01 X-1.8206 Y0.1650 
G01 X-1.8373 Y0.1650 
G01 X-1.8466 Y0.1557 
G01 X-1.8490 Y0.1533 
G01 X-1.8557 Y0.1533 
G01 X-1.8604 Y0.1580 
G00 Z0.0200 
G00 X-1.7205 Y0.1347 
G01 Z-0.0100 F10.00 
G01 X-1.7205 Y0.1414 
G01 X-1.7157 Y0.1461 
G01 X-1.6623 Y0.1461 
G01 X-1.6576 Y0.1414 
G01 X-1.6576 Y0.1347 
G01 X-1.6623 Y0.1299 
G01 X-1.7157 Y0.1299 
G01 X-1.7205 Y0.1347 
G00 Z0.0200 
G00 X-1.5176 Y0.1647 
G01 Z-0.0100 F10.00 
G01 X-1.5176 Y0.1580 
G01 X-1.5224 Y0.1533 
G01 X-1.5291 Y0.1533 
G01 X-1.5407 Y0.1650 
G01 X-1.5574 Y0.1650 
G01 X-1.5643 Y0.1580 
G01 X-1.5643 Y0.1531 
G01 X-1.5574 Y0.1461 
G01 X-1.5407 Y0.1461 
G01 X-1.5340 Y0.1461 
G01 X-1.5224 Y0.1344 
G01 X-1.5176 Y0.1297 
G01 X-1.5176 Y0.1113 
G01 X-1.5224 Y0.1066 
G01 X-1.5224 Y0.1066 
G01 X-1.5338 Y0.0951 
G01 X-1.5340 Y0.0949 
G01 X-1.5574 Y0.0949 
G01 X-1.5641 Y0.0949 
G01 X-1.5805 Y0.1113 
G01 X-1.5805 Y0.1180 
G01 X-1.5758 Y0.1228 
G01 X-1.5691 Y0.1228 
G01 X-1.5574 Y0.1111 
G01 X-1.5407 Y0.1111 
G01 X-1.5338 Y0.1180 
G01 X-1.5338 Y0.1230 
G01 X-1.5407 Y0.1299 
G01 X-1.5641 Y0.1299 
G01 X-1.5650 Y0.1308 
G01 X-1.5665 Y0.1323 
G01 X-1.5668 Y0.1326 
G01 X-1.5688 Y0.1347 
G01 X-1.5688 Y0.1347 
G01 X-1.5805 Y0.1464 
G01 X-1.5805 Y0.1531 
G01 X-1.5805 Y0.1647 
G01 X-1.5803 Y0.1649 
G01 X-1.5688 Y0.1764 
G01 X-1.5672 Y0.1781 
G01 X-1.5665 Y0.1788 
G01 X-1.5641 Y0.1811 
G01 X-1.5574 Y0.1811 
G01 X-1.5340 Y0.1811 
G01 X-1.5293 Y0.1764 
G01 X-1.5176 Y0.1647 
G00 Z0.0200 
G00 X-1.5105 Y0.0763 
G01 Z-0.0100 F10.00 
G01 X-1.5105 Y0.0996 
G01 X-1.5105 Y0.1064 
G01 X-1.5105 Y0.1464 
G01 X-1.5105 Y0.1531 
G01 X-1.5058 Y0.1578 
G01 X-1.4708 Y0.1578 
G01 X-1.4641 Y0.1578 
G01 X-1.4524 Y0.1461 
G01 X-1.4476 Y0.1414 
G01 X-1.4476 Y0.1180 
G01 X-1.4476 Y0.1113 
G01 X-1.4500 Y0.1089 
G01 X-1.4503 Y0.1086 
G01 X-1.4524 Y0.1066 
G01 X-1.4524 Y0.1066 
G01 X-1.4639 Y0.0951 
G01 X-1.4641 Y0.0949 
G01 X-1.4943 Y0.0949 
G01 X-1.4943 Y0.0763 
G01 X-1.4991 Y0.0716 
G01 X-1.5058 Y0.0716 
G01 X-1.5105 Y0.0763 
G00 Z0.0200 
G00 X-1.3706 Y0.0996 
G01 Z-0.0100 F10.00 
G01 X-1.3706 Y0.1464 
G01 X-1.3706 Y0.1531 
G01 X-1.3658 Y0.1578 
G01 X-1.3308 Y0.1578 
G01 X-1.3241 Y0.1578 
G01 X-1.3124 Y0.1461 
G01 X-1.3077 Y0.1414 
G01 X-1.3077 Y0.0996 
G01 X-1.3124 Y0.0949 
G01 X-1.3191 Y0.0949 
G01 X-1.3239 Y0.0996 
G01 X-1.3239 Y0.1347 
G01 X-1.3308 Y0.1416 
G01 X-1.3544 Y0.1416 
G01 X-1.3544 Y0.0996 
G01 X-1.3591 Y0.0949 
G01 X-1.3658 Y0.0949 
G01 X-1.3706 Y0.0996 
G00 Z0.0200 
G00 X-1.1606 Y0.0996 
G01 Z-0.0100 F10.00 
G01 X-1.1606 Y0.1230 
G01 X-1.1606 Y0.1297 
G01 X-1.1606 Y0.1531 
G01 X-1.1559 Y0.1578 
G01 X-1.1492 Y0.1578 
G01 X-1.1445 Y0.1531 
G01 X-1.1445 Y0.1459 
G01 X-1.1349 Y0.1554 
G01 X-1.1326 Y0.1578 
G01 X-1.1259 Y0.1578 
G01 X-1.1142 Y0.1578 
G01 X-1.1094 Y0.1531 
G01 X-1.1094 Y0.1464 
G01 X-1.1142 Y0.1416 
G01 X-1.1259 Y0.1416 
G01 X-1.1445 Y0.1230 
G01 X-1.1445 Y0.0996 
G01 X-1.1492 Y0.0949 
G01 X-1.1559 Y0.0949 
G01 X-1.1606 Y0.0996 
G00 Z0.0200 
G00 X-1.0324 Y0.0996 
G01 Z-0.0100 F10.00 
G01 X-1.0324 Y0.1230 
G01 X-1.0324 Y0.1297 
G01 X-1.0324 Y0.1697 
G01 X-1.0324 Y0.1764 
G01 X-1.0276 Y0.1811 
G01 X-0.9926 Y0.1811 
G01 X-0.9859 Y0.1811 
G01 X-0.9742 Y0.1695 
G01 X-0.9695 Y0.1647 
G01 X-0.9695 Y0.1414 
G01 X-0.9695 Y0.1347 
G01 X-0.9811 Y0.1230 
G01 X-0.9836 Y0.1205 
G01 X-0.9718 Y0.1087 
G01 X-0.9695 Y0.1064 
G01 X-0.9695 Y0.0996 
G01 X-0.9742 Y0.0949 
G01 X-0.9809 Y0.0949 
G01 X-1.0043 Y0.1183 
G01 X-1.0162 Y0.1183 
G01 X-1.0162 Y0.0996 
G01 X-1.0209 Y0.0949 
G01 X-1.0276 Y0.0949 
G01 X-1.0324 Y0.0996 
G00 Z0.0200 
G00 X-0.9624 Y0.1531 
G01 Z-0.0100 F10.00 
G01 X-0.9576 Y0.1578 
G01 X-0.9509 Y0.1578 
G01 X-0.9462 Y0.1531 
G01 X-0.9462 Y0.1180 
G01 X-0.9393 Y0.1111 
G01 X-0.9157 Y0.1111 
G01 X-0.9157 Y0.1531 
G01 X-0.9109 Y0.1578 
G01 X-0.9042 Y0.1578 
G01 X-0.8995 Y0.1531 
G01 X-0.8995 Y0.0996 
G01 X-0.9042 Y0.0949 
G01 X-0.9109 Y0.0949 
G01 X-0.9460 Y0.0949 
G01 X-0.9507 Y0.0996 
G01 X-0.9624 Y0.1113 
G01 X-0.9624 Y0.1180 
G01 X-0.9624 Y0.1531 
G00 Z0.0200 
G00 X-0.6825 Y0.1697 
G01 Z-0.0100 F10.00 
G01 X-0.6825 Y0.1764 
G01 X-0.6777 Y0.1811 
G01 X-0.6661 Y0.1811 
G01 X-0.6594 Y0.1811 
G01 X-0.6546 Y0.1764 
G01 X-0.6546 Y0.1111 
G01 X-0.6477 Y0.1111 
G01 X-0.6429 Y0.1064 
G01 X-0.6429 Y0.0996 
G01 X-0.6477 Y0.0949 
G01 X-0.6594 Y0.0949 
G01 X-0.6661 Y0.0949 
G01 X-0.6777 Y0.0949 
G01 X-0.6825 Y0.0996 
G01 X-0.6825 Y0.1064 
G01 X-0.6777 Y0.1111 
G01 X-0.6708 Y0.1111 
G01 X-0.6708 Y0.1650 
G01 X-0.6777 Y0.1650 
G01 X-0.6825 Y0.1697 
G00 Z0.0200 
G00 X-0.6358 Y0.1697 
G01 Z-0.0100 F10.00 
G01 X-0.6358 Y0.1764 
G01 X-0.6311 Y0.1811 
G01 X-0.6194 Y0.1811 
G01 X-0.6127 Y0.1811 
G01 X-0.6080 Y0.1764 
G01 X-0.6080 Y0.1111 
G01 X-0.6010 Y0.1111 
G01 X-0.5963 Y0.1064 
G01 X-0.5963 Y0.0996 
G01 X-0.6010 Y0.0949 
G01 X-0.6311 Y0.0949 
G01 X-0.6358 Y0.0996 
G01 X-0.6358 Y0.1064 
G01 X-0.6311 Y0.1111 
G01 X-0.6241 Y0.1111 
G01 X-0.6241 Y0.1650 
G01 X-0.6311 Y0.1650 
G01 X-0.6358 Y0.1697 
G00 Z0.0200 
G00 X-0.4610 Y0.1111 
G01 Z-0.0100 F10.00 
G01 X-0.4563 Y0.1064 
G01 X-0.4563 Y0.0996 
G01 X-0.4610 Y0.0949 
G01 X-0.5078 Y0.0949 
G01 X-0.5145 Y0.0949 
G01 X-0.5192 Y0.0996 
G01 X-0.5192 Y0.1064 
G01 X-0.4725 Y0.1531 
G01 X-0.4725 Y0.1580 
G01 X-0.4794 Y0.1650 
G01 X-0.4961 Y0.1650 
G01 X-0.5054 Y0.1557 
G01 X-0.5078 Y0.1533 
G01 X-0.5145 Y0.1533 
G01 X-0.5192 Y0.1580 
G01 X-0.5192 Y0.1647 
G01 X-0.5075 Y0.1764 
G01 X-0.5075 Y0.1764 
G01 X-0.5055 Y0.1784 
G01 X-0.5052 Y0.1788 
G01 X-0.5028 Y0.1811 
G01 X-0.4961 Y0.1811 
G01 X-0.4727 Y0.1811 
G01 X-0.4680 Y0.1764 
G01 X-0.4563 Y0.1647 
G01 X-0.4563 Y0.1580 
G01 X-0.4563 Y0.1464 
G01 X-0.4610 Y0.1416 
G01 X-0.4916 Y0.1111 
G01 X-0.4610 Y0.1111 
G00 Z0.0200 
G00 X-1.6021 Y1.7887 
G01 Z-0.0100 F10.00 
G01 X-1.6021 Y1.7820 
G01 X-1.6069 Y1.7773 
G01 X-1.6136 Y1.7773 
G01 X-1.6253 Y1.7890 
G01 X-1.6419 Y1.7890 
G01 X-1.6488 Y1.7820 
G01 X-1.6488 Y1.7420 
G01 X-1.6419 Y1.7351 
G01 X-1.6253 Y1.7351 
G01 X-1.6183 Y1.7420 
G01 X-1.6183 Y1.7539 
G01 X-1.6369 Y1.7539 
G01 X-1.6417 Y1.7587 
G01 X-1.6417 Y1.7654 
G01 X-1.6369 Y1.7701 
G01 X-1.6069 Y1.7701 
G01 X-1.6021 Y1.7654 
G01 X-1.6021 Y1.7587 
G01 X-1.6021 Y1.7353 
G01 X-1.6069 Y1.7306 
G01 X-1.6069 Y1.7306 
G01 X-1.6186 Y1.7189 
G01 X-1.6253 Y1.7189 
G01 X-1.6486 Y1.7189 
G01 X-1.6534 Y1.7236 
G01 X-1.6534 Y1.7236 
G01 X-1.6603 Y1.7306 
G01 X-1.6603 Y1.7306 
G01 X-1.6650 Y1.7353 
G01 X-1.6650 Y1.7887 
G01 X-1.6648 Y1.7889 
G01 X-1.6534 Y1.8004 
G01 X-1.6517 Y1.8020 
G01 X-1.6510 Y1.8028 
G01 X-1.6486 Y1.8051 
G01 X-1.6419 Y1.8051 
G01 X-1.6186 Y1.8051 
G01 X-1.6138 Y1.8004 
G01 X-1.6021 Y1.7887 
G00 Z0.0200 
G00 X-1.5951 Y1.7236 
G01 Z-0.0100 F10.00 
G01 X-1.5951 Y1.7946 
G01 X-1.5951 Y1.8004 
G01 X-1.5903 Y1.8051 
G01 X-1.5836 Y1.8051 
G01 X-1.5807 Y1.8022 
G01 X-1.5807 Y1.8022 
G01 X-1.5789 Y1.8004 
G01 X-1.5789 Y1.7995 
G01 X-1.5483 Y1.7537 
G01 X-1.5483 Y1.8004 
G01 X-1.5436 Y1.8051 
G01 X-1.5369 Y1.8051 
G01 X-1.5322 Y1.8004 
G01 X-1.5322 Y1.7236 
G01 X-1.5369 Y1.7189 
G01 X-1.5436 Y1.7189 
G01 X-1.5483 Y1.7236 
G01 X-1.5483 Y1.7246 
G01 X-1.5789 Y1.7703 
G01 X-1.5789 Y1.7236 
G01 X-1.5836 Y1.7189 
G01 X-1.5903 Y1.7189 
G01 X-1.5951 Y1.7236 
G00 Z0.0200 
G00 X-1.4622 Y1.7887 
G01 Z-0.0100 F10.00 
G01 X-1.4622 Y1.7820 
G01 X-1.4622 Y1.7353 
G01 X-1.4669 Y1.7306 
G01 X-1.4669 Y1.7306 
G01 X-1.4786 Y1.7189 
G01 X-1.4853 Y1.7189 
G01 X-1.5203 Y1.7189 
G01 X-1.5251 Y1.7236 
G01 X-1.5251 Y1.7304 
G01 X-1.5251 Y1.7937 
G01 X-1.5251 Y1.8004 
G01 X-1.5203 Y1.8051 
G01 X-1.4786 Y1.8051 
G01 X-1.4739 Y1.8004 
G01 X-1.4622 Y1.7887 
G00 Z0.0200 
G00 X-2.0417 Y1.5154 
G01 Z-0.0100 F10.00 
G01 X-2.0415 Y1.5156 
G01 X-2.0300 Y1.5271 
G01 X-2.0300 Y1.5271 
G01 X-2.0282 Y1.5288 
G01 X-2.0277 Y1.5294 
G01 X-2.0253 Y1.5318 
G01 X-2.0186 Y1.5318 
G01 X-1.9952 Y1.5318 
G01 X-1.9905 Y1.5271 
G01 X-1.9788 Y1.5154 
G01 X-1.9788 Y1.5087 
G01 X-1.9788 Y1.4853 
G01 X-1.9803 Y1.4839 
G01 X-1.9812 Y1.4829 
G01 X-1.9813 Y1.4828 
G01 X-1.9836 Y1.4806 
G01 X-1.9836 Y1.4806 
G01 X-1.9952 Y1.4689 
G01 X-2.0019 Y1.4689 
G01 X-2.0186 Y1.4689 
G01 X-2.0253 Y1.4689 
G01 X-2.0417 Y1.4853 
G01 X-2.0417 Y1.4920 
G01 X-2.0417 Y1.5154 
G00 Z0.0200 
G00 X-1.8901 Y1.5387 
G01 Z-0.0100 F10.00 
G01 X-1.8853 Y1.5435 
G01 X-1.8786 Y1.5435 
G01 X-1.8739 Y1.5387 
G01 X-1.8739 Y1.5318 
G01 X-1.8670 Y1.5318 
G01 X-1.8622 Y1.5271 
G01 X-1.8622 Y1.5204 
G01 X-1.8670 Y1.5156 
G01 X-1.8739 Y1.5156 
G01 X-1.8739 Y1.4920 
G01 X-1.8646 Y1.4827 
G01 X-1.8622 Y1.4804 
G01 X-1.8622 Y1.4736 
G01 X-1.8670 Y1.4689 
G01 X-1.8737 Y1.4689 
G01 X-1.8853 Y1.4806 
G01 X-1.8870 Y1.4822 
G01 X-1.8877 Y1.4829 
G01 X-1.8901 Y1.4853 
G01 X-1.8901 Y1.4920 
G01 X-1.8901 Y1.5156 
G01 X-1.8970 Y1.5156 
G01 X-1.9018 Y1.5204 
G01 X-1.9018 Y1.5271 
G01 X-1.8970 Y1.5318 
G01 X-1.8901 Y1.5318 
G01 X-1.8901 Y1.5387 
G00 Z0.0200 
G00 X-1.8551 Y0.3996 
G01 Z-0.0100 F10.00 
G01 X-1.8551 Y0.4464 
G01 X-1.8551 Y0.4531 
G01 X-1.8317 Y0.4764 
G01 X-1.8300 Y0.4781 
G01 X-1.8294 Y0.4788 
G01 X-1.8278 Y0.4803 
G01 X-1.8270 Y0.4811 
G01 X-1.8203 Y0.4811 
G01 X-1.7922 Y0.4531 
G01 X-1.7922 Y0.4464 
G01 X-1.7922 Y0.4414 
G01 X-1.7922 Y0.4347 
G01 X-1.7922 Y0.3996 
G01 X-1.7969 Y0.3949 
G01 X-1.8036 Y0.3949 
G01 X-1.8084 Y0.3996 
G01 X-1.8084 Y0.4299 
G01 X-1.8389 Y0.4299 
G01 X-1.8389 Y0.3996 
G01 X-1.8436 Y0.3949 
G01 X-1.8504 Y0.3949 
G01 X-1.8551 Y0.3996 
G00 Z0.0200 
G00 X-1.7851 Y0.4531 
G01 Z-0.0100 F10.00 
G01 X-1.7804 Y0.4578 
G01 X-1.7737 Y0.4578 
G01 X-1.7689 Y0.4531 
G01 X-1.7689 Y0.4180 
G01 X-1.7620 Y0.4111 
G01 X-1.7384 Y0.4111 
G01 X-1.7384 Y0.4531 
G01 X-1.7337 Y0.4578 
G01 X-1.7270 Y0.4578 
G01 X-1.7222 Y0.4531 
G01 X-1.7222 Y0.3996 
G01 X-1.7270 Y0.3949 
G01 X-1.7337 Y0.3949 
G01 X-1.7687 Y0.3949 
G01 X-1.7734 Y0.3996 
G01 X-1.7851 Y0.4113 
G01 X-1.7851 Y0.4180 
G01 X-1.7851 Y0.4531 
G00 Z0.0200 
G00 X-1.6452 Y0.4464 
G01 Z-0.0100 F10.00 
G01 X-1.6452 Y0.4531 
G01 X-1.6404 Y0.4578 
G01 X-1.6287 Y0.4578 
G01 X-1.6220 Y0.4578 
G01 X-1.6173 Y0.4531 
G01 X-1.6173 Y0.4111 
G01 X-1.6104 Y0.4111 
G01 X-1.6056 Y0.4064 
G01 X-1.6056 Y0.3996 
G01 X-1.6104 Y0.3949 
G01 X-1.6404 Y0.3949 
G01 X-1.6452 Y0.3996 
G01 X-1.6452 Y0.4064 
G01 X-1.6404 Y0.4111 
G01 X-1.6335 Y0.4111 
G01 X-1.6335 Y0.4416 
G01 X-1.6404 Y0.4416 
G01 X-1.6452 Y0.4464 
G00 Z0.0200 
G00 X-1.6335 Y0.4697 
G01 Z-0.0100 F10.00 
G01 X-1.6335 Y0.4881 
G01 X-1.6287 Y0.4928 
G01 X-1.6220 Y0.4928 
G01 X-1.6173 Y0.4881 
G01 X-1.6173 Y0.4697 
G01 X-1.6220 Y0.4650 
G01 X-1.6287 Y0.4650 
G01 X-1.6335 Y0.4697 
G00 Z0.0200 
G00 X-1.5985 Y0.4414 
G01 Z-0.0100 F10.00 
G01 X-1.5983 Y0.4416 
G01 X-1.5868 Y0.4531 
G01 X-1.5868 Y0.4531 
G01 X-1.5850 Y0.4549 
G01 X-1.5845 Y0.4554 
G01 X-1.5821 Y0.4578 
G01 X-1.5754 Y0.4578 
G01 X-1.5520 Y0.4578 
G01 X-1.5473 Y0.4531 
G01 X-1.5356 Y0.4414 
G01 X-1.5356 Y0.4347 
G01 X-1.5356 Y0.4113 
G01 X-1.5372 Y0.4097 
G01 X-1.5380 Y0.4089 
G01 X-1.5381 Y0.4089 
G01 X-1.5404 Y0.4066 
G01 X-1.5404 Y0.4066 
G01 X-1.5520 Y0.3949 
G01 X-1.5587 Y0.3949 
G01 X-1.5754 Y0.3949 
G01 X-1.5821 Y0.3949 
G01 X-1.5985 Y0.4113 
G01 X-1.5985 Y0.4180 
G01 X-1.5985 Y0.4414 
G00 Z0.0200 
G00 X-0.2201 Y1.5448 
G01 Z-0.0100 F10.00 
G01 X-0.2201 Y1.5634 
G01 X-0.2387 Y1.5634 
G01 X-0.2435 Y1.5681 
G01 X-0.2435 Y1.5748 
G01 X-0.2387 Y1.5796 
G01 X-0.2201 Y1.5796 
G01 X-0.2201 Y1.5982 
G01 X-0.2154 Y1.6029 
G01 X-0.2087 Y1.6029 
G01 X-0.2039 Y1.5982 
G01 X-0.2039 Y1.5796 
G01 X-0.1853 Y1.5796 
G01 X-0.1806 Y1.5748 
G01 X-0.1806 Y1.5681 
G01 X-0.1853 Y1.5634 
G01 X-0.2039 Y1.5634 
G01 X-0.2039 Y1.5448 
G01 X-0.2087 Y1.5400 
G01 X-0.2154 Y1.5400 
G01 X-0.2201 Y1.5448 
G00 Z0.0200 
G00 X-0.1853 Y1.6800 
G01 Z-0.0100 F10.00 
G01 X-0.1920 Y1.6800 
G01 X-0.1968 Y1.6847 
G01 X-0.1968 Y1.6964 
G01 X-0.1968 Y1.7031 
G01 X-0.1920 Y1.7079 
G01 X-0.1804 Y1.7079 
G01 X-0.1736 Y1.7079 
G01 X-0.1689 Y1.7031 
G01 X-0.1689 Y1.6847 
G01 X-0.1736 Y1.6800 
G01 X-0.1804 Y1.6800 
G01 X-0.1853 Y1.6800 
G00 Z0.0200 
G00 X-0.2387 Y1.9178 
G01 Z-0.0100 F10.00 
G01 X-0.2320 Y1.9178 
G01 X-0.1853 Y1.9178 
G01 X-0.1844 Y1.9169 
G01 X-0.1829 Y1.9155 
G01 X-0.1826 Y1.9151 
G01 X-0.1806 Y1.9131 
G01 X-0.1806 Y1.9131 
G01 X-0.1689 Y1.9014 
G01 X-0.1689 Y1.8947 
G01 X-0.1689 Y1.8597 
G01 X-0.1736 Y1.8549 
G01 X-0.1804 Y1.8549 
G01 X-0.2437 Y1.8549 
G01 X-0.2504 Y1.8549 
G01 X-0.2551 Y1.8597 
G01 X-0.2551 Y1.9014 
G01 X-0.2504 Y1.9061 
G01 X-0.2387 Y1.9178 
G00 Z0.0200 
G00 X-0.2624 Y0.5676 
G01 Z-0.0100 F10.00 
G01 X-0.2624 Y0.5292 
G01 X-0.2896 Y0.5021 
G01 X-0.3329 Y0.5021 
G01 X-0.3329 Y0.3979 
G01 X-0.2896 Y0.3979 
G01 X-0.2624 Y0.3708 
G01 X-0.2624 Y0.3324 
G01 X-0.2896 Y0.3052 
G01 X-0.4104 Y0.3052 
G01 X-0.4376 Y0.3324 
G01 X-0.4376 Y0.3329 
G01 X-0.5731 Y0.3329 
G01 X-0.5871 Y0.3189 
G01 X-0.6129 Y0.3189 
G01 X-0.6269 Y0.3329 
G01 X-0.6675 Y0.3329 
G01 X-0.6855 Y0.3149 
G01 X-0.7145 Y0.3149 
G01 X-0.7351 Y0.3355 
G01 X-0.7351 Y0.3645 
G01 X-0.7171 Y0.3825 
G01 X-0.7171 Y0.6471 
G01 X-0.7311 Y0.6611 
G01 X-0.7311 Y0.7389 
G01 X-0.7129 Y0.7571 
G01 X-0.6871 Y0.7571 
G01 X-0.6689 Y0.7389 
G01 X-0.6689 Y0.6611 
G01 X-0.6829 Y0.6471 
G01 X-0.6829 Y0.3825 
G01 X-0.6675 Y0.3671 
G01 X-0.6269 Y0.3671 
G01 X-0.6129 Y0.3811 
G01 X-0.5871 Y0.3811 
G01 X-0.5731 Y0.3671 
G01 X-0.4376 Y0.3671 
G01 X-0.4376 Y0.3708 
G01 X-0.4104 Y0.3979 
G01 X-0.3671 Y0.3979 
G01 X-0.3671 Y0.5021 
G01 X-0.4104 Y0.5021 
G01 X-0.4376 Y0.5292 
G01 X-0.4376 Y0.5676 
G01 X-0.4104 Y0.5948 
G01 X-0.2896 Y0.5948 
G01 X-0.2624 Y0.5676 
G00 Z0.0200 
G00 X-0.6481 Y0.5301 
G01 Z-0.0100 F10.00 
G01 X-0.6481 Y0.5699 
G01 X-0.4981 Y0.7199 
G01 X-0.4699 Y0.7481 
G01 X-0.2481 Y0.7481 
G01 X-0.2481 Y0.8819 
G01 X-0.3301 Y0.8819 
G01 X-0.3699 Y0.8819 
G01 X-0.3981 Y0.9101 
G01 X-0.3981 Y1.3552 
G01 X-0.4104 Y1.3552 
G01 X-0.4376 Y1.3824 
G01 X-0.4376 Y1.4208 
G01 X-0.4104 Y1.4479 
G01 X-0.3717 Y1.4479 
G01 X-0.3699 Y1.4497 
G01 X-0.3301 Y1.4497 
G01 X-0.3283 Y1.4479 
G01 X-0.2896 Y1.4479 
G01 X-0.2624 Y1.4208 
G01 X-0.2624 Y1.3824 
G01 X-0.2896 Y1.3552 
G01 X-0.3019 Y1.3552 
G01 X-0.3019 Y0.9781 
G01 X-0.2199 Y0.9781 
G01 X-0.1801 Y0.9781 
G01 X-0.1519 Y0.9499 
G01 X-0.1519 Y0.7199 
G01 X-0.1519 Y0.6801 
G01 X-0.1519 Y0.2699 
G01 X-0.1519 Y0.2301 
G01 X-0.1801 Y0.2019 
G01 X-0.8301 Y0.2019 
G01 X-1.4301 Y0.2019 
G01 X-2.0199 Y0.2019 
G01 X-2.0481 Y0.2301 
G01 X-2.0481 Y0.2699 
G01 X-2.0481 Y0.3301 
G01 X-2.2199 Y0.5019 
G01 X-2.3801 Y0.5019 
G01 X-2.5519 Y0.3301 
G01 X-2.5519 Y0.2301 
G01 X-2.5801 Y0.2019 
G01 X-2.6199 Y0.2019 
G01 X-2.7801 Y0.2019 
G01 X-2.9199 Y0.2019 
G01 X-2.9481 Y0.2301 
G01 X-2.9481 Y0.2699 
G01 X-2.9481 Y1.1699 
G01 X-2.9199 Y1.1981 
G01 X-2.8199 Y1.2981 
G01 X-2.7801 Y1.2981 
G01 X-2.7519 Y1.2699 
G01 X-2.7301 Y1.2481 
G01 X-2.6301 Y1.2481 
G01 X-2.6019 Y1.2199 
G01 X-2.6019 Y1.1801 
G01 X-2.6301 Y1.1519 
G01 X-2.7301 Y1.1519 
G01 X-2.7699 Y1.1519 
G01 X-2.8000 Y1.1820 
G01 X-2.8519 Y1.1301 
G01 X-2.8519 Y0.2981 
G01 X-2.7801 Y0.2981 
G01 X-2.6481 Y0.2981 
G01 X-2.6481 Y0.3699 
G01 X-2.6199 Y0.3981 
G01 X-2.4199 Y0.5981 
G01 X-2.3801 Y0.5981 
G01 X-2.2199 Y0.5981 
G01 X-2.1801 Y0.5981 
G01 X-1.9519 Y0.3699 
G01 X-1.9519 Y0.3301 
G01 X-1.9519 Y0.2981 
G01 X-1.4981 Y0.2981 
G01 X-1.4981 Y0.6801 
G01 X-1.4981 Y0.7199 
G01 X-1.4981 Y0.7699 
G01 X-1.5125 Y0.7699 
G01 X-1.8125 Y1.0699 
G01 X-1.8301 Y1.0875 
G01 X-1.8301 Y1.2949 
G01 X-2.0272 Y1.2949 
G01 X-2.1272 Y1.1949 
G01 X-2.1351 Y1.1949 
G01 X-2.1371 Y1.1929 
G01 X-2.1629 Y1.1929 
G01 X-2.1649 Y1.1949 
G01 X-2.1728 Y1.1949 
G01 X-2.2051 Y1.2272 
G01 X-2.2051 Y1.2728 
G01 X-2.0728 Y1.4051 
G01 X-2.0272 Y1.4051 
G01 X-1.7772 Y1.4051 
G01 X-1.7567 Y1.4051 
G01 X-1.7567 Y1.6728 
G01 X-1.7479 Y1.6816 
G01 X-1.7479 Y1.7104 
G01 X-1.7208 Y1.7376 
G01 X-1.6824 Y1.7376 
G01 X-1.6552 Y1.7104 
G01 X-1.6552 Y1.6816 
G01 X-1.6465 Y1.6728 
G01 X-1.6465 Y1.3744 
G01 X-1.6449 Y1.3728 
G01 X-1.6449 Y1.3272 
G01 X-1.6772 Y1.2949 
G01 X-1.7699 Y1.2949 
G01 X-1.7699 Y1.1125 
G01 X-1.4877 Y0.8303 
G01 X-1.4699 Y0.8481 
G01 X-1.4301 Y0.8481 
G01 X-1.4019 Y0.8199 
G01 X-1.4019 Y0.7481 
G01 X-1.2219 Y0.7481 
G01 X-1.2129 Y0.7571 
G01 X-1.1871 Y0.7571 
G01 X-1.1781 Y0.7481 
G01 X-1.1219 Y0.7481 
G01 X-1.1129 Y0.7571 
G01 X-1.0871 Y0.7571 
G01 X-1.0781 Y0.7481 
G01 X-1.0219 Y0.7481 
G01 X-1.0129 Y0.7571 
G01 X-0.9871 Y0.7571 
G01 X-0.9689 Y0.7389 
G01 X-0.9689 Y0.7369 
G01 X-0.9519 Y0.7199 
G01 X-0.9519 Y0.6801 
G01 X-0.9689 Y0.6631 
G01 X-0.9689 Y0.6611 
G01 X-0.9871 Y0.6429 
G01 X-1.0129 Y0.6429 
G01 X-1.0219 Y0.6519 
G01 X-1.0781 Y0.6519 
G01 X-1.0871 Y0.6429 
G01 X-1.1129 Y0.6429 
G01 X-1.1219 Y0.6519 
G01 X-1.1781 Y0.6519 
G01 X-1.1871 Y0.6429 
G01 X-1.2129 Y0.6429 
G01 X-1.2219 Y0.6519 
G01 X-1.4019 Y0.6519 
G01 X-1.4019 Y0.2981 
G01 X-0.8671 Y0.2981 
G01 X-0.8671 Y0.3571 
G01 X-0.8571 Y0.3671 
G01 X-0.7671 Y0.4571 
G01 X-0.7671 Y1.4071 
G01 X-0.7571 Y1.4171 
G01 X-0.7311 Y1.4431 
G01 X-0.7311 Y1.4629 
G01 X-0.7129 Y1.4811 
G01 X-0.6871 Y1.4811 
G01 X-0.6689 Y1.4629 
G01 X-0.6689 Y1.4371 
G01 X-0.6871 Y1.4189 
G01 X-0.7069 Y1.4189 
G01 X-0.7329 Y1.3929 
G01 X-0.7329 Y0.4571 
G01 X-0.7329 Y0.4429 
G01 X-0.8329 Y0.3429 
G01 X-0.8329 Y0.2981 
G01 X-0.8301 Y0.2981 
G01 X-0.2481 Y0.2981 
G01 X-0.2481 Y0.6519 
G01 X-0.4301 Y0.6519 
G01 X-0.5801 Y0.5019 
G01 X-0.6199 Y0.5019 
G01 X-0.6481 Y0.5301 
G00 Z0.0200 
G00 X-2.2631 Y0.1946 
G01 Z-0.0100 F10.00 
G01 X-2.2631 Y0.2000 
G01 X-2.2633 Y0.2039 
G01 X-2.2649 Y0.2114 
G01 X-2.2680 Y0.2185 
G01 X-2.2726 Y0.2247 
G01 X-2.2783 Y0.2299 
G01 X-2.2850 Y0.2337 
G01 X-2.2923 Y0.2361 
G01 X-2.3000 Y0.2369 
G01 X-2.3077 Y0.2361 
G01 X-2.3150 Y0.2337 
G01 X-2.3217 Y0.2299 
G01 X-2.3274 Y0.2247 
G01 X-2.3320 Y0.2184 
G01 X-2.3351 Y0.2114 
G01 X-2.3367 Y0.2039 
G01 X-2.3369 Y0.2000 
G01 X-2.3369 Y0.1946 
G01 X-2.3446 Y0.1869 
G01 X-2.3554 Y0.1869 
G01 X-2.3631 Y0.1946 
G01 X-2.3631 Y0.2000 
G01 X-2.3631 Y0.2066 
G01 X-2.3631 Y0.2066 
G01 X-2.3603 Y0.2196 
G01 X-2.3603 Y0.2196 
G01 X-2.3549 Y0.2317 
G01 X-2.3549 Y0.2317 
G01 X-2.3471 Y0.2424 
G01 X-2.3471 Y0.2424 
G01 X-2.3471 Y0.2424 
G01 X-2.3373 Y0.2513 
G01 X-2.3373 Y0.2513 
G01 X-2.3258 Y0.2580 
G01 X-2.3258 Y0.2580 
G01 X-2.3132 Y0.2621 
G01 X-2.3132 Y0.2621 
G01 X-2.3000 Y0.2634 
G01 X-2.3000 Y0.2634 
G01 X-2.2868 Y0.2621 
G01 X-2.2868 Y0.2621 
G01 X-2.2742 Y0.2580 
G01 X-2.2742 Y0.2580 
G01 X-2.2627 Y0.2513 
G01 X-2.2627 Y0.2513 
G01 X-2.2529 Y0.2424 
G01 X-2.2529 Y0.2424 
G01 X-2.2451 Y0.2317 
G01 X-2.2451 Y0.2317 
G01 X-2.2397 Y0.2196 
G01 X-2.2397 Y0.2196 
G01 X-2.2369 Y0.2066 
G01 X-2.2369 Y0.2066 
G01 X-2.2369 Y0.2000 
G01 X-2.2369 Y0.1946 
G01 X-2.2446 Y0.1869 
G01 X-2.2554 Y0.1869 
G01 X-2.2631 Y0.1946 
G00 Z0.0200 
G00 X-2.1131 Y0.1946 
G01 Z-0.0100 F10.00 
G01 X-2.1131 Y0.2000 
G01 X-2.1134 Y0.2113 
G01 X-2.1162 Y0.2337 
G01 X-2.1216 Y0.2556 
G01 X-2.1296 Y0.2767 
G01 X-2.1400 Y0.2967 
G01 X-2.1529 Y0.3153 
G01 X-2.1678 Y0.3322 
G01 X-2.1847 Y0.3471 
G01 X-2.2033 Y0.3599 
G01 X-2.2233 Y0.3704 
G01 X-2.2444 Y0.3784 
G01 X-2.2663 Y0.3838 
G01 X-2.2663 Y0.3838 
G01 X-2.2887 Y0.3866 
G01 X-2.3113 Y0.3866 
G01 X-2.3337 Y0.3838 
G01 X-2.3556 Y0.3784 
G01 X-2.3767 Y0.3704 
G01 X-2.3967 Y0.3599 
G01 X-2.4153 Y0.3471 
G01 X-2.4322 Y0.3322 
G01 X-2.4471 Y0.3153 
G01 X-2.4599 Y0.2967 
G01 X-2.4704 Y0.2767 
G01 X-2.4784 Y0.2556 
G01 X-2.4838 Y0.2337 
G01 X-2.4866 Y0.2113 
G01 X-2.4869 Y0.2000 
G01 X-2.4869 Y0.1946 
G01 X-2.4946 Y0.1869 
G01 X-2.5054 Y0.1869 
G01 X-2.5131 Y0.1946 
G01 X-2.5131 Y0.2000 
G01 X-2.5131 Y0.2129 
G01 X-2.5131 Y0.2129 
G01 X-2.5100 Y0.2385 
G01 X-2.5100 Y0.2385 
G01 X-2.5038 Y0.2635 
G01 X-2.5038 Y0.2635 
G01 X-2.4947 Y0.2876 
G01 X-2.4947 Y0.2876 
G01 X-2.4827 Y0.3104 
G01 X-2.4827 Y0.3104 
G01 X-2.4680 Y0.3316 
G01 X-2.4680 Y0.3317 
G01 X-2.4509 Y0.3509 
G01 X-2.4509 Y0.3509 
G01 X-2.4316 Y0.3680 
G01 X-2.4104 Y0.3827 
G01 X-2.3876 Y0.3947 
G01 X-2.3635 Y0.4038 
G01 X-2.3385 Y0.4100 
G01 X-2.3129 Y0.4131 
G01 X-2.2871 Y0.4131 
G01 X-2.2615 Y0.4100 
G01 X-2.2365 Y0.4038 
G01 X-2.2365 Y0.4038 
G01 X-2.2124 Y0.3947 
G01 X-2.2124 Y0.3947 
G01 X-2.1896 Y0.3827 
G01 X-2.1896 Y0.3827 
G01 X-2.1683 Y0.3680 
G01 X-2.1683 Y0.3680 
G01 X-2.1491 Y0.3509 
G01 X-2.1490 Y0.3509 
G01 X-2.1490 Y0.3509 
G01 X-2.1320 Y0.3317 
G01 X-2.1320 Y0.3316 
G01 X-2.1173 Y0.3104 
G01 X-2.1173 Y0.3104 
G01 X-2.1053 Y0.2876 
G01 X-2.1053 Y0.2876 
G01 X-2.0962 Y0.2635 
G01 X-2.0962 Y0.2635 
G01 X-2.0900 Y0.2385 
G01 X-2.0900 Y0.2385 
G01 X-2.0869 Y0.2129 
G01 X-2.0869 Y0.2129 
G01 X-2.0869 Y0.2000 
G01 X-2.0869 Y0.1946 
G01 X-2.0946 Y0.1869 
G01 X-2.1054 Y0.1869 
G01 X-2.1131 Y0.1946 
G00 Z0.0200 
G00 X-0.5736 Y0.4545 
G01 Z-0.0100 F10.00 
G01 X-0.5771 Y0.4511 
G01 X-0.5702 Y0.4511 
G01 X-0.5736 Y0.4545 
G00 Z0.0200 
G00 X-0.2574 Y0.5697 
G01 Z-0.0100 F10.00 
G01 X-0.2574 Y0.5272 
G01 X-0.2875 Y0.4971 
G01 X-0.3279 Y0.4971 
G01 X-0.3279 Y0.4029 
G01 X-0.2875 Y0.4029 
G01 X-0.2574 Y0.3728 
G01 X-0.2574 Y0.3303 
G01 X-0.2846 Y0.3031 
G01 X-0.2531 Y0.3031 
G01 X-0.2531 Y0.6469 
G01 X-0.4280 Y0.6469 
G01 X-0.5780 Y0.4969 
G01 X-0.6220 Y0.4969 
G01 X-0.6531 Y0.5280 
G01 X-0.6531 Y0.5720 
G01 X-0.5872 Y0.6379 
G01 X-0.6149 Y0.6379 
G01 X-0.6361 Y0.6590 
G01 X-0.6361 Y0.6610 
G01 X-0.6531 Y0.6780 
G01 X-0.6531 Y0.9699 
G01 X-0.6639 Y0.9699 
G01 X-0.6639 Y0.9590 
G01 X-0.6850 Y0.9379 
G01 X-0.7149 Y0.9379 
G01 X-0.7279 Y0.9509 
G01 X-0.7279 Y0.7491 
G01 X-0.7149 Y0.7621 
G01 X-0.6850 Y0.7621 
G01 X-0.6639 Y0.7409 
G01 X-0.6639 Y0.6590 
G01 X-0.6779 Y0.6451 
G01 X-0.6779 Y0.3846 
G01 X-0.6654 Y0.3721 
G01 X-0.6289 Y0.3721 
G01 X-0.6149 Y0.3861 
G01 X-0.5850 Y0.3861 
G01 X-0.5711 Y0.3721 
G01 X-0.4426 Y0.3721 
G01 X-0.4426 Y0.3728 
G01 X-0.4125 Y0.4029 
G01 X-0.3721 Y0.4029 
G01 X-0.3721 Y0.4971 
G01 X-0.4125 Y0.4971 
G01 X-0.4426 Y0.5272 
G01 X-0.4426 Y0.5697 
G01 X-0.4125 Y0.5998 
G01 X-0.2875 Y0.5998 
G01 X-0.2574 Y0.5697 
G00 Z0.0200 
G00 X-0.4468 Y0.3976 
G01 Z-0.0100 F10.00 
G01 X-0.4468 Y0.4600 
G01 X-0.4625 Y0.4600 
G01 X-0.4672 Y0.4647 
G01 X-0.4672 Y0.3976 
G01 X-0.4749 Y0.3899 
G01 X-0.4857 Y0.3899 
G01 X-0.4934 Y0.3976 
G01 X-0.4934 Y0.3990 
G01 X-0.5139 Y0.4298 
G01 X-0.5139 Y0.3976 
G01 X-0.5216 Y0.3899 
G01 X-0.5324 Y0.3899 
G01 X-0.5387 Y0.3961 
G01 X-0.5449 Y0.3899 
G01 X-0.5557 Y0.3899 
G01 X-0.5634 Y0.3976 
G01 X-0.5634 Y0.4249 
G01 X-0.5839 Y0.4249 
G01 X-0.5839 Y0.3976 
G01 X-0.5916 Y0.3899 
G01 X-0.6024 Y0.3899 
G01 X-0.6101 Y0.3976 
G01 X-0.6101 Y0.4326 
G01 X-0.6101 Y0.4434 
G01 X-0.6101 Y0.4443 
G01 X-0.6101 Y0.4551 
G01 X-0.5867 Y0.4785 
G01 X-0.5867 Y0.4785 
G01 X-0.5791 Y0.4861 
G01 X-0.5682 Y0.4861 
G01 X-0.5449 Y0.4628 
G01 X-0.5449 Y0.4628 
G01 X-0.5401 Y0.4580 
G01 X-0.5401 Y0.4691 
G01 X-0.5401 Y0.4785 
G01 X-0.5324 Y0.4861 
G01 X-0.5216 Y0.4861 
G01 X-0.5169 Y0.4814 
G01 X-0.5169 Y0.4814 
G01 X-0.5139 Y0.4785 
G01 X-0.5139 Y0.4770 
G01 X-0.4934 Y0.4462 
G01 X-0.4934 Y0.4785 
G01 X-0.4857 Y0.4861 
G01 X-0.4749 Y0.4861 
G01 X-0.4687 Y0.4799 
G01 X-0.4625 Y0.4861 
G01 X-0.4049 Y0.4861 
G01 X-0.3972 Y0.4785 
G01 X-0.3972 Y0.4676 
G01 X-0.4049 Y0.4600 
G01 X-0.4206 Y0.4600 
G01 X-0.4206 Y0.3976 
G01 X-0.4283 Y0.3899 
G01 X-0.4391 Y0.3899 
G01 X-0.4468 Y0.3976 
G00 Z0.0200 
G00 X-0.5850 Y0.3139 
G01 Z-0.0100 F10.00 
G01 X-0.6149 Y0.3139 
G01 X-0.6289 Y0.3279 
G01 X-0.6654 Y0.3279 
G01 X-0.6834 Y0.3099 
G01 X-0.7166 Y0.3099 
G01 X-0.7401 Y0.3334 
G01 X-0.7401 Y0.3666 
G01 X-0.7221 Y0.3846 
G01 X-0.7221 Y0.6451 
G01 X-0.7279 Y0.6509 
G01 X-0.7279 Y0.4591 
G01 X-0.7279 Y0.4408 
G01 X-0.8279 Y0.3408 
G01 X-0.8279 Y0.3031 
G01 X-0.4154 Y0.3031 
G01 X-0.4402 Y0.3279 
G01 X-0.5711 Y0.3279 
G01 X-0.5850 Y0.3139 
G00 Z0.0200 
G00 X-0.2340 Y1.7752 
G01 Z-0.0100 F10.00 
G01 X-0.2340 Y1.7664 
G01 X-0.2251 Y1.7752 
G01 X-0.2204 Y1.7800 
G01 X-0.2387 Y1.7800 
G01 X-0.2340 Y1.7752 
G00 Z0.0200 
G00 X-0.1901 Y1.8761 
G01 Z-0.0100 F10.00 
G01 X-0.1901 Y1.8926 
G01 X-0.1941 Y1.8966 
G01 X-0.2300 Y1.8966 
G01 X-0.2340 Y1.8926 
G01 X-0.2340 Y1.8761 
G01 X-0.1901 Y1.8761 
G00 Z0.0200 
G00 X-0.1901 Y1.7527 
G01 Z-0.0100 F10.00 
G01 X-0.1941 Y1.7567 
G01 X-0.2066 Y1.7567 
G01 X-0.2106 Y1.7527 
G01 X-0.2106 Y1.7495 
G01 X-0.2013 Y1.7308 
G01 X-0.2004 Y1.7299 
G01 X-0.1901 Y1.7402 
G01 X-0.1901 Y1.7527 
G00 Z0.0200 
G00 X-0.2251 Y1.5584 
G01 Z-0.0100 F10.00 
G01 X-0.2349 Y1.5584 
G01 X-0.2251 Y1.5486 
G01 X-0.2251 Y1.5584 
G00 Z0.0200 
G00 X-0.4737 Y1.1966 
G01 Z-0.0100 F10.00 
G01 X-0.4704 Y1.1999 
G01 X-0.4770 Y1.1999 
G01 X-0.4737 Y1.1966 
G00 Z0.0200 
G00 X-0.4401 Y1.2961 
G01 Z-0.0100 F10.00 
G01 X-0.4401 Y1.3126 
G01 X-0.4441 Y1.3166 
G01 X-0.4800 Y1.3166 
G01 X-0.4840 Y1.3126 
G01 X-0.4840 Y1.2961 
G01 X-0.4401 Y1.2961 
G00 Z0.0200 
G00 X-0.4441 Y1.1562 
G01 Z-0.0100 F10.00 
G01 X-0.4401 Y1.1602 
G01 X-0.4401 Y1.1727 
G01 X-0.4441 Y1.1767 
G01 X-0.4489 Y1.1767 
G01 X-0.4489 Y1.1610 
G01 X-0.4538 Y1.1562 
G01 X-0.4441 Y1.1562 
G00 Z0.0200 
G00 X-0.4840 Y1.1727 
G01 Z-0.0100 F10.00 
G01 X-0.4840 Y1.1602 
G01 X-0.4800 Y1.1562 
G01 X-0.4703 Y1.1562 
G01 X-0.4751 Y1.1610 
G01 X-0.4751 Y1.1815 
G01 X-0.4840 Y1.1727 
G00 Z0.0200 
G00 X-1.8236 Y0.4545 
G01 Z-0.0100 F10.00 
G01 X-1.8271 Y0.4511 
G01 X-1.8202 Y0.4511 
G01 X-1.8236 Y0.4545 
G00 Z0.0200 
G00 X-1.6385 Y0.4366 
G01 Z-0.0100 F10.00 
G01 X-1.6425 Y0.4366 
G01 X-1.6472 Y0.4414 
G01 X-1.6472 Y0.4113 
G01 X-1.6425 Y0.4161 
G01 X-1.6385 Y0.4161 
G01 X-1.6385 Y0.4366 
G00 Z0.0200 
G00 X-1.5608 Y0.4161 
G01 Z-0.0100 F10.00 
G01 X-1.5568 Y0.4201 
G01 X-1.5568 Y0.4326 
G01 X-1.5608 Y0.4366 
G01 X-1.5733 Y0.4366 
G01 X-1.5773 Y0.4326 
G01 X-1.5773 Y0.4201 
G01 X-1.5733 Y0.4161 
G01 X-1.5608 Y0.4161 
G00 Z0.0200 
G00 X-1.6940 Y0.4326 
G01 Z-0.0100 F10.00 
G01 X-1.6940 Y0.4201 
G01 X-1.6899 Y0.4161 
G01 X-1.6734 Y0.4161 
G01 X-1.6734 Y0.4366 
G01 X-1.6899 Y0.4366 
G01 X-1.6940 Y0.4326 
G00 Z0.0200 
G00 X-0.4240 Y0.1600 
G01 Z-0.0100 F10.00 
G01 X-0.4280 Y0.1560 
G01 X-0.4280 Y0.1463 
G01 X-0.4144 Y0.1600 
G01 X-0.4240 Y0.1600 
G00 Z0.0200 
G00 X-0.4075 Y0.1201 
G01 Z-0.0100 F10.00 
G01 X-0.4075 Y0.1298 
G01 X-0.4212 Y0.1161 
G01 X-0.4115 Y0.1161 
G01 X-0.4075 Y0.1201 
G00 Z0.0200 
G00 X-0.3066 Y0.1600 
G01 Z-0.0100 F10.00 
G01 X-0.3114 Y0.1647 
G01 X-0.3114 Y0.1560 
G01 X-0.3114 Y0.1230 
G01 X-0.2744 Y0.1600 
G01 X-0.3066 Y0.1600 
G00 Z0.0200 
G00 X-0.3375 Y0.1201 
G01 Z-0.0100 F10.00 
G01 X-0.3375 Y0.1298 
G01 X-0.3512 Y0.1161 
G01 X-0.3415 Y0.1161 
G01 X-0.3375 Y0.1201 
G00 Z0.0200 
G00 X-0.3541 Y0.1600 
G01 Z-0.0100 F10.00 
G01 X-0.3581 Y0.1560 
G01 X-0.3581 Y0.1463 
G01 X-0.3444 Y0.1600 
G01 X-0.3541 Y0.1600 
G00 Z0.0200 
G00 X-0.4590 Y0.1161 
G01 Z-0.0100 F10.00 
G01 X-0.4542 Y0.1113 
G01 X-0.4542 Y0.1201 
G01 X-0.4542 Y0.1414 
G01 X-0.4590 Y0.1366 
G01 X-0.4795 Y0.1161 
G01 X-0.4590 Y0.1161 
G00 Z0.0200 
G00 X-1.5428 Y0.1161 
G01 Z-0.0100 F10.00 
G01 X-1.5388 Y0.1201 
G01 X-1.5388 Y0.1209 
G01 X-1.5428 Y0.1249 
G01 X-1.5642 Y0.1249 
G01 X-1.5553 Y0.1161 
G01 X-1.5428 Y0.1161 
G00 Z0.0200 
G00 X-1.4688 Y0.1201 
G01 Z-0.0100 F10.00 
G01 X-1.4688 Y0.1326 
G01 X-1.4728 Y0.1366 
G01 X-1.4893 Y0.1366 
G01 X-1.4893 Y0.1161 
G01 X-1.4728 Y0.1161 
G01 X-1.4688 Y0.1201 
G00 Z0.0200 
G00 X-1.5203 Y0.1483 
G01 Z-0.0100 F10.00 
G01 X-1.5291 Y0.1483 
G01 X-1.5203 Y0.1394 
G01 X-1.5155 Y0.1347 
G01 X-1.5155 Y0.1443 
G01 X-1.5155 Y0.1530 
G01 X-1.5203 Y0.1483 
G00 Z0.0200 
G00 X-1.5428 Y0.1600 
G01 Z-0.0100 F10.00 
G01 X-1.5553 Y0.1600 
G01 X-1.5593 Y0.1560 
G01 X-1.5593 Y0.1551 
G01 X-1.5553 Y0.1511 
G01 X-1.5428 Y0.1511 
G01 X-1.5340 Y0.1511 
G01 X-1.5428 Y0.1600 
G00 Z0.0200 
G00 X-2.3250 Y0.1366 
G01 Z-0.0100 F10.00 
G01 X-2.3339 Y0.1366 
G01 X-2.3290 Y0.1318 
G01 X-2.3203 Y0.1230 
G01 X-2.3203 Y0.1318 
G01 X-2.3203 Y0.1326 
G01 X-2.3203 Y0.1414 
G01 X-2.3250 Y0.1366 
G00 Z0.0200 
G00 X-2.3873 Y0.1113 
G01 Z-0.0100 F10.00 
G01 X-2.3826 Y0.1161 
G01 X-2.3737 Y0.1161 
G01 X-2.3747 Y0.1171 
G01 X-2.3750 Y0.1174 
G01 X-2.3786 Y0.1209 
G01 X-2.3786 Y0.1209 
G01 X-2.3826 Y0.1249 
G01 X-2.3873 Y0.1297 
G01 X-2.3873 Y0.1113 
G00 Z0.0200 
G00 X-2.5847 Y0.1288 
G01 Z-0.0100 F10.00 
G01 X-2.5849 Y0.1290 
G01 X-2.5885 Y0.1326 
G01 X-2.5885 Y0.1326 
G01 X-2.5927 Y0.1368 
G01 X-2.5972 Y0.1414 
G01 X-2.5972 Y0.1230 
G01 X-2.5925 Y0.1278 
G01 X-2.5836 Y0.1278 
G01 X-2.5847 Y0.1288 
G00 Z0.0200 
G00 X-2.5575 Y0.1161 
G01 Z-0.0100 F10.00 
G01 X-2.5535 Y0.1201 
G01 X-2.5535 Y0.1209 
G01 X-2.5575 Y0.1249 
G01 X-2.5788 Y0.1249 
G01 X-2.5700 Y0.1161 
G01 X-2.5575 Y0.1161 
G00 Z0.0200 
G00 X-2.5575 Y0.1600 
G01 Z-0.0100 F10.00 
G01 X-2.5700 Y0.1600 
G01 X-2.5740 Y0.1560 
G01 X-2.5740 Y0.1551 
G01 X-2.5700 Y0.1511 
G01 X-2.5575 Y0.1511 
G01 X-2.5486 Y0.1511 
G01 X-2.5575 Y0.1600 
G00 Z0.0200 
G00 X-2.6234 Y0.1201 
G01 Z-0.0100 F10.00 
G01 X-2.6234 Y0.1326 
G01 X-2.6274 Y0.1366 
G01 X-2.6440 Y0.1366 
G01 X-2.6440 Y0.1161 
G01 X-2.6274 Y0.1161 
G01 X-2.6234 Y0.1201 
G00 Z0.0200 
G00 X-2.1336 Y0.1434 
G01 Z-0.0100 F10.00 
G01 X-2.1336 Y0.1560 
G01 X-2.1376 Y0.1600 
G01 X-2.1541 Y0.1600 
G01 X-2.1541 Y0.1394 
G01 X-2.1493 Y0.1394 
G01 X-2.1384 Y0.1394 
G01 X-2.1376 Y0.1394 
G01 X-2.1336 Y0.1434 
G00 Z0.0200 
G00 X-2.1195 Y0.1205 
G01 Z-0.0100 F10.00 
G01 X-2.1112 Y0.1123 
G01 X-2.1103 Y0.1113 
G01 X-2.1103 Y0.1209 
G01 X-2.1103 Y0.1297 
G01 X-2.1195 Y0.1205 
G00 Z0.0200 
G00 X-1.2404 Y0.1366 
G01 Z-0.0100 F10.00 
G01 X-1.2754 Y0.1366 
G01 X-1.2794 Y0.1326 
G01 X-1.2794 Y0.1201 
G01 X-1.2754 Y0.1161 
G01 X-1.2404 Y0.1161 
G01 X-1.2356 Y0.1113 
G01 X-1.2356 Y0.1209 
G01 X-1.2356 Y0.1318 
G01 X-1.2356 Y0.1326 
G01 X-1.2356 Y0.1414 
G01 X-1.2404 Y0.1366 
G00 Z0.0200 
G00 X-0.9906 Y0.1434 
G01 Z-0.0100 F10.00 
G01 X-0.9906 Y0.1560 
G01 X-0.9947 Y0.1600 
G01 X-1.0112 Y0.1600 
G01 X-1.0112 Y0.1394 
G01 X-1.0063 Y0.1394 
G01 X-0.9955 Y0.1394 
G01 X-0.9947 Y0.1394 
G01 X-0.9906 Y0.1434 
G00 Z0.0200 
G00 X-0.9761 Y0.1209 
G01 Z-0.0100 F10.00 
G01 X-0.9766 Y0.1205 
G01 X-0.9683 Y0.1123 
G01 X-0.9674 Y0.1113 
G01 X-0.9674 Y0.1201 
G01 X-0.9674 Y0.1297 
G01 X-0.9761 Y0.1209 
G00 Z0.0200 
G00 X-0.8945 Y0.1113 
G01 Z-0.0100 F10.00 
G01 X-0.8897 Y0.1161 
G01 X-0.8809 Y0.1161 
G01 X-0.8819 Y0.1171 
G01 X-0.8822 Y0.1174 
G01 X-0.8857 Y0.1209 
G01 X-0.8857 Y0.1209 
G01 X-0.8897 Y0.1249 
G01 X-0.8945 Y0.1297 
G01 X-0.8945 Y0.1113 
G00 Z0.0200 
G00 X-0.8322 Y0.1366 
G01 Z-0.0100 F10.00 
G01 X-0.8410 Y0.1366 
G01 X-0.8362 Y0.1318 
G01 X-0.8245 Y0.1201 
G01 X-0.8245 Y0.1113 
G01 X-0.8198 Y0.1161 
G01 X-0.8109 Y0.1161 
G01 X-0.8119 Y0.1171 
G01 X-0.8122 Y0.1174 
G01 X-0.8158 Y0.1209 
G01 X-0.8158 Y0.1209 
G01 X-0.8198 Y0.1249 
G01 X-0.8274 Y0.1326 
G01 X-0.8274 Y0.1414 
G01 X-0.8322 Y0.1366 
G00 Z0.0200 
G00 X-0.7622 Y0.1366 
G01 Z-0.0100 F10.00 
G01 X-0.7711 Y0.1366 
G01 X-0.7662 Y0.1318 
G01 X-0.7574 Y0.1230 
G01 X-0.7574 Y0.1318 
G01 X-0.7574 Y0.1326 
G01 X-0.7574 Y0.1414 
G01 X-0.7622 Y0.1366 
G00 Z0.0200 
G00 X-1.6273 Y1.7840 
G01 Z-0.0100 F10.00 
G01 X-1.6398 Y1.7840 
G01 X-1.6438 Y1.7800 
G01 X-1.6438 Y1.7703 
G01 X-1.6390 Y1.7751 
G01 X-1.6185 Y1.7751 
G01 X-1.6273 Y1.7840 
G00 Z0.0200 
G00 X-1.6438 Y1.7441 
G01 Z-0.0100 F10.00 
G01 X-1.6398 Y1.7401 
G01 X-1.6273 Y1.7401 
G01 X-1.6233 Y1.7441 
G01 X-1.6233 Y1.7489 
G01 X-1.6390 Y1.7489 
G01 X-1.6438 Y1.7538 
G01 X-1.6438 Y1.7441 
G00 Z0.0200 
G00 X-1.5039 Y1.7401 
G01 Z-0.0100 F10.00 
G01 X-1.4874 Y1.7401 
G01 X-1.4834 Y1.7441 
G01 X-1.4834 Y1.7800 
G01 X-1.4874 Y1.7840 
G01 X-1.5039 Y1.7840 
G01 X-1.5039 Y1.7401 
G00 Z0.0200 
G00 X-1.6034 Y1.7737 
G01 Z-0.0100 F10.00 
G01 X-1.6001 Y1.7704 
G01 X-1.6001 Y1.7770 
G01 X-1.6034 Y1.7737 
G00 Z0.0200 
G00 X-2.0040 Y1.4901 
G01 Z-0.0100 F10.00 
G01 X-2.0000 Y1.4941 
G01 X-2.0000 Y1.5066 
G01 X-2.0040 Y1.5106 
G01 X-2.0165 Y1.5106 
G01 X-2.0205 Y1.5066 
G01 X-2.0205 Y1.4941 
G01 X-2.0165 Y1.4901 
G01 X-2.0040 Y1.4901 
G00 Z0.0200 
G00 X-0.2340 Y1.7362 
G01 Z-0.0100 F10.00 
G01 X-0.2332 Y1.7362 
G01 X-0.2340 Y1.7377 
G01 X-0.2340 Y1.7362 
G00 Z0.0200 
G00 X-1.7536 Y1.2853 
G01 Z-0.0100 F10.00 
G01 X-1.7423 Y1.2899 
G01 X-1.7649 Y1.2899 
G01 X-1.7649 Y1.2739 
G01 X-1.7536 Y1.2853 
G00 Z0.0200 
G00 X-1.8511 Y1.2899 
G01 Z-0.0100 F10.00 
G01 X-1.8351 Y1.2739 
G01 X-1.8351 Y1.2899 
G01 X-1.8511 Y1.2899 
G00 Z0.0200 
G00 X-2.1181 Y0.1925 
G01 Z-0.0100 F10.00 
G01 X-2.1181 Y0.2000 
G01 X-2.1184 Y0.2106 
G01 X-2.1209 Y0.2316 
G01 X-2.1257 Y0.2522 
G01 X-2.1330 Y0.2720 
G01 X-2.1425 Y0.2909 
G01 X-2.1541 Y0.3086 
G01 X-2.1677 Y0.3248 
G01 X-2.1831 Y0.3393 
G01 X-2.2000 Y0.3520 
G01 X-2.2184 Y0.3626 
G01 X-2.2378 Y0.3709 
G01 X-2.2378 Y0.3709 
G01 X-2.2580 Y0.3770 
G01 X-2.2789 Y0.3807 
G01 X-2.3000 Y0.3819 
G01 X-2.3211 Y0.3807 
G01 X-2.3419 Y0.3770 
G01 X-2.3622 Y0.3709 
G01 X-2.3816 Y0.3626 
G01 X-2.4000 Y0.3520 
G01 X-2.4169 Y0.3393 
G01 X-2.4323 Y0.3248 
G01 X-2.4459 Y0.3086 
G01 X-2.4575 Y0.2910 
G01 X-2.4670 Y0.2721 
G01 X-2.4743 Y0.2522 
G01 X-2.4791 Y0.2316 
G01 X-2.4816 Y0.2106 
G01 X-2.4819 Y0.2000 
G01 X-2.4819 Y0.1925 
G01 X-2.4925 Y0.1819 
G01 X-2.5075 Y0.1819 
G01 X-2.5181 Y0.1925 
G01 X-2.5181 Y0.2000 
G01 X-2.5181 Y0.2127 
G01 X-2.5181 Y0.2127 
G01 X-2.5151 Y0.2379 
G01 X-2.5151 Y0.2379 
G01 X-2.5093 Y0.2626 
G01 X-2.5093 Y0.2627 
G01 X-2.5006 Y0.2865 
G01 X-2.5006 Y0.2865 
G01 X-2.4892 Y0.3092 
G01 X-2.4892 Y0.3092 
G01 X-2.4752 Y0.3304 
G01 X-2.4752 Y0.3305 
G01 X-2.4589 Y0.3499 
G01 X-2.4589 Y0.3499 
G01 X-2.4589 Y0.3499 
G01 X-2.4404 Y0.3673 
G01 X-2.4404 Y0.3673 
G01 X-2.4200 Y0.3825 
G01 X-2.3980 Y0.3952 
G01 X-2.3747 Y0.4053 
G01 X-2.3504 Y0.4126 
G01 X-2.3254 Y0.4170 
G01 X-2.3000 Y0.4185 
G01 X-2.2746 Y0.4170 
G01 X-2.2496 Y0.4126 
G01 X-2.2253 Y0.4053 
G01 X-2.2020 Y0.3952 
G01 X-2.2020 Y0.3952 
G01 X-2.1800 Y0.3825 
G01 X-2.1800 Y0.3825 
G01 X-2.1596 Y0.3673 
G01 X-2.1596 Y0.3673 
G01 X-2.1411 Y0.3499 
G01 X-2.1411 Y0.3499 
G01 X-2.1248 Y0.3305 
G01 X-2.1248 Y0.3304 
G01 X-2.1108 Y0.3092 
G01 X-2.1108 Y0.3092 
G01 X-2.0994 Y0.2865 
G01 X-2.0994 Y0.2865 
G01 X-2.0907 Y0.2627 
G01 X-2.0907 Y0.2626 
G01 X-2.0849 Y0.2379 
G01 X-2.0849 Y0.2379 
G01 X-2.0819 Y0.2127 
G01 X-2.0819 Y0.2127 
G01 X-2.0819 Y0.2000 
G01 X-2.0819 Y0.1925 
G01 X-2.0925 Y0.1819 
G01 X-2.1075 Y0.1819 
G01 X-2.1181 Y0.1925 
G00 Z0.0200 
G00 X-2.2681 Y0.1925 
G01 Z-0.0100 F10.00 
G01 X-2.2681 Y0.2000 
G01 X-2.2683 Y0.2033 
G01 X-2.2697 Y0.2099 
G01 X-2.2724 Y0.2160 
G01 X-2.2763 Y0.2213 
G01 X-2.2812 Y0.2258 
G01 X-2.2870 Y0.2291 
G01 X-2.2934 Y0.2312 
G01 X-2.3000 Y0.2319 
G01 X-2.3066 Y0.2312 
G01 X-2.3130 Y0.2291 
G01 X-2.3188 Y0.2258 
G01 X-2.3237 Y0.2213 
G01 X-2.3276 Y0.2159 
G01 X-2.3303 Y0.2099 
G01 X-2.3317 Y0.2033 
G01 X-2.3319 Y0.2000 
G01 X-2.3319 Y0.1925 
G01 X-2.3425 Y0.1819 
G01 X-2.3575 Y0.1819 
G01 X-2.3681 Y0.1925 
G01 X-2.3681 Y0.2000 
G01 X-2.3681 Y0.2072 
G01 X-2.3681 Y0.2072 
G01 X-2.3651 Y0.2212 
G01 X-2.3651 Y0.2212 
G01 X-2.3593 Y0.2342 
G01 X-2.3593 Y0.2342 
G01 X-2.3509 Y0.2458 
G01 X-2.3509 Y0.2458 
G01 X-2.3509 Y0.2458 
G01 X-2.3402 Y0.2554 
G01 X-2.3402 Y0.2554 
G01 X-2.3278 Y0.2625 
G01 X-2.3278 Y0.2625 
G01 X-2.3142 Y0.2670 
G01 X-2.3142 Y0.2670 
G01 X-2.3000 Y0.2685 
G01 X-2.3000 Y0.2685 
G01 X-2.2858 Y0.2670 
G01 X-2.2858 Y0.2670 
G01 X-2.2722 Y0.2625 
G01 X-2.2721 Y0.2625 
G01 X-2.2598 Y0.2554 
G01 X-2.2598 Y0.2554 
G01 X-2.2491 Y0.2458 
G01 X-2.2491 Y0.2458 
G01 X-2.2407 Y0.2342 
G01 X-2.2407 Y0.2342 
G01 X-2.2349 Y0.2212 
G01 X-2.2349 Y0.2212 
G01 X-2.2319 Y0.2072 
G01 X-2.2319 Y0.2072 
G01 X-2.2319 Y0.2000 
G01 X-2.2319 Y0.1925 
G01 X-2.2425 Y0.1819 
G01 X-2.2575 Y0.1819 
G01 X-2.2681 Y0.1925 
G00 Z0.0200 
G00 X-2.2181 Y0.1925 
G01 Z-0.0100 F10.00 
G01 X-2.2181 Y0.2000 
G01 X-2.2183 Y0.2064 
G01 X-2.2204 Y0.2191 
G01 X-2.2243 Y0.2313 
G01 X-2.2302 Y0.2428 
G01 X-2.2377 Y0.2532 
G01 X-2.2468 Y0.2623 
G01 X-2.2468 Y0.2623 
G01 X-2.2572 Y0.2698 
G01 X-2.2686 Y0.2757 
G01 X-2.2809 Y0.2796 
G01 X-2.2936 Y0.2817 
G01 X-2.3064 Y0.2817 
G01 X-2.3191 Y0.2796 
G01 X-2.3313 Y0.2757 
G01 X-2.3428 Y0.2698 
G01 X-2.3532 Y0.2623 
G01 X-2.3623 Y0.2532 
G01 X-2.3698 Y0.2428 
G01 X-2.3757 Y0.2313 
G01 X-2.3796 Y0.2191 
G01 X-2.3817 Y0.2064 
G01 X-2.3819 Y0.2000 
G01 X-2.3819 Y0.1925 
G01 X-2.3925 Y0.1819 
G01 X-2.4075 Y0.1819 
G01 X-2.4181 Y0.1925 
G01 X-2.4181 Y0.2000 
G01 X-2.4181 Y0.2093 
G01 X-2.4181 Y0.2093 
G01 X-2.4152 Y0.2276 
G01 X-2.4152 Y0.2277 
G01 X-2.4094 Y0.2453 
G01 X-2.4094 Y0.2453 
G01 X-2.4010 Y0.2619 
G01 X-2.4010 Y0.2619 
G01 X-2.3901 Y0.2769 
G01 X-2.3901 Y0.2769 
G01 X-2.3901 Y0.2769 
G01 X-2.3769 Y0.2901 
G01 X-2.3769 Y0.2901 
G01 X-2.3619 Y0.3010 
G01 X-2.3619 Y0.3010 
G01 X-2.3453 Y0.3094 
G01 X-2.3453 Y0.3094 
G01 X-2.3276 Y0.3152 
G01 X-2.3093 Y0.3181 
G01 X-2.2907 Y0.3181 
G01 X-2.2723 Y0.3152 
G01 X-2.2547 Y0.3094 
G01 X-2.2381 Y0.3010 
G01 X-2.2381 Y0.3010 
G01 X-2.2231 Y0.2901 
G01 X-2.2099 Y0.2769 
G01 X-2.2099 Y0.2769 
G01 X-2.1990 Y0.2619 
G01 X-2.1990 Y0.2619 
G01 X-2.1906 Y0.2453 
G01 X-2.1906 Y0.2453 
G01 X-2.1848 Y0.2277 
G01 X-2.1848 Y0.2276 
G01 X-2.1819 Y0.2093 
G01 X-2.1819 Y0.2093 
G01 X-2.1819 Y0.2000 
G01 X-2.1819 Y0.1925 
G01 X-2.1925 Y0.1819 
G01 X-2.2075 Y0.1819 
G01 X-2.2181 Y0.1925 
G00 Z0.0200 
G00 X-2.2649 Y1.8361 
G01 Z-0.0100 F10.00 
G01 X-2.2350 Y1.8361 
G01 X-2.2139 Y1.8149 
G01 X-2.2139 Y1.7850 
G01 X-2.2350 Y1.7639 
G01 X-2.2649 Y1.7639 
G01 X-2.2659 Y1.7649 
G01 X-2.6284 Y1.7649 
G01 X-2.6334 Y1.7599 
G01 X-2.6666 Y1.7599 
G01 X-2.6901 Y1.7834 
G01 X-2.6901 Y1.8166 
G01 X-2.6666 Y1.8401 
G01 X-2.6334 Y1.8401 
G01 X-2.6284 Y1.8351 
G01 X-2.2659 Y1.8351 
G01 X-2.2649 Y1.8361 
G00 Z0.0200 
G00 X-2.1861 Y1.7850 
G01 Z-0.0100 F10.00 
G01 X-2.1861 Y1.8149 
G01 X-2.1649 Y1.8361 
G01 X-2.1350 Y1.8361 
G01 X-2.1139 Y1.8149 
G01 X-2.1139 Y1.7850 
G01 X-2.1199 Y1.7790 
G01 X-2.1199 Y1.6801 
G01 X-1.9498 Y1.6801 
G01 X-1.9498 Y1.7125 
G01 X-1.9197 Y1.7426 
G01 X-1.8772 Y1.7426 
G01 X-1.8471 Y1.7125 
G01 X-1.8471 Y1.5875 
G01 X-1.8772 Y1.5574 
G01 X-1.9197 Y1.5574 
G01 X-1.9498 Y1.5875 
G01 X-1.9498 Y1.6199 
G01 X-2.1199 Y1.6199 
G01 X-2.1199 Y1.3875 
G01 X-2.1375 Y1.3699 
G01 X-2.2149 Y1.2925 
G01 X-2.2149 Y1.2919 
G01 X-2.2139 Y1.2909 
G01 X-2.2139 Y1.2090 
G01 X-2.2149 Y1.2080 
G01 X-2.2149 Y1.1855 
G01 X-2.3649 Y1.0355 
G01 X-2.3855 Y1.0149 
G01 X-2.4149 Y1.0149 
G01 X-2.4149 Y0.9919 
G01 X-2.4139 Y0.9909 
G01 X-2.4139 Y0.9090 
G01 X-2.4350 Y0.8879 
G01 X-2.4649 Y0.8879 
G01 X-2.4861 Y0.9090 
G01 X-2.4861 Y0.9909 
G01 X-2.4851 Y0.9919 
G01 X-2.4851 Y1.0149 
G01 X-2.7649 Y1.0149 
G01 X-2.7649 Y0.8716 
G01 X-2.7599 Y0.8666 
G01 X-2.7599 Y0.8334 
G01 X-2.7834 Y0.8099 
G01 X-2.8166 Y0.8099 
G01 X-2.8401 Y0.8334 
G01 X-2.8401 Y0.8666 
G01 X-2.8351 Y0.8716 
G01 X-2.8351 Y1.0340 
G01 X-2.8361 Y1.0350 
G01 X-2.8361 Y1.0649 
G01 X-2.8149 Y1.0861 
G01 X-2.7850 Y1.0861 
G01 X-2.7840 Y1.0851 
G01 X-2.4645 Y1.0851 
G01 X-2.4145 Y1.0851 
G01 X-2.2861 Y1.2135 
G01 X-2.2861 Y1.2909 
G01 X-2.2851 Y1.2919 
G01 X-2.2851 Y1.3145 
G01 X-2.2645 Y1.3351 
G01 X-2.2575 Y1.3351 
G01 X-2.1801 Y1.4125 
G01 X-2.1801 Y1.6375 
G01 X-2.1801 Y1.6625 
G01 X-2.1801 Y1.7790 
G01 X-2.1861 Y1.7850 
G00 Z0.0200 
G00 X-2.2361 Y0.7350 
G01 Z-0.0100 F10.00 
G01 X-2.2361 Y0.7365 
G01 X-2.2851 Y0.7855 
G01 X-2.2851 Y0.8145 
G01 X-2.2851 Y0.9080 
G01 X-2.2861 Y0.9090 
G01 X-2.2861 Y0.9909 
G01 X-2.2649 Y1.0121 
G01 X-2.2350 Y1.0121 
G01 X-2.2139 Y0.9909 
G01 X-2.2139 Y0.9090 
G01 X-2.2149 Y0.9080 
G01 X-2.2149 Y0.8145 
G01 X-2.1865 Y0.7861 
G01 X-2.1850 Y0.7861 
G01 X-2.1639 Y0.7649 
G01 X-2.1639 Y0.7350 
G01 X-2.1850 Y0.7139 
G01 X-2.2149 Y0.7139 
G01 X-2.2361 Y0.7350 
G00 Z0.0200 
G00 X-1.5166 Y1.2901 
G01 Z-0.0100 F10.00 
G01 X-1.4834 Y1.2901 
G01 X-1.4599 Y1.2666 
G01 X-1.4599 Y1.2411 
G01 X-1.4279 Y1.2091 
G01 X-1.4279 Y1.1908 
G01 X-1.4279 Y1.0289 
G01 X-1.4139 Y1.0149 
G01 X-1.4139 Y0.9850 
G01 X-1.4350 Y0.9639 
G01 X-1.4649 Y0.9639 
G01 X-1.4861 Y0.9850 
G01 X-1.4861 Y1.0149 
G01 X-1.4721 Y1.0289 
G01 X-1.4721 Y1.1908 
G01 X-1.4911 Y1.2099 
G01 X-1.5166 Y1.2099 
G01 X-1.5346 Y1.2279 
G01 X-1.6941 Y1.2279 
G01 X-1.6947 Y1.2264 
G01 X-1.7064 Y1.2147 
G01 X-1.7217 Y1.2084 
G01 X-1.7383 Y1.2084 
G01 X-1.7536 Y1.2147 
G01 X-1.7649 Y1.2261 
G01 X-1.7649 Y1.1145 
G01 X-1.4877 Y0.8374 
G01 X-1.4720 Y0.8531 
G01 X-1.4280 Y0.8531 
G01 X-1.3969 Y0.8220 
G01 X-1.3969 Y0.7531 
G01 X-1.2239 Y0.7531 
G01 X-1.2149 Y0.7621 
G01 X-1.1850 Y0.7621 
G01 X-1.1761 Y0.7531 
G01 X-1.1239 Y0.7531 
G01 X-1.1149 Y0.7621 
G01 X-1.0850 Y0.7621 
G01 X-1.0761 Y0.7531 
G01 X-1.0239 Y0.7531 
G01 X-1.0149 Y0.7621 
G01 X-0.9850 Y0.7621 
G01 X-0.9639 Y0.7409 
G01 X-0.9639 Y0.7390 
G01 X-0.9469 Y0.7220 
G01 X-0.9469 Y0.6780 
G01 X-0.9639 Y0.6610 
G01 X-0.9639 Y0.6590 
G01 X-0.9850 Y0.6379 
G01 X-1.0149 Y0.6379 
G01 X-1.0239 Y0.6469 
G01 X-1.0761 Y0.6469 
G01 X-1.0850 Y0.6379 
G01 X-1.1149 Y0.6379 
G01 X-1.1239 Y0.6469 
G01 X-1.1761 Y0.6469 
G01 X-1.1850 Y0.6379 
G01 X-1.2149 Y0.6379 
G01 X-1.2239 Y0.6469 
G01 X-1.3969 Y0.6469 
G01 X-1.3969 Y0.3031 
G01 X-0.8721 Y0.3031 
G01 X-0.8721 Y0.3591 
G01 X-0.8591 Y0.3721 
G01 X-0.7721 Y0.4591 
G01 X-0.7721 Y0.6509 
G01 X-0.7779 Y0.6450 
G01 X-0.7779 Y0.5408 
G01 X-0.7908 Y0.5279 
G01 X-0.9908 Y0.3279 
G01 X-1.0091 Y0.3279 
G01 X-1.2654 Y0.3279 
G01 X-1.2834 Y0.3099 
G01 X-1.3166 Y0.3099 
G01 X-1.3401 Y0.3334 
G01 X-1.3401 Y0.3666 
G01 X-1.3166 Y0.3901 
G01 X-1.2834 Y0.3901 
G01 X-1.2654 Y0.3721 
G01 X-1.0091 Y0.3721 
G01 X-0.8221 Y0.5591 
G01 X-0.8221 Y0.6450 
G01 X-0.8361 Y0.6590 
G01 X-0.8361 Y0.7409 
G01 X-0.8221 Y0.7549 
G01 X-0.8221 Y0.7779 
G01 X-1.2091 Y0.7779 
G01 X-1.2221 Y0.7908 
G01 X-1.2221 Y0.8091 
G01 X-1.2221 Y0.9450 
G01 X-1.2361 Y0.9590 
G01 X-1.2361 Y1.0409 
G01 X-1.2149 Y1.0621 
G01 X-1.1850 Y1.0621 
G01 X-1.1639 Y1.0409 
G01 X-1.1639 Y0.9590 
G01 X-1.1779 Y0.9450 
G01 X-1.1779 Y0.8221 
G01 X-0.8091 Y0.8221 
G01 X-0.7908 Y0.8221 
G01 X-0.7779 Y0.8091 
G01 X-0.7779 Y0.7549 
G01 X-0.7721 Y0.7491 
G01 X-0.7721 Y0.9509 
G01 X-0.7850 Y0.9379 
G01 X-0.8149 Y0.9379 
G01 X-0.8361 Y0.9590 
G01 X-0.8361 Y1.0409 
G01 X-0.8221 Y1.0549 
G01 X-0.8221 Y1.5591 
G01 X-0.8091 Y1.5721 
G01 X-0.7361 Y1.6451 
G01 X-0.7361 Y1.6649 
G01 X-0.7221 Y1.6789 
G01 X-0.7221 Y1.6908 
G01 X-0.7911 Y1.7599 
G01 X-0.8166 Y1.7599 
G01 X-0.8401 Y1.7834 
G01 X-0.8401 Y1.8166 
G01 X-0.8166 Y1.8401 
G01 X-0.7834 Y1.8401 
G01 X-0.7599 Y1.8166 
G01 X-0.7599 Y1.7911 
G01 X-0.6908 Y1.7221 
G01 X-0.6779 Y1.7091 
G01 X-0.6779 Y1.6789 
G01 X-0.6639 Y1.6649 
G01 X-0.6639 Y1.6350 
G01 X-0.6850 Y1.6139 
G01 X-0.7048 Y1.6139 
G01 X-0.7779 Y1.5408 
G01 X-0.7779 Y1.0549 
G01 X-0.7721 Y1.0491 
G01 X-0.7721 Y1.4091 
G01 X-0.7591 Y1.4221 
G01 X-0.7361 Y1.4451 
G01 X-0.7361 Y1.4649 
G01 X-0.7149 Y1.4861 
G01 X-0.6850 Y1.4861 
G01 X-0.6639 Y1.4649 
G01 X-0.6639 Y1.4350 
G01 X-0.6850 Y1.4139 
G01 X-0.7049 Y1.4139 
G01 X-0.7279 Y1.3908 
G01 X-0.7279 Y1.0491 
G01 X-0.7149 Y1.0621 
G01 X-0.6850 Y1.0621 
G01 X-0.6639 Y1.0409 
G01 X-0.6639 Y1.0301 
G01 X-0.6531 Y1.0301 
G01 X-0.6531 Y1.3280 
G01 X-0.6531 Y1.3720 
G01 X-0.4426 Y1.5825 
G01 X-0.4426 Y1.6197 
G01 X-0.4125 Y1.6498 
G01 X-0.4031 Y1.6498 
G01 X-0.4031 Y1.8469 
G01 X-2.6969 Y1.8469 
G01 X-2.6969 Y1.5720 
G01 X-2.4370 Y1.3121 
G01 X-2.4350 Y1.3121 
G01 X-2.4330 Y1.3101 
G01 X-2.3669 Y1.3101 
G01 X-2.3649 Y1.3121 
G01 X-2.3350 Y1.3121 
G01 X-2.3330 Y1.3101 
G01 X-2.3251 Y1.3101 
G01 X-2.2899 Y1.2749 
G01 X-2.2899 Y1.2251 
G01 X-2.3251 Y1.1899 
G01 X-2.3330 Y1.1899 
G01 X-2.3350 Y1.1879 
G01 X-2.3649 Y1.1879 
G01 X-2.3669 Y1.1899 
G01 X-2.4330 Y1.1899 
G01 X-2.4350 Y1.1879 
G01 X-2.4649 Y1.1879 
G01 X-2.4669 Y1.1899 
G01 X-2.4749 Y1.1899 
G01 X-2.5101 Y1.2251 
G01 X-2.5101 Y1.2350 
G01 X-2.8031 Y1.5280 
G01 X-2.8031 Y1.5720 
G01 X-2.8031 Y1.9220 
G01 X-2.7720 Y1.9531 
G01 X-2.7280 Y1.9531 
G01 X-0.3280 Y1.9531 
G01 X-0.2969 Y1.9220 
G01 X-0.2969 Y1.8780 
G01 X-0.2969 Y1.6498 
G01 X-0.2875 Y1.6498 
G01 X-0.2601 Y1.6224 
G01 X-0.2601 Y1.6594 
G01 X-0.2601 Y1.6702 
G01 X-0.2525 Y1.6779 
G01 X-0.2408 Y1.6779 
G01 X-0.2300 Y1.6779 
G01 X-0.1833 Y1.6312 
G01 X-0.1716 Y1.6312 
G01 X-0.1639 Y1.6235 
G01 X-0.1639 Y1.6127 
G01 X-0.1716 Y1.6050 
G01 X-0.1941 Y1.6050 
G01 X-0.1948 Y1.6057 
G01 X-0.2340 Y1.6449 
G01 X-0.2340 Y1.6127 
G01 X-0.2416 Y1.6050 
G01 X-0.2525 Y1.6050 
G01 X-0.2574 Y1.6099 
G01 X-0.2574 Y1.5809 
G01 X-0.2485 Y1.5720 
G01 X-0.2485 Y1.5769 
G01 X-0.2408 Y1.5846 
G01 X-0.2251 Y1.5846 
G01 X-0.2251 Y1.6003 
G01 X-0.2174 Y1.6079 
G01 X-0.2066 Y1.6079 
G01 X-0.1989 Y1.6003 
G01 X-0.1989 Y1.5846 
G01 X-0.1832 Y1.5846 
G01 X-0.1756 Y1.5769 
G01 X-0.1756 Y1.5661 
G01 X-0.1832 Y1.5584 
G01 X-0.1989 Y1.5584 
G01 X-0.1989 Y1.5427 
G01 X-0.2066 Y1.5350 
G01 X-0.2115 Y1.5350 
G01 X-0.1780 Y1.5015 
G01 X-0.1469 Y1.4704 
G01 X-0.1469 Y1.0480 
G01 X-0.1469 Y1.0280 
G01 X-0.1780 Y0.9969 
G01 X-0.2220 Y0.9969 
G01 X-0.2531 Y1.0280 
G01 X-0.2531 Y1.0480 
G01 X-0.2531 Y1.4264 
G01 X-0.3508 Y1.5241 
G01 X-0.5469 Y1.3280 
G01 X-0.5469 Y0.9780 
G01 X-0.5469 Y0.6782 
G01 X-0.5031 Y0.7220 
G01 X-0.4720 Y0.7531 
G01 X-0.2531 Y0.7531 
G01 X-0.2531 Y0.8769 
G01 X-0.3280 Y0.8769 
G01 X-0.3720 Y0.8769 
G01 X-0.4031 Y0.9080 
G01 X-0.4031 Y1.3502 
G01 X-0.4125 Y1.3502 
G01 X-0.4426 Y1.3803 
G01 X-0.4426 Y1.4228 
G01 X-0.4125 Y1.4529 
G01 X-0.3737 Y1.4529 
G01 X-0.3720 Y1.4547 
G01 X-0.3280 Y1.4547 
G01 X-0.3263 Y1.4529 
G01 X-0.2875 Y1.4529 
G01 X-0.2574 Y1.4228 
G01 X-0.2574 Y1.3803 
G01 X-0.2875 Y1.3502 
G01 X-0.2969 Y1.3502 
G01 X-0.2969 Y0.9831 
G01 X-0.2220 Y0.9831 
G01 X-0.1780 Y0.9831 
G01 X-0.1469 Y0.9520 
G01 X-0.1469 Y0.7220 
G01 X-0.1469 Y0.6780 
G01 X-0.1469 Y0.2720 
G01 X-0.1469 Y0.2280 
G01 X-0.1780 Y0.1969 
G01 X-0.8280 Y0.1969 
G01 X-1.4280 Y0.1969 
G01 X-2.0220 Y0.1969 
G01 X-2.0531 Y0.2280 
G01 X-2.0531 Y0.2720 
G01 X-2.0531 Y0.3280 
G01 X-2.2220 Y0.4969 
G01 X-2.3780 Y0.4969 
G01 X-2.5469 Y0.3280 
G01 X-2.5469 Y0.2280 
G01 X-2.5780 Y0.1969 
G01 X-2.6220 Y0.1969 
G01 X-2.7780 Y0.1969 
G01 X-2.9220 Y0.1969 
G01 X-2.9531 Y0.2280 
G01 X-2.9531 Y0.2720 
G01 X-2.9531 Y1.1720 
G01 X-2.9220 Y1.2031 
G01 X-2.8220 Y1.3031 
G01 X-2.7780 Y1.3031 
G01 X-2.7469 Y1.2720 
G01 X-2.7280 Y1.2531 
G01 X-2.6280 Y1.2531 
G01 X-2.5969 Y1.2220 
G01 X-2.5969 Y1.1780 
G01 X-2.6280 Y1.1469 
G01 X-2.7280 Y1.1469 
G01 X-2.7720 Y1.1469 
G01 X-2.8000 Y1.1749 
G01 X-2.8469 Y1.1280 
G01 X-2.8469 Y0.3031 
G01 X-2.7780 Y0.3031 
G01 X-2.6531 Y0.3031 
G01 X-2.6531 Y0.3720 
G01 X-2.6220 Y0.4031 
G01 X-2.4220 Y0.6031 
G01 X-2.3780 Y0.6031 
G01 X-2.2220 Y0.6031 
G01 X-2.1780 Y0.6031 
G01 X-1.9469 Y0.3720 
G01 X-1.9469 Y0.3280 
G01 X-1.9469 Y0.3031 
G01 X-1.5031 Y0.3031 
G01 X-1.5031 Y0.6780 
G01 X-1.5031 Y0.7220 
G01 X-1.5031 Y0.7649 
G01 X-1.5145 Y0.7649 
G01 X-1.8145 Y1.0649 
G01 X-1.8351 Y1.0855 
G01 X-1.8351 Y1.2261 
G01 X-1.8479 Y1.2133 
G01 X-1.8479 Y0.9708 
G01 X-1.8608 Y0.9579 
G01 X-1.8609 Y0.9579 
G01 X-1.9467 Y0.8721 
G01 X-1.9091 Y0.8721 
G01 X-1.8908 Y0.8721 
G01 X-1.7658 Y0.7470 
G01 X-1.7652 Y0.7476 
G01 X-1.7229 Y0.7651 
G01 X-1.6771 Y0.7651 
G01 X-1.6348 Y0.7476 
G01 X-1.6024 Y0.7152 
G01 X-1.5849 Y0.6729 
G01 X-1.5849 Y0.6271 
G01 X-1.6024 Y0.5848 
G01 X-1.6348 Y0.5524 
G01 X-1.6771 Y0.5349 
G01 X-1.7229 Y0.5349 
G01 X-1.7652 Y0.5524 
G01 X-1.7976 Y0.5848 
G01 X-1.8151 Y0.6271 
G01 X-1.8151 Y0.6729 
G01 X-1.7976 Y0.7152 
G01 X-1.7970 Y0.7158 
G01 X-1.9091 Y0.8279 
G01 X-1.9654 Y0.8279 
G01 X-1.9834 Y0.8099 
G01 X-2.0166 Y0.8099 
G01 X-2.0346 Y0.8279 
G01 X-2.0591 Y0.8279 
G01 X-2.0721 Y0.8408 
G01 X-2.1271 Y0.8959 
G01 X-2.1350 Y0.8879 
G01 X-2.1649 Y0.8879 
G01 X-2.1861 Y0.9090 
G01 X-2.1861 Y0.9909 
G01 X-2.1649 Y1.0121 
G01 X-2.1350 Y1.0121 
G01 X-2.1139 Y0.9909 
G01 X-2.1139 Y0.9451 
G01 X-2.0408 Y0.8721 
G01 X-2.0346 Y0.8721 
G01 X-2.0166 Y0.8901 
G01 X-1.9911 Y0.8901 
G01 X-1.8921 Y0.9891 
G01 X-1.8921 Y1.2133 
G01 X-1.9116 Y1.2328 
G01 X-1.9116 Y1.2672 
G01 X-1.8889 Y1.2899 
G01 X-2.0251 Y1.2899 
G01 X-2.1251 Y1.1899 
G01 X-2.1330 Y1.1899 
G01 X-2.1350 Y1.1879 
G01 X-2.1649 Y1.1879 
G01 X-2.1669 Y1.1899 
G01 X-2.1749 Y1.1899 
G01 X-2.2101 Y1.2251 
G01 X-2.2101 Y1.2749 
G01 X-2.0749 Y1.4101 
G01 X-2.0251 Y1.4101 
G01 X-1.7751 Y1.4101 
G01 X-1.7617 Y1.4101 
G01 X-1.7617 Y1.6749 
G01 X-1.7529 Y1.6836 
G01 X-1.7529 Y1.7125 
G01 X-1.7228 Y1.7426 
G01 X-1.6803 Y1.7426 
G01 X-1.6502 Y1.7125 
G01 X-1.6502 Y1.6836 
G01 X-1.6415 Y1.6749 
G01 X-1.6415 Y1.3765 
G01 X-1.6399 Y1.3749 
G01 X-1.6399 Y1.3251 
G01 X-1.6751 Y1.2899 
G01 X-1.7177 Y1.2899 
G01 X-1.7064 Y1.2853 
G01 X-1.6947 Y1.2736 
G01 X-1.6941 Y1.2721 
G01 X-1.5346 Y1.2721 
G01 X-1.5166 Y1.2901 
G00 Z0.0200 
G00 X-0.9401 Y1.2666 
G01 Z-0.0100 F10.00 
G01 X-0.9166 Y1.2901 
G01 X-0.8834 Y1.2901 
G01 X-0.8599 Y1.2666 
G01 X-0.8599 Y1.2334 
G01 X-0.8834 Y1.2099 
G01 X-0.9088 Y1.2099 
G01 X-0.9779 Y1.1408 
G01 X-0.9779 Y1.0549 
G01 X-0.9639 Y1.0409 
G01 X-0.9639 Y0.9590 
G01 X-0.9850 Y0.9379 
G01 X-1.0149 Y0.9379 
G01 X-1.0361 Y0.9590 
G01 X-1.0361 Y1.0409 
G01 X-1.0221 Y1.0549 
G01 X-1.0221 Y1.1408 
G01 X-1.0221 Y1.1591 
G01 X-0.9401 Y1.2411 
G01 X-0.9401 Y1.2666 
G00 Z0.0200 
G00 X-1.4361 Y1.5350 
G01 Z-0.0100 F10.00 
G01 X-1.4361 Y1.5649 
G01 X-1.4181 Y1.5829 
G01 X-1.4181 Y1.7614 
G01 X-1.4401 Y1.7834 
G01 X-1.4401 Y1.8166 
G01 X-1.4166 Y1.8401 
G01 X-1.3834 Y1.8401 
G01 X-1.3599 Y1.8166 
G01 X-1.3599 Y1.7834 
G01 X-1.3819 Y1.7614 
G01 X-1.3819 Y1.5829 
G01 X-1.3639 Y1.5649 
G01 X-1.3639 Y1.5350 
G01 X-1.3850 Y1.5139 
G01 X-1.4149 Y1.5139 
G01 X-1.4361 Y1.5350 
G00 Z0.0200 
G00 X-2.3649 Y1.0121 
G01 Z-0.0100 F10.00 
G01 X-2.3350 Y1.0121 
G01 X-2.3139 Y0.9909 
G01 X-2.3139 Y0.9090 
G01 X-2.3149 Y0.9080 
G01 X-2.3149 Y0.8355 
G01 X-2.3355 Y0.8149 
G01 X-2.3645 Y0.8149 
G01 X-2.3649 Y0.8149 
G01 X-2.3649 Y0.7659 
G01 X-2.3639 Y0.7649 
G01 X-2.3639 Y0.7350 
G01 X-2.3850 Y0.7139 
G01 X-2.4149 Y0.7139 
G01 X-2.4361 Y0.7350 
G01 X-2.4361 Y0.7649 
G01 X-2.4351 Y0.7659 
G01 X-2.4351 Y0.8149 
G01 X-2.5784 Y0.8149 
G01 X-2.5834 Y0.8099 
G01 X-2.6166 Y0.8099 
G01 X-2.6401 Y0.8334 
G01 X-2.6401 Y0.8666 
G01 X-2.6166 Y0.8901 
G01 X-2.5834 Y0.8901 
G01 X-2.5784 Y0.8851 
G01 X-2.4145 Y0.8851 
G01 X-2.3855 Y0.8851 
G01 X-2.3851 Y0.8851 
G01 X-2.3851 Y0.9080 
G01 X-2.3861 Y0.9090 
G01 X-2.3861 Y0.9909 
G01 X-2.3649 Y1.0121 
G00 Z0.0200 
G00 X-0.9149 Y1.0621 
G01 Z-0.0100 F10.00 
G01 X-0.8850 Y1.0621 
G01 X-0.8639 Y1.0409 
G01 X-0.8639 Y0.9590 
G01 X-0.8779 Y0.9451 
G01 X-0.8779 Y0.8908 
G01 X-0.8908 Y0.8779 
G01 X-0.9091 Y0.8779 
G01 X-1.1091 Y0.8779 
G01 X-1.1221 Y0.8908 
G01 X-1.1221 Y0.9091 
G01 X-1.1221 Y0.9451 
G01 X-1.1361 Y0.9590 
G01 X-1.1361 Y1.0409 
G01 X-1.1221 Y1.0549 
G01 X-1.1221 Y1.4408 
G01 X-1.1951 Y1.5139 
G01 X-1.2149 Y1.5139 
G01 X-1.2361 Y1.5350 
G01 X-1.2361 Y1.5548 
G01 X-1.2951 Y1.6139 
G01 X-1.3149 Y1.6139 
G01 X-1.3361 Y1.6350 
G01 X-1.3361 Y1.6649 
G01 X-1.3149 Y1.6861 
G01 X-1.2850 Y1.6861 
G01 X-1.2639 Y1.6649 
G01 X-1.2639 Y1.6451 
G01 X-1.2048 Y1.5861 
G01 X-1.1850 Y1.5861 
G01 X-1.1639 Y1.5649 
G01 X-1.1639 Y1.5451 
G01 X-1.0908 Y1.4721 
G01 X-1.0779 Y1.4591 
G01 X-1.0779 Y1.0549 
G01 X-1.0639 Y1.0409 
G01 X-1.0639 Y0.9590 
G01 X-1.0779 Y0.9451 
G01 X-1.0779 Y0.9221 
G01 X-0.9221 Y0.9221 
G01 X-0.9221 Y0.9451 
G01 X-0.9361 Y0.9590 
G01 X-0.9361 Y1.0409 
G01 X-0.9149 Y1.0621 
G00 Z0.0200 
G00 X-0.9149 Y0.7621 
G01 Z-0.0100 F10.00 
G01 X-0.8850 Y0.7621 
G01 X-0.8639 Y0.7409 
G01 X-0.8639 Y0.6590 
G01 X-0.8850 Y0.6379 
G01 X-0.9149 Y0.6379 
G01 X-0.9361 Y0.6590 
G01 X-0.9361 Y0.7409 
G01 X-0.9149 Y0.7621 
G00 Z0.0200 
G00 X-2.0476 Y1.4911 
G01 Z-0.0100 F10.00 
G01 X-2.0478 Y1.4909 
G01 X-2.0515 Y1.4873 
G01 X-2.0515 Y1.4873 
G01 X-2.0748 Y1.4639 
G01 X-2.0857 Y1.4639 
G01 X-2.0933 Y1.4716 
G01 X-2.1167 Y1.4949 
G01 X-2.1167 Y1.5058 
G01 X-2.1167 Y1.5525 
G01 X-2.1090 Y1.5601 
G01 X-2.0982 Y1.5601 
G01 X-2.0905 Y1.5525 
G01 X-2.0905 Y1.5058 
G01 X-2.0802 Y1.4955 
G01 X-2.0700 Y1.5058 
G01 X-2.0700 Y1.5525 
G01 X-2.0623 Y1.5601 
G01 X-2.0515 Y1.5601 
G01 X-2.0438 Y1.5525 
G01 X-2.0438 Y1.5204 
G01 X-2.0390 Y1.5251 
G01 X-2.0350 Y1.5291 
G01 X-2.0350 Y1.5291 
G01 X-2.0315 Y1.5326 
G01 X-2.0312 Y1.5330 
G01 X-2.0274 Y1.5368 
G01 X-2.0165 Y1.5368 
G01 X-1.9932 Y1.5368 
G01 X-1.9855 Y1.5291 
G01 X-1.9767 Y1.5204 
G01 X-1.9767 Y1.5291 
G01 X-1.9691 Y1.5368 
G01 X-1.9582 Y1.5368 
G01 X-1.9505 Y1.5291 
G01 X-1.9505 Y1.4941 
G01 X-1.9465 Y1.4901 
G01 X-1.9300 Y1.4901 
G01 X-1.9300 Y1.5291 
G01 X-1.9224 Y1.5368 
G01 X-1.9115 Y1.5368 
G01 X-1.9053 Y1.5306 
G01 X-1.8991 Y1.5368 
G01 X-1.8951 Y1.5368 
G01 X-1.8951 Y1.5408 
G01 X-1.8874 Y1.5485 
G01 X-1.8766 Y1.5485 
G01 X-1.8689 Y1.5408 
G01 X-1.8689 Y1.5368 
G01 X-1.8649 Y1.5368 
G01 X-1.8572 Y1.5291 
G01 X-1.8572 Y1.5183 
G01 X-1.8649 Y1.5106 
G01 X-1.8689 Y1.5106 
G01 X-1.8689 Y1.4941 
G01 X-1.8611 Y1.4863 
G01 X-1.8572 Y1.4824 
G01 X-1.8572 Y1.4716 
G01 X-1.8649 Y1.4639 
G01 X-1.8757 Y1.4639 
G01 X-1.8874 Y1.4756 
G01 X-1.8874 Y1.4756 
G01 X-1.8908 Y1.4790 
G01 X-1.8912 Y1.4794 
G01 X-1.8951 Y1.4832 
G01 X-1.8951 Y1.4941 
G01 X-1.8951 Y1.5106 
G01 X-1.8991 Y1.5106 
G01 X-1.9038 Y1.5154 
G01 X-1.9038 Y1.4716 
G01 X-1.9115 Y1.4639 
G01 X-1.9224 Y1.4639 
G01 X-1.9574 Y1.4639 
G01 X-1.9651 Y1.4716 
G01 X-1.9753 Y1.4818 
G01 X-1.9761 Y1.4809 
G01 X-1.9776 Y1.4794 
G01 X-1.9777 Y1.4793 
G01 X-1.9815 Y1.4756 
G01 X-1.9815 Y1.4756 
G01 X-1.9856 Y1.4715 
G01 X-1.9932 Y1.4639 
G01 X-1.9932 Y1.4639 
G01 X-2.0040 Y1.4639 
G01 X-2.0165 Y1.4639 
G01 X-2.0274 Y1.4639 
G01 X-2.0467 Y1.4832 
G01 X-2.0467 Y1.4920 
G01 X-2.0476 Y1.4911 
G00 Z0.0200 
G00 X-1.6048 Y1.7256 
G01 Z-0.0100 F10.00 
G01 X-1.6048 Y1.7256 
G01 X-1.6089 Y1.7215 
G01 X-1.6165 Y1.7139 
G01 X-1.6165 Y1.7139 
G01 X-1.6273 Y1.7139 
G01 X-1.6507 Y1.7139 
G01 X-1.6584 Y1.7216 
G01 X-1.6584 Y1.7216 
G01 X-1.6624 Y1.7256 
G01 X-1.6624 Y1.7256 
G01 X-1.6700 Y1.7332 
G01 X-1.6700 Y1.7908 
G01 X-1.6624 Y1.7985 
G01 X-1.6584 Y1.8025 
G01 X-1.6584 Y1.8025 
G01 X-1.6549 Y1.8059 
G01 X-1.6545 Y1.8063 
G01 X-1.6507 Y1.8101 
G01 X-1.6398 Y1.8101 
G01 X-1.6165 Y1.8101 
G01 X-1.6088 Y1.8025 
G01 X-1.6001 Y1.7937 
G01 X-1.6001 Y1.8025 
G01 X-1.5924 Y1.8101 
G01 X-1.5815 Y1.8101 
G01 X-1.5768 Y1.8054 
G01 X-1.5768 Y1.8054 
G01 X-1.5739 Y1.8025 
G01 X-1.5739 Y1.8010 
G01 X-1.5533 Y1.7702 
G01 X-1.5533 Y1.8025 
G01 X-1.5457 Y1.8101 
G01 X-1.5348 Y1.8101 
G01 X-1.5286 Y1.8039 
G01 X-1.5224 Y1.8101 
G01 X-1.4765 Y1.8101 
G01 X-1.4689 Y1.8025 
G01 X-1.4572 Y1.7908 
G01 X-1.4572 Y1.7800 
G01 X-1.4572 Y1.7332 
G01 X-1.4649 Y1.7256 
G01 X-1.4649 Y1.7256 
G01 X-1.4689 Y1.7215 
G01 X-1.4765 Y1.7139 
G01 X-1.4765 Y1.7139 
G01 X-1.4874 Y1.7139 
G01 X-1.5224 Y1.7139 
G01 X-1.5286 Y1.7201 
G01 X-1.5348 Y1.7139 
G01 X-1.5457 Y1.7139 
G01 X-1.5533 Y1.7216 
G01 X-1.5533 Y1.7230 
G01 X-1.5739 Y1.7538 
G01 X-1.5739 Y1.7216 
G01 X-1.5815 Y1.7139 
G01 X-1.5924 Y1.7139 
G01 X-1.6001 Y1.7216 
G01 X-1.6001 Y1.7303 
G01 X-1.6048 Y1.7256 
G00 Z0.0200 
G00 X-0.6962 Y0.1084 
G01 Z-0.0100 F10.00 
G01 X-0.6962 Y0.0976 
G01 X-0.7039 Y0.0899 
G01 X-0.7273 Y0.0899 
G01 X-0.7381 Y0.0899 
G01 X-0.7498 Y0.1016 
G01 X-0.7560 Y0.1078 
G01 X-0.7568 Y0.1070 
G01 X-0.7584 Y0.1054 
G01 X-0.7585 Y0.1053 
G01 X-0.7622 Y0.1016 
G01 X-0.7622 Y0.1016 
G01 X-0.7663 Y0.0975 
G01 X-0.7739 Y0.0899 
G01 X-0.7739 Y0.0899 
G01 X-0.7847 Y0.0899 
G01 X-0.8198 Y0.0899 
G01 X-0.8274 Y0.0976 
G01 X-0.8274 Y0.1063 
G01 X-0.8278 Y0.1059 
G01 X-0.8283 Y0.1054 
G01 X-0.8284 Y0.1054 
G01 X-0.8322 Y0.1016 
G01 X-0.8322 Y0.1016 
G01 X-0.8363 Y0.0975 
G01 X-0.8439 Y0.0899 
G01 X-0.8439 Y0.0899 
G01 X-0.8547 Y0.0899 
G01 X-0.8897 Y0.0899 
G01 X-0.8959 Y0.0961 
G01 X-0.9022 Y0.0899 
G01 X-0.9130 Y0.0899 
G01 X-0.9480 Y0.0899 
G01 X-0.9557 Y0.0976 
G01 X-0.9645 Y0.1063 
G01 X-0.9645 Y0.0976 
G01 X-0.9721 Y0.0899 
G01 X-0.9830 Y0.0899 
G01 X-1.0063 Y0.1133 
G01 X-1.0112 Y0.1133 
G01 X-1.0112 Y0.0976 
G01 X-1.0188 Y0.0899 
G01 X-1.0297 Y0.0899 
G01 X-1.0374 Y0.0976 
G01 X-1.0374 Y0.1209 
G01 X-1.0374 Y0.1318 
G01 X-1.0374 Y0.1676 
G01 X-1.0374 Y0.1785 
G01 X-1.0297 Y0.1861 
G01 X-0.9947 Y0.1861 
G01 X-0.9838 Y0.1861 
G01 X-0.9721 Y0.1745 
G01 X-0.9645 Y0.1668 
G01 X-0.9645 Y0.1580 
G01 X-0.9597 Y0.1628 
G01 X-0.9489 Y0.1628 
G01 X-0.9412 Y0.1551 
G01 X-0.9412 Y0.1201 
G01 X-0.9372 Y0.1161 
G01 X-0.9207 Y0.1161 
G01 X-0.9207 Y0.1551 
G01 X-0.9130 Y0.1628 
G01 X-0.9022 Y0.1628 
G01 X-0.8945 Y0.1551 
G01 X-0.8945 Y0.1464 
G01 X-0.8898 Y0.1510 
G01 X-0.8857 Y0.1551 
G01 X-0.8857 Y0.1551 
G01 X-0.8819 Y0.1589 
G01 X-0.8819 Y0.1590 
G01 X-0.8806 Y0.1602 
G01 X-0.8781 Y0.1628 
G01 X-0.8322 Y0.1628 
G01 X-0.8245 Y0.1551 
G01 X-0.8245 Y0.1464 
G01 X-0.8199 Y0.1510 
G01 X-0.8158 Y0.1551 
G01 X-0.8158 Y0.1551 
G01 X-0.8120 Y0.1588 
G01 X-0.8119 Y0.1590 
G01 X-0.8099 Y0.1609 
G01 X-0.8081 Y0.1628 
G01 X-0.7622 Y0.1628 
G01 X-0.7545 Y0.1551 
G01 X-0.7545 Y0.1464 
G01 X-0.7499 Y0.1510 
G01 X-0.7458 Y0.1551 
G01 X-0.7458 Y0.1551 
G01 X-0.7421 Y0.1588 
G01 X-0.7419 Y0.1590 
G01 X-0.7397 Y0.1612 
G01 X-0.7381 Y0.1628 
G01 X-0.7148 Y0.1628 
G01 X-0.7039 Y0.1628 
G01 X-0.6922 Y0.1511 
G01 X-0.6846 Y0.1434 
G01 X-0.6846 Y0.1318 
G01 X-0.6846 Y0.1209 
G01 X-0.6922 Y0.1133 
G01 X-0.7011 Y0.1133 
G01 X-0.6962 Y0.1084 
G00 Z0.0200 
G00 X-1.1744 Y0.1084 
G01 Z-0.0100 F10.00 
G01 X-1.1744 Y0.0976 
G01 X-1.1821 Y0.0899 
G01 X-1.2054 Y0.0899 
G01 X-1.2163 Y0.0899 
G01 X-1.2280 Y0.1016 
G01 X-1.2327 Y0.1063 
G01 X-1.2327 Y0.0976 
G01 X-1.2404 Y0.0899 
G01 X-1.2863 Y0.0899 
G01 X-1.2939 Y0.0976 
G01 X-1.3027 Y0.1063 
G01 X-1.3027 Y0.0976 
G01 X-1.3104 Y0.0899 
G01 X-1.3212 Y0.0899 
G01 X-1.3289 Y0.0976 
G01 X-1.3289 Y0.1326 
G01 X-1.3329 Y0.1366 
G01 X-1.3494 Y0.1366 
G01 X-1.3494 Y0.0976 
G01 X-1.3571 Y0.0899 
G01 X-1.3679 Y0.0899 
G01 X-1.3756 Y0.0976 
G01 X-1.3756 Y0.1180 
G01 X-1.3803 Y0.1133 
G01 X-1.3892 Y0.1133 
G01 X-1.3843 Y0.1084 
G01 X-1.3843 Y0.0976 
G01 X-1.3920 Y0.0899 
G01 X-1.4154 Y0.0899 
G01 X-1.4262 Y0.0899 
G01 X-1.4379 Y0.1016 
G01 X-1.4441 Y0.1078 
G01 X-1.4465 Y0.1054 
G01 X-1.4467 Y0.1052 
G01 X-1.4503 Y0.1016 
G01 X-1.4503 Y0.1016 
G01 X-1.4543 Y0.0976 
G01 X-1.4620 Y0.0899 
G01 X-1.4893 Y0.0899 
G01 X-1.4893 Y0.0742 
G01 X-1.4970 Y0.0666 
G01 X-1.5079 Y0.0666 
G01 X-1.5155 Y0.0742 
G01 X-1.5155 Y0.0976 
G01 X-1.5155 Y0.1063 
G01 X-1.5203 Y0.1016 
G01 X-1.5203 Y0.1016 
G01 X-1.5243 Y0.0976 
G01 X-1.5243 Y0.0976 
G01 X-1.5320 Y0.0899 
G01 X-1.5553 Y0.0899 
G01 X-1.5662 Y0.0899 
G01 X-1.5855 Y0.1092 
G01 X-1.5855 Y0.1201 
G01 X-1.5778 Y0.1278 
G01 X-1.5690 Y0.1278 
G01 X-1.5700 Y0.1288 
G01 X-1.5702 Y0.1290 
G01 X-1.5738 Y0.1326 
G01 X-1.5738 Y0.1326 
G01 X-1.5780 Y0.1368 
G01 X-1.5855 Y0.1443 
G01 X-1.5855 Y0.1443 
G01 X-1.5855 Y0.1551 
G01 X-1.5855 Y0.1668 
G01 X-1.5778 Y0.1745 
G01 X-1.5738 Y0.1785 
G01 X-1.5738 Y0.1785 
G01 X-1.5704 Y0.1819 
G01 X-1.5700 Y0.1823 
G01 X-1.5662 Y0.1861 
G01 X-1.5553 Y0.1861 
G01 X-1.5320 Y0.1861 
G01 X-1.5243 Y0.1785 
G01 X-1.5126 Y0.1668 
G01 X-1.5126 Y0.1580 
G01 X-1.5079 Y0.1628 
G01 X-1.4728 Y0.1628 
G01 X-1.4620 Y0.1628 
G01 X-1.4503 Y0.1511 
G01 X-1.4441 Y0.1449 
G01 X-1.4380 Y0.1510 
G01 X-1.4339 Y0.1551 
G01 X-1.4339 Y0.1551 
G01 X-1.4301 Y0.1590 
G01 X-1.4300 Y0.1590 
G01 X-1.4298 Y0.1592 
G01 X-1.4262 Y0.1628 
G01 X-1.4029 Y0.1628 
G01 X-1.3920 Y0.1628 
G01 X-1.3803 Y0.1511 
G01 X-1.3756 Y0.1464 
G01 X-1.3756 Y0.1551 
G01 X-1.3679 Y0.1628 
G01 X-1.3329 Y0.1628 
G01 X-1.3220 Y0.1628 
G01 X-1.3104 Y0.1511 
G01 X-1.3041 Y0.1449 
G01 X-1.2979 Y0.1511 
G01 X-1.2939 Y0.1551 
G01 X-1.2939 Y0.1551 
G01 X-1.2904 Y0.1586 
G01 X-1.2901 Y0.1590 
G01 X-1.2863 Y0.1628 
G01 X-1.2754 Y0.1628 
G01 X-1.2404 Y0.1628 
G01 X-1.2327 Y0.1551 
G01 X-1.2327 Y0.1464 
G01 X-1.2281 Y0.1510 
G01 X-1.2239 Y0.1551 
G01 X-1.2239 Y0.1551 
G01 X-1.2203 Y0.1588 
G01 X-1.2201 Y0.1590 
G01 X-1.2178 Y0.1612 
G01 X-1.2163 Y0.1628 
G01 X-1.1929 Y0.1628 
G01 X-1.1821 Y0.1628 
G01 X-1.1704 Y0.1511 
G01 X-1.1656 Y0.1464 
G01 X-1.1656 Y0.1551 
G01 X-1.1580 Y0.1628 
G01 X-1.1471 Y0.1628 
