( This gcode generated by /opt/eagle/ulp/pcb-gcode.ulp )
( Copyright 2005 by John Johnson. See readme.txt for licensing terms. )

( This file generated from the board /home/srussell/Electronics Projects/CapSense/Rev4.brd )
( This file generated  7/11/2007 16:27:03  )

G20

G90
G00 Z0.1000 
G00 X0 Y0
M03
G04 P3.000000
G00 Z0.0200 
G00 X-0.1870 Y1.4693 
G01 Z-0.0100 F10.00 
G01 X-0.1870 Y1.4541 
G01 X-0.1809 Y1.4481 
G01 X-0.1613 Y1.4481 
G01 X-0.1847 Y1.4715 
G01 X-0.1870 Y1.4693 
G00 Z0.0200 
G00 X-0.1431 Y1.4753 
G01 Z-0.0100 F10.00 
G01 X-0.1628 Y1.4753 
G01 X-0.1393 Y1.4518 
G01 X-0.1371 Y1.4541 
G01 X-0.1371 Y1.4693 
G01 X-0.1431 Y1.4753 
G00 Z0.0200 
G00 X-0.1870 Y1.3993 
G01 Z-0.0100 F10.00 
G01 X-0.1870 Y1.3841 
G01 X-0.1809 Y1.3781 
G01 X-0.1613 Y1.3781 
G01 X-0.1847 Y1.4015 
G01 X-0.1870 Y1.3993 
G00 Z0.0200 
G00 X-0.1431 Y1.4053 
G01 Z-0.0100 F10.00 
G01 X-0.1628 Y1.4053 
G01 X-0.1393 Y1.3819 
G01 X-0.1371 Y1.3841 
G01 X-0.1371 Y1.3993 
G01 X-0.1431 Y1.4053 
G00 Z0.0200 
G00 X-0.1643 Y1.0960 
G01 Z-0.0100 F10.00 
G01 X-0.1643 Y1.0809 
G01 X-0.1598 Y1.0764 
G01 X-0.1598 Y1.1006 
G01 X-0.1643 Y1.0960 
G00 Z0.0200 
G00 X-0.6019 Y1.7371 
G01 Z-0.0100 F10.00 
G01 X-0.5807 Y1.7371 
G01 X-0.5747 Y1.7431 
G01 X-0.5747 Y1.7809 
G01 X-0.5807 Y1.7870 
G01 X-0.6019 Y1.7870 
G01 X-0.6019 Y1.7371 
G00 Z0.0200 
G00 X-1.7357 Y0.5871 
G01 Z-0.0100 F10.00 
G01 X-1.7297 Y0.5931 
G01 X-1.7297 Y0.6083 
G01 X-1.7357 Y0.6143 
G01 X-1.7509 Y0.6143 
G01 X-1.7569 Y0.6083 
G01 X-1.7569 Y0.5931 
G01 X-1.7509 Y0.5871 
G01 X-1.7357 Y0.5871 
G00 Z0.0200 
G00 X-1.9999 Y0.6332 
G01 Z-0.0100 F10.00 
G01 X-2.0120 Y0.6211 
G01 X-1.9878 Y0.6211 
G01 X-1.9999 Y0.6332 
G00 Z0.0200 
G00 X-2.0958 Y1.4631 
G01 Z-0.0100 F10.00 
G01 X-2.0897 Y1.4691 
G01 X-2.0897 Y1.4843 
G01 X-2.0958 Y1.4903 
G01 X-2.1109 Y1.4903 
G01 X-2.1169 Y1.4843 
G01 X-2.1169 Y1.4691 
G01 X-2.1109 Y1.4631 
G01 X-2.0958 Y1.4631 
G00 Z0.0200 
G00 X-1.6970 Y1.4631 
G01 Z-0.0100 F10.00 
G01 X-1.6758 Y1.4631 
G01 X-1.6698 Y1.4691 
G01 X-1.6698 Y1.5069 
G01 X-1.6758 Y1.5130 
G01 X-1.6970 Y1.5130 
G01 X-1.6970 Y1.4631 
G00 Z0.0200 
G00 X-2.8241 Y1.5089 
G01 Z-0.0100 F10.00 
G01 X-2.8211 Y1.5059 
G01 X-2.8211 Y1.5089 
G01 X-2.8241 Y1.5089 
G00 Z0.0200 
G00 X-2.7931 Y1.0654 
G01 Z-0.0100 F10.00 
G01 X-2.8083 Y1.0654 
G01 X-2.8143 Y1.0594 
G01 X-2.8143 Y1.0382 
G01 X-2.7871 Y1.0382 
G01 X-2.7871 Y1.0594 
G01 X-2.7931 Y1.0654 
G00 Z0.0200 
G00 X-2.7893 Y0.9720 
G01 Z-0.0100 F10.00 
G01 X-2.7871 Y0.9743 
G01 X-2.7871 Y0.9954 
G01 X-2.7916 Y0.9954 
G01 X-2.7916 Y0.9743 
G01 X-2.7893 Y0.9720 
G00 Z0.0200 
G00 X-2.8143 Y0.7911 
G01 Z-0.0100 F10.00 
G01 X-2.8143 Y0.7760 
G01 X-2.8098 Y0.7715 
G01 X-2.8098 Y0.7956 
G01 X-2.8143 Y0.7911 
G00 Z0.0200 
G00 X-2.7871 Y0.5812 
G01 Z-0.0100 F10.00 
G01 X-2.7931 Y0.5872 
G01 X-2.8083 Y0.5872 
G01 X-2.8143 Y0.5812 
G01 X-2.8143 Y0.5661 
G01 X-2.8083 Y0.5600 
G01 X-2.7931 Y0.5600 
G01 X-2.7871 Y0.5661 
G01 X-2.7871 Y0.5812 
G00 Z0.0200 
G00 X-0.7333 Y0.2332 
G01 Z-0.0100 F10.00 
G01 X-0.7453 Y0.2211 
G01 X-0.7212 Y0.2211 
G01 X-0.7333 Y0.2332 
G00 Z0.0200 
G00 X-2.8158 Y1.2054 
G01 Z-0.0100 F10.00 
G01 X-2.8309 Y1.2054 
G01 X-2.8370 Y1.1993 
G01 X-2.8370 Y1.1782 
G01 X-2.8098 Y1.1782 
G01 X-2.8098 Y1.1880 
G01 X-2.8098 Y1.1955 
G01 X-2.8098 Y1.1993 
G01 X-2.8158 Y1.2054 
G00 Z0.0200 
G00 X-2.8143 Y1.2693 
G01 Z-0.0100 F10.00 
G01 X-2.8143 Y1.2542 
G01 X-2.8098 Y1.2497 
G01 X-2.8098 Y1.2738 
G01 X-2.8143 Y1.2693 
G00 Z0.0200 
G00 X-1.8735 Y0.6083 
G01 Z-0.0100 F10.00 
G01 X-1.8735 Y0.5931 
G01 X-1.8675 Y0.5871 
G01 X-1.8463 Y0.5871 
G01 X-1.8463 Y0.6143 
G01 X-1.8675 Y0.6143 
G01 X-1.8735 Y0.6083 
G00 Z0.0200 
G00 X-0.5569 Y1.3121 
G01 Z-0.0100 F10.00 
G01 X-0.5357 Y1.3121 
G01 X-0.5297 Y1.3181 
G01 X-0.5297 Y1.3559 
G01 X-0.5357 Y1.3620 
G01 X-0.5569 Y1.3620 
G01 X-0.5569 Y1.3121 
G00 Z0.0200 
G00 X-0.7418 Y1.7431 
G01 Z-0.0100 F10.00 
G01 X-0.7358 Y1.7371 
G01 X-0.7207 Y1.7371 
G01 X-0.7146 Y1.7431 
G01 X-0.7146 Y1.7469 
G01 X-0.7207 Y1.7529 
G01 X-0.7418 Y1.7529 
G01 X-0.7418 Y1.7431 
G00 Z0.0200 
G00 X-0.1658 Y0.8222 
G01 Z-0.0100 F10.00 
G01 X-0.1809 Y0.8222 
G01 X-0.1870 Y0.8161 
G01 X-0.1870 Y0.7950 
G01 X-0.1598 Y0.7950 
G01 X-0.1598 Y0.8048 
G01 X-0.1598 Y0.8123 
G01 X-0.1598 Y0.8161 
G01 X-0.1658 Y0.8222 
G00 Z0.0200 
G00 X-2.0176 Y1.7376 
G01 Z-0.0100 F10.00 
G01 X-1.9792 Y1.7376 
G01 X-1.9521 Y1.7104 
G01 X-1.9521 Y1.5896 
G01 X-1.9792 Y1.5624 
G01 X-2.0176 Y1.5624 
G01 X-2.0448 Y1.5896 
G01 X-2.0448 Y1.6099 
G01 X-2.3099 Y1.6099 
G01 X-2.3099 Y1.4084 
G01 X-2.3099 Y1.2334 
G01 X-2.3099 Y1.2166 
G01 X-2.3099 Y1.1834 
G01 X-2.5099 Y0.9834 
G01 X-2.5099 Y0.9334 
G01 X-2.5099 Y0.7084 
G01 X-2.5334 Y0.6849 
G01 X-2.5666 Y0.6849 
G01 X-2.5901 Y0.7084 
G01 X-2.5901 Y0.9334 
G01 X-2.5901 Y1.0166 
G01 X-2.5666 Y1.0401 
G01 X-2.3901 Y1.2166 
G01 X-2.3901 Y1.2334 
G01 X-2.3901 Y1.4084 
G01 X-2.3901 Y1.6334 
G01 X-2.3901 Y1.6666 
G01 X-2.3666 Y1.6901 
G01 X-2.0448 Y1.6901 
G01 X-2.0448 Y1.7104 
G01 X-2.0176 Y1.7376 
G00 Z0.0200 
G00 X-2.2311 Y0.5621 
G01 Z-0.0100 F10.00 
G01 X-2.2311 Y0.5819 
G01 X-2.3391 Y0.6899 
G01 X-2.3645 Y0.6899 
G01 X-2.3851 Y0.7105 
G01 X-2.3851 Y0.7359 
G01 X-2.4671 Y0.8179 
G01 X-2.4671 Y0.8321 
G01 X-2.4671 Y0.8971 
G01 X-2.4811 Y0.9111 
G01 X-2.4811 Y0.9889 
G01 X-2.4629 Y1.0071 
G01 X-2.4371 Y1.0071 
G01 X-2.4189 Y0.9889 
G01 X-2.4189 Y0.9111 
G01 X-2.4329 Y0.8971 
G01 X-2.4329 Y0.8321 
G01 X-2.3609 Y0.7601 
G01 X-2.3355 Y0.7601 
G01 X-2.3149 Y0.7395 
G01 X-2.3149 Y0.7141 
G01 X-2.2069 Y0.6061 
G01 X-2.1871 Y0.6061 
G01 X-2.1689 Y0.5879 
G01 X-2.1689 Y0.5621 
G01 X-2.1871 Y0.5439 
G01 X-2.2129 Y0.5439 
G01 X-2.2311 Y0.5621 
G00 Z0.0200 
G00 X-2.0831 Y0.7113 
G01 Z-0.0100 F10.00 
G01 X-2.0831 Y0.7387 
G01 X-2.0671 Y0.7547 
G01 X-2.0671 Y0.8329 
G01 X-2.3571 Y0.8329 
G01 X-2.3671 Y0.8429 
G01 X-2.3671 Y0.8571 
G01 X-2.3671 Y0.8971 
G01 X-2.3811 Y0.9111 
G01 X-2.3811 Y0.9889 
G01 X-2.3629 Y1.0071 
G01 X-2.3371 Y1.0071 
G01 X-2.3189 Y0.9889 
G01 X-2.3189 Y0.9111 
G01 X-2.3329 Y0.8971 
G01 X-2.3329 Y0.8671 
G01 X-2.0571 Y0.8671 
G01 X-2.0429 Y0.8671 
G01 X-2.0329 Y0.8571 
G01 X-2.0329 Y0.7547 
G01 X-2.0169 Y0.7387 
G01 X-2.0169 Y0.7113 
G01 X-2.0363 Y0.6919 
G01 X-2.0637 Y0.6919 
G01 X-2.0831 Y0.7113 
G00 Z0.0200 
G00 X-1.9134 Y1.2073 
G01 Z-0.0100 F10.00 
G01 X-1.9134 Y1.1927 
G01 X-1.9190 Y1.1793 
G01 X-1.9293 Y1.1690 
G01 X-1.9427 Y1.1634 
G01 X-1.9573 Y1.1634 
G01 X-1.9707 Y1.1690 
G01 X-1.9810 Y1.1793 
G01 X-1.9866 Y1.1927 
G01 X-1.9866 Y1.2073 
G01 X-1.9810 Y1.2207 
G01 X-1.9707 Y1.2310 
G01 X-1.9663 Y1.2328 
G01 X-1.9571 Y1.2421 
G01 X-1.9429 Y1.2421 
G01 X-1.6825 Y1.2421 
G01 X-1.6645 Y1.2601 
G01 X-1.6355 Y1.2601 
G01 X-1.6149 Y1.2395 
G01 X-1.6149 Y1.2105 
G01 X-1.6329 Y1.1925 
G01 X-1.6329 Y1.0269 
G01 X-1.6189 Y1.0129 
G01 X-1.6189 Y0.9871 
G01 X-1.6371 Y0.9689 
G01 X-1.6629 Y0.9689 
G01 X-1.6811 Y0.9871 
G01 X-1.6811 Y1.0129 
G01 X-1.6671 Y1.0269 
G01 X-1.6671 Y1.1925 
G01 X-1.6825 Y1.2079 
G01 X-1.9137 Y1.2079 
G01 X-1.9134 Y1.2073 
G00 Z0.0200 
G00 X-1.9866 Y1.0848 
G01 Z-0.0100 F10.00 
G01 X-1.9866 Y1.1152 
G01 X-1.9652 Y1.1366 
G01 X-1.9348 Y1.1366 
G01 X-1.9134 Y1.1152 
G01 X-1.9134 Y1.0848 
G01 X-1.9329 Y1.0653 
G01 X-1.9329 Y0.9671 
G01 X-1.8929 Y0.9671 
G01 X-1.8829 Y0.9571 
G01 X-1.8829 Y0.9429 
G01 X-1.8829 Y0.7575 
G01 X-1.8675 Y0.7421 
G01 X-1.6821 Y0.7421 
G01 X-1.6679 Y0.7421 
G01 X-1.6158 Y0.6899 
G01 X-1.6124 Y0.6933 
G01 X-1.5719 Y0.7101 
G01 X-1.5281 Y0.7101 
G01 X-1.4876 Y0.6933 
G01 X-1.4567 Y0.6624 
G01 X-1.4399 Y0.6219 
G01 X-1.4399 Y0.5781 
G01 X-1.4567 Y0.5376 
G01 X-1.4876 Y0.5067 
G01 X-1.5281 Y0.4899 
G01 X-1.5719 Y0.4899 
G01 X-1.6124 Y0.5067 
G01 X-1.6433 Y0.5376 
G01 X-1.6601 Y0.5781 
G01 X-1.6601 Y0.6219 
G01 X-1.6433 Y0.6624 
G01 X-1.6399 Y0.6658 
G01 X-1.6821 Y0.7079 
G01 X-1.8675 Y0.7079 
G01 X-1.8855 Y0.6899 
G01 X-1.9145 Y0.6899 
G01 X-1.9351 Y0.7105 
G01 X-1.9351 Y0.7395 
G01 X-1.9171 Y0.7575 
G01 X-1.9171 Y0.9329 
G01 X-1.9429 Y0.9329 
G01 X-1.9571 Y0.9329 
G01 X-1.9771 Y0.9329 
G01 X-2.2189 Y0.9329 
G01 X-2.2189 Y0.9111 
G01 X-2.2371 Y0.8929 
G01 X-2.2629 Y0.8929 
G01 X-2.2811 Y0.9111 
G01 X-2.2811 Y0.9889 
G01 X-2.2629 Y1.0071 
G01 X-2.2371 Y1.0071 
G01 X-2.2189 Y0.9889 
G01 X-2.2189 Y0.9671 
G01 X-1.9771 Y0.9671 
G01 X-1.9671 Y0.9671 
G01 X-1.9671 Y1.0653 
G01 X-1.9866 Y1.0848 
G00 Z0.0200 
G00 X-1.2311 Y0.4371 
G01 Z-0.0100 F10.00 
G01 X-1.2311 Y0.4629 
G01 X-1.2129 Y0.4811 
G01 X-1.1871 Y0.4811 
G01 X-1.1689 Y0.4629 
G01 X-1.1689 Y0.4371 
G01 X-1.1829 Y0.4231 
G01 X-1.1829 Y0.2421 
G01 X-0.8571 Y0.2421 
G01 X-0.7555 Y0.3437 
G01 X-0.7413 Y0.3437 
G01 X-0.7376 Y0.3437 
G01 X-0.7376 Y0.3458 
G01 X-0.7104 Y0.3729 
G01 X-0.6671 Y0.3729 
G01 X-0.6671 Y0.4771 
G01 X-0.7104 Y0.4771 
G01 X-0.7376 Y0.5042 
G01 X-0.7376 Y0.5329 
G01 X-0.7571 Y0.5329 
G01 X-0.7671 Y0.5429 
G01 X-0.9171 Y0.6929 
G01 X-0.9171 Y0.7071 
G01 X-0.9171 Y0.7221 
G01 X-0.9311 Y0.7361 
G01 X-0.9311 Y0.8139 
G01 X-0.9129 Y0.8321 
G01 X-0.8871 Y0.8321 
G01 X-0.8689 Y0.8139 
G01 X-0.8689 Y0.7361 
G01 X-0.8829 Y0.7221 
G01 X-0.8829 Y0.7071 
G01 X-0.7429 Y0.5671 
G01 X-0.7131 Y0.5671 
G01 X-0.7104 Y0.5698 
G01 X-0.5896 Y0.5698 
G01 X-0.5624 Y0.5426 
G01 X-0.5624 Y0.5042 
G01 X-0.5896 Y0.4771 
G01 X-0.6329 Y0.4771 
G01 X-0.6329 Y0.3729 
G01 X-0.5896 Y0.3729 
G01 X-0.5624 Y0.3458 
G01 X-0.5624 Y0.3074 
G01 X-0.5896 Y0.2802 
G01 X-0.7104 Y0.2802 
G01 X-0.7376 Y0.3074 
G01 X-0.7376 Y0.3095 
G01 X-0.7413 Y0.3095 
G01 X-0.8329 Y0.2179 
G01 X-0.8429 Y0.2079 
G01 X-1.1929 Y0.2079 
G01 X-1.2071 Y0.2079 
G01 X-1.4179 Y0.2079 
G01 X-1.4321 Y0.2079 
G01 X-1.4891 Y0.2649 
G01 X-1.5145 Y0.2649 
G01 X-1.5351 Y0.2855 
G01 X-1.5351 Y0.3145 
G01 X-1.5145 Y0.3351 
G01 X-1.4855 Y0.3351 
G01 X-1.4649 Y0.3145 
G01 X-1.4649 Y0.2891 
G01 X-1.4179 Y0.2421 
G01 X-1.2171 Y0.2421 
G01 X-1.2171 Y0.4231 
G01 X-1.2311 Y0.4371 
G00 Z0.0200 
G00 X-1.6351 Y1.7105 
G01 Z-0.0100 F10.00 
G01 X-1.6351 Y1.7395 
G01 X-1.6145 Y1.7601 
G01 X-1.5855 Y1.7601 
G01 X-1.5649 Y1.7395 
G01 X-1.5649 Y1.7105 
G01 X-1.5829 Y1.6925 
G01 X-1.5829 Y1.5019 
G01 X-1.5689 Y1.4879 
G01 X-1.5689 Y1.4621 
G01 X-1.5871 Y1.4439 
G01 X-1.6129 Y1.4439 
G01 X-1.6311 Y1.4621 
G01 X-1.6311 Y1.4879 
G01 X-1.6171 Y1.5019 
G01 X-1.6171 Y1.6925 
G01 X-1.6351 Y1.7105 
G00 Z0.0200 
G00 X-1.0351 Y1.7105 
G01 Z-0.0100 F10.00 
G01 X-1.0351 Y1.7395 
G01 X-1.0145 Y1.7601 
G01 X-0.9855 Y1.7601 
G01 X-0.9649 Y1.7395 
G01 X-0.9649 Y1.7105 
G01 X-0.9829 Y1.6925 
G01 X-0.9829 Y1.5019 
G01 X-0.9689 Y1.4879 
G01 X-0.9689 Y1.4621 
G01 X-0.9829 Y1.4481 
G01 X-0.9829 Y1.3321 
G01 X-0.9329 Y1.2821 
G01 X-0.9329 Y1.2679 
G01 X-0.9329 Y1.1679 
G01 X-0.9429 Y1.1579 
G01 X-0.9779 Y1.1229 
G01 X-0.9689 Y1.1139 
G01 X-0.9689 Y1.0361 
G01 X-0.9871 Y1.0179 
G01 X-1.0129 Y1.0179 
G01 X-1.0311 Y1.0361 
G01 X-1.0311 Y1.1139 
G01 X-1.0171 Y1.1279 
G01 X-1.0171 Y1.1321 
G01 X-0.9671 Y1.1821 
G01 X-0.9671 Y1.2679 
G01 X-1.0071 Y1.3079 
G01 X-1.0171 Y1.3179 
G01 X-1.0171 Y1.4481 
G01 X-1.0311 Y1.4621 
G01 X-1.0311 Y1.4879 
G01 X-1.0171 Y1.5019 
G01 X-1.0171 Y1.6925 
G01 X-1.0351 Y1.7105 
G00 Z0.0200 
G00 X-0.9351 Y0.2855 
G01 Z-0.0100 F10.00 
G01 X-0.9351 Y0.3109 
G01 X-1.0071 Y0.3829 
G01 X-1.0171 Y0.3929 
G01 X-1.0171 Y0.7221 
G01 X-1.0311 Y0.7361 
G01 X-1.0311 Y0.8139 
G01 X-1.0171 Y0.8279 
G01 X-1.0171 Y0.8579 
G01 X-1.3929 Y0.8579 
G01 X-1.4071 Y0.8579 
G01 X-1.4171 Y0.8679 
G01 X-1.4171 Y1.0221 
G01 X-1.4311 Y1.0361 
G01 X-1.4311 Y1.1139 
G01 X-1.4129 Y1.1321 
G01 X-1.3871 Y1.1321 
G01 X-1.3689 Y1.1139 
G01 X-1.3689 Y1.0361 
G01 X-1.3829 Y1.0221 
G01 X-1.3829 Y0.8921 
G01 X-1.0071 Y0.8921 
G01 X-0.9929 Y0.8921 
G01 X-0.9829 Y0.8821 
G01 X-0.9829 Y0.8279 
G01 X-0.9689 Y0.8139 
G01 X-0.9689 Y0.7361 
G01 X-0.9829 Y0.7221 
G01 X-0.9829 Y0.4071 
G01 X-0.9109 Y0.3351 
G01 X-0.8855 Y0.3351 
G01 X-0.8649 Y0.3145 
G01 X-0.8649 Y0.2855 
G01 X-0.8855 Y0.2649 
G01 X-0.9145 Y0.2649 
G01 X-0.9351 Y0.2855 
G00 Z0.0200 
G00 X-2.2189 Y1.2111 
G01 Z-0.0100 F10.00 
G01 X-2.2371 Y1.1929 
G01 X-2.2629 Y1.1929 
G01 X-2.2811 Y1.2111 
G01 X-2.2811 Y1.2244 
G01 X-2.2901 Y1.2334 
G01 X-2.2901 Y1.3084 
G01 X-2.2901 Y1.4416 
G01 X-2.2666 Y1.4651 
G01 X-2.2334 Y1.4651 
G01 X-2.2099 Y1.4416 
G01 X-2.2099 Y1.3651 
G01 X-1.5916 Y1.3651 
G01 X-1.5584 Y1.3651 
G01 X-1.5099 Y1.3166 
G01 X-1.5099 Y1.2834 
G01 X-1.5099 Y0.8401 
G01 X-1.4084 Y0.8401 
G01 X-1.4004 Y0.8321 
G01 X-1.3871 Y0.8321 
G01 X-1.3701 Y0.8151 
G01 X-1.3299 Y0.8151 
G01 X-1.3129 Y0.8321 
G01 X-1.2871 Y0.8321 
G01 X-1.2701 Y0.8151 
G01 X-1.2299 Y0.8151 
G01 X-1.2129 Y0.8321 
G01 X-1.1871 Y0.8321 
G01 X-1.1689 Y0.8139 
G01 X-1.1689 Y0.8006 
G01 X-1.1599 Y0.7916 
G01 X-1.1599 Y0.5666 
G01 X-1.1599 Y0.5334 
G01 X-1.1834 Y0.5099 
G01 X-1.2584 Y0.5099 
G01 X-1.3849 Y0.3834 
G01 X-1.4084 Y0.3599 
G01 X-1.8599 Y0.3599 
G01 X-1.8599 Y0.1651 
G01 X-0.5401 Y0.1651 
G01 X-0.5401 Y0.9834 
G01 X-0.5401 Y1.0166 
G01 X-0.5401 Y1.0916 
G01 X-0.5166 Y1.1151 
G01 X-0.4834 Y1.1151 
G01 X-0.4599 Y1.0916 
G01 X-0.4599 Y1.0401 
G01 X-0.4401 Y1.0401 
G01 X-0.4401 Y1.4115 
G01 X-0.5333 Y1.4115 
G01 X-0.5396 Y1.4052 
G01 X-0.6604 Y1.4052 
G01 X-0.6876 Y1.4324 
G01 X-0.6876 Y1.4708 
G01 X-0.6604 Y1.4979 
G01 X-0.5396 Y1.4979 
G01 X-0.5333 Y1.4917 
G01 X-0.4401 Y1.4917 
G01 X-0.4401 Y1.8099 
G01 X-0.8599 Y1.8099 
G01 X-0.8599 Y1.4584 
G01 X-0.8834 Y1.4349 
G01 X-0.9166 Y1.4349 
G01 X-0.9401 Y1.4584 
G01 X-0.9401 Y1.8099 
G01 X-1.7599 Y1.8099 
G01 X-1.7599 Y1.7151 
G01 X-1.7552 Y1.7104 
G01 X-1.7552 Y1.5896 
G01 X-1.7824 Y1.5624 
G01 X-1.8208 Y1.5624 
G01 X-1.8479 Y1.5896 
G01 X-1.8479 Y1.7104 
G01 X-1.8401 Y1.7183 
G01 X-1.8401 Y1.8666 
G01 X-1.8166 Y1.8901 
G01 X-1.7834 Y1.8901 
G01 X-0.9166 Y1.8901 
G01 X-0.8834 Y1.8901 
G01 X-0.3834 Y1.8901 
G01 X-0.3599 Y1.8666 
G01 X-0.3599 Y1.8334 
G01 X-0.3599 Y1.4682 
G01 X-0.3599 Y0.9834 
G01 X-0.3834 Y0.9599 
G01 X-0.4166 Y0.9599 
G01 X-0.4599 Y0.9599 
G01 X-0.4599 Y0.1084 
G01 X-0.4834 Y0.0849 
G01 X-0.5166 Y0.0849 
G01 X-1.8834 Y0.0849 
G01 X-1.9166 Y0.0849 
G01 X-1.9401 Y0.1084 
G01 X-1.9401 Y0.3834 
G01 X-1.9401 Y0.3849 
G01 X-2.0666 Y0.3849 
G01 X-2.0901 Y0.4084 
G01 X-2.0901 Y0.4349 
G01 X-2.2166 Y0.4349 
G01 X-2.3099 Y0.4349 
G01 X-2.3099 Y0.1084 
G01 X-2.3334 Y0.0849 
G01 X-2.3666 Y0.0849 
G01 X-2.5666 Y0.0849 
G01 X-2.5901 Y0.1084 
G01 X-2.5901 Y0.1416 
G01 X-2.5666 Y0.1651 
G01 X-2.3901 Y0.1651 
G01 X-2.3901 Y0.4584 
G01 X-2.3901 Y0.4916 
G01 X-2.3666 Y0.5151 
G01 X-2.2166 Y0.5151 
G01 X-2.0666 Y0.5151 
G01 X-2.0334 Y0.5151 
G01 X-2.0099 Y0.4916 
G01 X-2.0099 Y0.4651 
G01 X-1.9166 Y0.4651 
G01 X-1.8834 Y0.4651 
G01 X-1.8599 Y0.4416 
G01 X-1.8599 Y0.4401 
G01 X-1.4416 Y0.4401 
G01 X-1.2916 Y0.5901 
G01 X-1.2584 Y0.5901 
G01 X-1.2401 Y0.5901 
G01 X-1.2401 Y0.7349 
G01 X-1.2701 Y0.7349 
G01 X-1.2871 Y0.7179 
G01 X-1.3129 Y0.7179 
G01 X-1.3299 Y0.7349 
G01 X-1.3701 Y0.7349 
G01 X-1.3871 Y0.7179 
G01 X-1.4129 Y0.7179 
G01 X-1.4311 Y0.7361 
G01 X-1.4311 Y0.7494 
G01 X-1.4416 Y0.7599 
G01 X-1.5334 Y0.7599 
G01 X-1.5666 Y0.7599 
G01 X-1.6666 Y0.7599 
G01 X-1.6901 Y0.7834 
G01 X-1.6901 Y0.8166 
G01 X-1.6666 Y0.8401 
G01 X-1.5901 Y0.8401 
G01 X-1.5901 Y1.2834 
G01 X-1.5916 Y1.2849 
G01 X-2.2099 Y1.2849 
G01 X-2.2099 Y1.2334 
G01 X-2.2189 Y1.2244 
G01 X-2.2189 Y1.2111 
G00 Z0.0200 
G00 X-0.9129 Y1.1321 
G01 Z-0.0100 F10.00 
G01 X-0.8871 Y1.1321 
G01 X-0.8701 Y1.1151 
G01 X-0.8401 Y1.1151 
G01 X-0.8401 Y1.1334 
G01 X-0.8401 Y1.1584 
G01 X-0.8401 Y1.5666 
G01 X-0.8166 Y1.5901 
G01 X-0.7166 Y1.6901 
G01 X-0.6834 Y1.6901 
G01 X-0.6651 Y1.6901 
G01 X-0.6604 Y1.6948 
G01 X-0.5396 Y1.6948 
G01 X-0.5124 Y1.6676 
G01 X-0.5124 Y1.6292 
G01 X-0.5396 Y1.6021 
G01 X-0.6604 Y1.6021 
G01 X-0.6683 Y1.6099 
G01 X-0.6834 Y1.6099 
G01 X-0.7599 Y1.5334 
G01 X-0.7599 Y1.2151 
G01 X-0.4834 Y1.2151 
G01 X-0.4599 Y1.1916 
G01 X-0.4599 Y1.1584 
G01 X-0.4834 Y1.1349 
G01 X-0.7599 Y1.1349 
G01 X-0.7599 Y1.1334 
G01 X-0.7599 Y1.0916 
G01 X-0.7599 Y1.0584 
G01 X-0.7599 Y0.9084 
G01 X-0.7599 Y0.7584 
G01 X-0.7689 Y0.7494 
G01 X-0.7689 Y0.7361 
G01 X-0.7871 Y0.7179 
G01 X-0.8129 Y0.7179 
G01 X-0.8311 Y0.7361 
G01 X-0.8311 Y0.7494 
G01 X-0.8401 Y0.7584 
G01 X-0.8401 Y0.9079 
G01 X-1.3571 Y0.9079 
G01 X-1.3671 Y0.9179 
G01 X-1.3671 Y0.9321 
G01 X-1.3631 Y0.9361 
G01 X-1.3631 Y1.2389 
G01 X-1.5071 Y1.3829 
G01 X-1.9071 Y1.3829 
G01 X-1.9171 Y1.3929 
G01 X-1.9171 Y1.4071 
G01 X-1.9171 Y1.8099 
G01 X-2.2834 Y1.8099 
G01 X-2.5099 Y1.5834 
G01 X-2.5099 Y1.2901 
G01 X-2.4799 Y1.2901 
G01 X-2.4629 Y1.3071 
G01 X-2.4371 Y1.3071 
G01 X-2.4189 Y1.2889 
G01 X-2.4189 Y1.2756 
G01 X-2.4099 Y1.2666 
G01 X-2.4099 Y1.2334 
G01 X-2.4189 Y1.2244 
G01 X-2.4189 Y1.2111 
G01 X-2.4371 Y1.1929 
G01 X-2.4629 Y1.1929 
G01 X-2.4799 Y1.2099 
G01 X-2.5201 Y1.2099 
G01 X-2.5371 Y1.1929 
G01 X-2.5629 Y1.1929 
G01 X-2.5811 Y1.2111 
G01 X-2.5811 Y1.2244 
G01 X-2.5901 Y1.2334 
G01 X-2.5901 Y1.6166 
G01 X-2.5666 Y1.6401 
G01 X-2.3166 Y1.8901 
G01 X-2.2834 Y1.8901 
G01 X-1.8834 Y1.8901 
G01 X-1.8599 Y1.8666 
G01 X-1.8599 Y1.8334 
G01 X-1.8829 Y1.8104 
G01 X-1.8829 Y1.4171 
G01 X-1.5071 Y1.4171 
G01 X-1.4929 Y1.4171 
G01 X-1.3329 Y1.2571 
G01 X-1.3329 Y1.2429 
G01 X-1.3369 Y1.2389 
G01 X-1.3369 Y0.9421 
G01 X-0.8401 Y0.9421 
G01 X-0.8401 Y1.0349 
G01 X-0.8701 Y1.0349 
G01 X-0.8871 Y1.0179 
G01 X-0.9129 Y1.0179 
G01 X-0.9311 Y1.0361 
G01 X-0.9311 Y1.0494 
G01 X-0.9401 Y1.0584 
G01 X-0.9401 Y1.0916 
G01 X-0.9311 Y1.1006 
G01 X-0.9311 Y1.1139 
G01 X-0.9129 Y1.1321 
G00 Z0.0200 
G00 X-1.1689 Y1.1139 
G01 Z-0.0100 F10.00 
G01 X-1.1689 Y1.0361 
G01 X-1.1871 Y1.0179 
G01 X-1.2129 Y1.0179 
G01 X-1.2311 Y1.0361 
G01 X-1.2311 Y1.1139 
G01 X-1.2171 Y1.1279 
G01 X-1.2171 Y1.1571 
G01 X-1.2071 Y1.1671 
G01 X-1.1421 Y1.2321 
G01 X-1.1321 Y1.2421 
G01 X-1.0825 Y1.2421 
G01 X-1.0645 Y1.2601 
G01 X-1.0355 Y1.2601 
G01 X-1.0149 Y1.2395 
G01 X-1.0149 Y1.2105 
G01 X-1.0355 Y1.1899 
G01 X-1.0645 Y1.1899 
G01 X-1.0825 Y1.2079 
G01 X-1.1179 Y1.2079 
G01 X-1.1829 Y1.1429 
G01 X-1.1829 Y1.1279 
G01 X-1.1689 Y1.1139 
G00 Z0.0200 
G00 X-1.2689 Y1.1139 
G01 Z-0.0100 F10.00 
G01 X-1.2689 Y1.0361 
G01 X-1.2829 Y1.0221 
G01 X-1.2829 Y0.9921 
G01 X-1.1171 Y0.9921 
G01 X-1.1171 Y1.0221 
G01 X-1.1311 Y1.0361 
G01 X-1.1311 Y1.1139 
G01 X-1.1129 Y1.1321 
G01 X-1.0871 Y1.1321 
G01 X-1.0689 Y1.1139 
G01 X-1.0689 Y1.0361 
G01 X-1.0829 Y1.0221 
G01 X-1.0829 Y0.9679 
G01 X-1.0929 Y0.9579 
G01 X-1.1071 Y0.9579 
G01 X-1.3071 Y0.9579 
G01 X-1.3171 Y0.9679 
G01 X-1.3171 Y0.9821 
G01 X-1.3171 Y1.0221 
G01 X-1.3311 Y1.0361 
G01 X-1.3311 Y1.1139 
G01 X-1.3171 Y1.1279 
G01 X-1.3171 Y1.3679 
G01 X-1.3931 Y1.4439 
G01 X-1.4129 Y1.4439 
G01 X-1.4311 Y1.4621 
G01 X-1.4311 Y1.4819 
G01 X-1.4931 Y1.5439 
G01 X-1.5129 Y1.5439 
G01 X-1.5311 Y1.5621 
G01 X-1.5311 Y1.5879 
G01 X-1.5129 Y1.6061 
G01 X-1.4871 Y1.6061 
G01 X-1.4689 Y1.5879 
G01 X-1.4689 Y1.5681 
G01 X-1.4069 Y1.5061 
G01 X-1.3871 Y1.5061 
G01 X-1.3689 Y1.4879 
G01 X-1.3689 Y1.4681 
G01 X-1.2929 Y1.3921 
G01 X-1.2829 Y1.3821 
G01 X-1.2829 Y1.1279 
G01 X-1.2689 Y1.1139 
G00 Z0.0200 
G00 X-1.1129 Y0.8321 
G01 Z-0.0100 F10.00 
G01 X-1.0871 Y0.8321 
G01 X-1.0689 Y0.8139 
G01 X-1.0689 Y0.7361 
G01 X-1.0871 Y0.7179 
G01 X-1.1129 Y0.7179 
G01 X-1.1311 Y0.7361 
G01 X-1.1311 Y0.8139 
G01 X-1.1129 Y0.8321 
G00 Z0.0200 
G00 X-0.1371 Y1.3482 
G01 Z-0.0100 F10.00 
G01 X-0.1318 Y1.3535 
G01 X-0.1242 Y1.3535 
G01 X-0.1189 Y1.3482 
G01 X-0.1189 Y1.3028 
G01 X-0.1189 Y1.2953 
G01 X-0.1242 Y1.2899 
G01 X-0.1318 Y1.2899 
G01 X-0.1771 Y1.3353 
G01 X-0.1809 Y1.3353 
G01 X-0.1870 Y1.3293 
G01 X-0.1870 Y1.3141 
G01 X-0.1756 Y1.3028 
G01 X-0.1756 Y1.2953 
G01 X-0.1809 Y1.2899 
G01 X-0.1885 Y1.2899 
G01 X-0.2051 Y1.3066 
G01 X-0.2051 Y1.3141 
G01 X-0.2051 Y1.3368 
G01 X-0.1998 Y1.3422 
G01 X-0.1885 Y1.3535 
G01 X-0.1809 Y1.3535 
G01 X-0.1696 Y1.3535 
G01 X-0.1643 Y1.3482 
G01 X-0.1371 Y1.3210 
G01 X-0.1371 Y1.3482 
G00 Z0.0200 
G00 X-0.2051 Y1.1786 
G01 Z-0.0100 F10.00 
G01 X-0.2051 Y1.1900 
G01 X-0.2051 Y1.1975 
G01 X-0.1998 Y1.2028 
G01 X-0.1371 Y1.2028 
G01 X-0.1371 Y1.2089 
G01 X-0.1318 Y1.2142 
G01 X-0.1242 Y1.2142 
G01 X-0.1189 Y1.2089 
G01 X-0.1189 Y1.1975 
G01 X-0.1189 Y1.1900 
G01 X-0.1189 Y1.1786 
G01 X-0.1242 Y1.1733 
G01 X-0.1318 Y1.1733 
G01 X-0.1371 Y1.1786 
G01 X-0.1371 Y1.1847 
G01 X-0.1870 Y1.1847 
G01 X-0.1870 Y1.1786 
G01 X-0.1923 Y1.1733 
G01 X-0.1998 Y1.1733 
G01 X-0.2051 Y1.1786 
G00 Z0.0200 
G00 X-0.2051 Y1.1320 
G01 Z-0.0100 F10.00 
G01 X-0.2051 Y1.1433 
G01 X-0.2051 Y1.1509 
G01 X-0.1998 Y1.1562 
G01 X-0.1371 Y1.1562 
G01 X-0.1371 Y1.1622 
G01 X-0.1318 Y1.1675 
G01 X-0.1242 Y1.1675 
G01 X-0.1189 Y1.1622 
G01 X-0.1189 Y1.1320 
G01 X-0.1242 Y1.1267 
G01 X-0.1318 Y1.1267 
G01 X-0.1371 Y1.1320 
G01 X-0.1371 Y1.1380 
G01 X-0.1870 Y1.1380 
G01 X-0.1870 Y1.1320 
G01 X-0.1923 Y1.1267 
G01 X-0.1998 Y1.1267 
G01 X-0.2051 Y1.1320 
G00 Z0.0200 
G00 X-0.1825 Y0.8521 
G01 Z-0.0100 F10.00 
G01 X-0.1825 Y0.8596 
G01 X-0.1771 Y0.8649 
G01 X-0.1431 Y0.8649 
G01 X-0.1371 Y0.8710 
G01 X-0.1371 Y0.8921 
G01 X-0.1771 Y0.8921 
G01 X-0.1825 Y0.8975 
G01 X-0.1825 Y0.9050 
G01 X-0.1771 Y0.9103 
G01 X-0.1242 Y0.9103 
G01 X-0.1189 Y0.9050 
G01 X-0.1189 Y0.8975 
G01 X-0.1189 Y0.8634 
G01 X-0.1242 Y0.8581 
G01 X-0.1356 Y0.8468 
G01 X-0.1431 Y0.8468 
G01 X-0.1771 Y0.8468 
G01 X-0.1825 Y0.8521 
G00 Z0.0200 
G00 X-0.1242 Y0.7950 
G01 Z-0.0100 F10.00 
G01 X-0.1189 Y0.7896 
G01 X-0.1189 Y0.7821 
G01 X-0.1242 Y0.7768 
G01 X-0.1923 Y0.7768 
G01 X-0.1998 Y0.7768 
G01 X-0.2051 Y0.7821 
G01 X-0.2051 Y0.8237 
G01 X-0.1998 Y0.8290 
G01 X-0.1998 Y0.8290 
G01 X-0.1938 Y0.8350 
G01 X-0.1938 Y0.8350 
G01 X-0.1885 Y0.8403 
G01 X-0.1658 Y0.8403 
G01 X-0.1583 Y0.8403 
G01 X-0.1469 Y0.8290 
G01 X-0.1450 Y0.8271 
G01 X-0.1318 Y0.8403 
G01 X-0.1242 Y0.8403 
G01 X-0.1189 Y0.8350 
G01 X-0.1189 Y0.8275 
G01 X-0.1416 Y0.8048 
G01 X-0.1416 Y0.7950 
G01 X-0.1242 Y0.7950 
G00 Z0.0200 
G00 X-0.1356 Y0.4969 
G01 Z-0.0100 F10.00 
G01 X-0.1431 Y0.4969 
G01 X-0.1484 Y0.5022 
G01 X-0.1484 Y0.5136 
G01 X-0.1484 Y0.5211 
G01 X-0.1431 Y0.5264 
G01 X-0.1318 Y0.5264 
G01 X-0.1242 Y0.5264 
G01 X-0.1189 Y0.5211 
G01 X-0.1189 Y0.5022 
G01 X-0.1242 Y0.4969 
G01 X-0.1318 Y0.4969 
G01 X-0.1356 Y0.4969 
G00 Z0.0200 
G00 X-0.1885 Y0.4905 
G01 Z-0.0100 F10.00 
G01 X-0.1809 Y0.4905 
G01 X-0.1756 Y0.4851 
G01 X-0.1756 Y0.4776 
G01 X-0.1870 Y0.4663 
G01 X-0.1870 Y0.4511 
G01 X-0.1809 Y0.4451 
G01 X-0.1771 Y0.4451 
G01 X-0.1711 Y0.4511 
G01 X-0.1711 Y0.4663 
G01 X-0.1711 Y0.4738 
G01 X-0.1598 Y0.4851 
G01 X-0.1544 Y0.4905 
G01 X-0.1431 Y0.4905 
G01 X-0.1356 Y0.4905 
G01 X-0.1242 Y0.4791 
G01 X-0.1189 Y0.4738 
G01 X-0.1189 Y0.4511 
G01 X-0.1189 Y0.4436 
G01 X-0.1356 Y0.4269 
G01 X-0.1431 Y0.4269 
G01 X-0.1484 Y0.4322 
G01 X-0.1484 Y0.4398 
G01 X-0.1371 Y0.4511 
G01 X-0.1371 Y0.4663 
G01 X-0.1431 Y0.4723 
G01 X-0.1469 Y0.4723 
G01 X-0.1529 Y0.4663 
G01 X-0.1529 Y0.4436 
G01 X-0.1583 Y0.4382 
G01 X-0.1696 Y0.4269 
G01 X-0.1771 Y0.4269 
G01 X-0.1885 Y0.4269 
G01 X-0.1938 Y0.4322 
G01 X-0.2051 Y0.4436 
G01 X-0.2051 Y0.4511 
G01 X-0.2051 Y0.4738 
G01 X-0.1998 Y0.4791 
G01 X-0.1885 Y0.4905 
G00 Z0.0200 
G00 X-0.4865 Y1.7885 
G01 Z-0.0100 F10.00 
G01 X-0.4865 Y1.7809 
G01 X-0.4919 Y1.7756 
G01 X-0.4994 Y1.7756 
G01 X-0.5107 Y1.7870 
G01 X-0.5259 Y1.7870 
G01 X-0.5319 Y1.7809 
G01 X-0.5319 Y1.7431 
G01 X-0.5259 Y1.7371 
G01 X-0.5107 Y1.7371 
G01 X-0.4994 Y1.7484 
G01 X-0.4919 Y1.7484 
G01 X-0.4865 Y1.7431 
G01 X-0.4865 Y1.7356 
G01 X-0.5032 Y1.7189 
G01 X-0.5107 Y1.7189 
G01 X-0.5334 Y1.7189 
G01 X-0.5387 Y1.7242 
G01 X-0.5501 Y1.7356 
G01 X-0.5501 Y1.7431 
G01 X-0.5501 Y1.7885 
G01 X-0.5448 Y1.7938 
G01 X-0.5334 Y1.8051 
G01 X-0.5259 Y1.8051 
G01 X-0.5032 Y1.8051 
G01 X-0.4979 Y1.7998 
G01 X-0.4865 Y1.7885 
G00 Z0.0200 
G00 X-0.6900 Y1.7998 
G01 Z-0.0100 F10.00 
G01 X-0.6847 Y1.8051 
G01 X-0.6772 Y1.8051 
G01 X-0.6719 Y1.7998 
G01 X-0.6719 Y1.7544 
G01 X-0.6583 Y1.7409 
G01 X-0.6447 Y1.7544 
G01 X-0.6447 Y1.7998 
G01 X-0.6393 Y1.8051 
G01 X-0.6318 Y1.8051 
G01 X-0.6265 Y1.7998 
G01 X-0.6265 Y1.7469 
G01 X-0.6318 Y1.7416 
G01 X-0.6545 Y1.7189 
G01 X-0.6620 Y1.7189 
G01 X-0.6674 Y1.7242 
G01 X-0.6900 Y1.7469 
G01 X-0.6900 Y1.7544 
G01 X-0.6900 Y1.7998 
G00 Z0.0200 
G00 X-0.7336 Y1.7922 
G01 Z-0.0100 F10.00 
G01 X-0.7320 Y1.7938 
G01 X-0.7304 Y1.7938 
G01 X-0.7077 Y1.8051 
G01 X-0.7018 Y1.8051 
G01 X-0.6965 Y1.7998 
G01 X-0.6965 Y1.7923 
G01 X-0.7002 Y1.7886 
G01 X-0.7229 Y1.7772 
G01 X-0.7290 Y1.7711 
G01 X-0.7131 Y1.7711 
G01 X-0.7078 Y1.7658 
G01 X-0.6965 Y1.7544 
G01 X-0.6965 Y1.7469 
G01 X-0.6965 Y1.7356 
G01 X-0.7018 Y1.7302 
G01 X-0.7131 Y1.7189 
G01 X-0.7207 Y1.7189 
G01 X-0.7433 Y1.7189 
G01 X-0.7487 Y1.7242 
G01 X-0.7600 Y1.7356 
G01 X-0.7600 Y1.7431 
G01 X-0.7600 Y1.7583 
G01 X-0.7600 Y1.7658 
G01 X-0.7547 Y1.7711 
G01 X-0.7350 Y1.7908 
G01 X-0.7336 Y1.7922 
G00 Z0.0200 
G00 X-0.5115 Y1.3635 
G01 Z-0.0100 F10.00 
G01 X-0.5115 Y1.3559 
G01 X-0.5115 Y1.3106 
G01 X-0.5168 Y1.3052 
G01 X-0.5282 Y1.2939 
G01 X-0.5357 Y1.2939 
G01 X-0.5697 Y1.2939 
G01 X-0.5751 Y1.2992 
G01 X-0.5751 Y1.3068 
G01 X-0.5751 Y1.3673 
G01 X-0.5751 Y1.3748 
G01 X-0.5697 Y1.3801 
G01 X-0.5282 Y1.3801 
G01 X-0.5229 Y1.3748 
G01 X-0.5115 Y1.3635 
G00 Z0.0200 
G00 X-0.6451 Y1.2992 
G01 Z-0.0100 F10.00 
G01 X-0.6451 Y1.3683 
G01 X-0.6451 Y1.3748 
G01 X-0.6397 Y1.3801 
G01 X-0.6322 Y1.3801 
G01 X-0.6289 Y1.3768 
G01 X-0.6269 Y1.3748 
G01 X-0.6269 Y1.3738 
G01 X-0.5997 Y1.3330 
G01 X-0.5997 Y1.3748 
G01 X-0.5944 Y1.3801 
G01 X-0.5868 Y1.3801 
G01 X-0.5815 Y1.3748 
G01 X-0.5815 Y1.2992 
G01 X-0.5868 Y1.2939 
G01 X-0.5944 Y1.2939 
G01 X-0.5976 Y1.2972 
G01 X-0.5977 Y1.2972 
G01 X-0.5997 Y1.2992 
G01 X-0.5997 Y1.3002 
G01 X-0.6269 Y1.3410 
G01 X-0.6269 Y1.2992 
G01 X-0.6322 Y1.2939 
G01 X-0.6397 Y1.2939 
G01 X-0.6451 Y1.2992 
G00 Z0.0200 
G00 X-0.6515 Y1.3635 
G01 Z-0.0100 F10.00 
G01 X-0.6515 Y1.3559 
G01 X-0.6568 Y1.3506 
G01 X-0.6643 Y1.3506 
G01 X-0.6757 Y1.3620 
G01 X-0.6908 Y1.3620 
G01 X-0.6968 Y1.3559 
G01 X-0.6968 Y1.3181 
G01 X-0.6908 Y1.3121 
G01 X-0.6757 Y1.3121 
G01 X-0.6697 Y1.3181 
G01 X-0.6697 Y1.3279 
G01 X-0.6870 Y1.3279 
G01 X-0.6923 Y1.3333 
G01 X-0.6923 Y1.3408 
G01 X-0.6870 Y1.3461 
G01 X-0.6568 Y1.3461 
G01 X-0.6515 Y1.3408 
G01 X-0.6515 Y1.3333 
G01 X-0.6515 Y1.3106 
G01 X-0.6568 Y1.3052 
G01 X-0.6681 Y1.2939 
G01 X-0.6757 Y1.2939 
G01 X-0.6984 Y1.2939 
G01 X-0.7037 Y1.2992 
G01 X-0.7150 Y1.3106 
G01 X-0.7150 Y1.3181 
G01 X-0.7150 Y1.3635 
G01 X-0.7097 Y1.3688 
G01 X-0.6984 Y1.3801 
G01 X-0.6908 Y1.3801 
G01 X-0.6681 Y1.3801 
G01 X-0.6628 Y1.3748 
G01 X-0.6515 Y1.3635 
G00 Z0.0200 
G00 X-1.8463 Y0.6498 
G01 Z-0.0100 F10.00 
G01 X-1.8410 Y0.6551 
G01 X-1.8335 Y0.6551 
G01 X-1.8282 Y0.6498 
G01 X-1.8282 Y0.6271 
G01 X-1.8282 Y0.6196 
G01 X-1.8282 Y0.5818 
G01 X-1.8282 Y0.5742 
G01 X-1.8335 Y0.5689 
G01 X-1.8675 Y0.5689 
G01 X-1.8750 Y0.5689 
G01 X-1.8864 Y0.5802 
G01 X-1.8917 Y0.5856 
G01 X-1.8917 Y0.6083 
G01 X-1.8917 Y0.6158 
G01 X-1.8804 Y0.6271 
G01 X-1.8750 Y0.6325 
G01 X-1.8463 Y0.6325 
G01 X-1.8463 Y0.6498 
G00 Z0.0200 
G00 X-2.0651 Y1.5031 
G01 Z-0.0100 F10.00 
G01 X-2.0598 Y1.5085 
G01 X-2.0523 Y1.5085 
G01 X-2.0470 Y1.5031 
G01 X-2.0470 Y1.4691 
G01 X-2.0409 Y1.4631 
G01 X-2.0198 Y1.4631 
G01 X-2.0198 Y1.5031 
G01 X-2.0144 Y1.5085 
G01 X-2.0069 Y1.5085 
G01 X-2.0016 Y1.5031 
G01 X-2.0016 Y1.4502 
G01 X-2.0069 Y1.4449 
G01 X-2.0144 Y1.4449 
G01 X-2.0485 Y1.4449 
G01 X-2.0538 Y1.4502 
G01 X-2.0651 Y1.4616 
G01 X-2.0651 Y1.4691 
G01 X-2.0651 Y1.5031 
G00 Z0.0200 
G00 X-2.2051 Y1.5258 
G01 Z-0.0100 F10.00 
G01 X-2.1998 Y1.5311 
G01 X-2.1922 Y1.5311 
G01 X-2.1869 Y1.5258 
G01 X-2.1869 Y1.4804 
G01 X-2.1733 Y1.4669 
G01 X-2.1597 Y1.4804 
G01 X-2.1597 Y1.5258 
G01 X-2.1544 Y1.5311 
G01 X-2.1469 Y1.5311 
G01 X-2.1415 Y1.5258 
G01 X-2.1415 Y1.4729 
G01 X-2.1469 Y1.4676 
G01 X-2.1695 Y1.4449 
G01 X-2.1771 Y1.4449 
G01 X-2.1824 Y1.4502 
G01 X-2.2051 Y1.4729 
G01 X-2.2051 Y1.4804 
G01 X-2.2051 Y1.5258 
G00 Z0.0200 
G00 X-2.7856 Y1.3699 
G01 Z-0.0100 F10.00 
G01 X-2.7931 Y1.3699 
G01 X-2.7984 Y1.3752 
G01 X-2.7984 Y1.3866 
G01 X-2.7984 Y1.3941 
G01 X-2.7931 Y1.3994 
G01 X-2.7818 Y1.3994 
G01 X-2.7742 Y1.3994 
G01 X-2.7689 Y1.3941 
G01 X-2.7689 Y1.3752 
G01 X-2.7742 Y1.3699 
G01 X-2.7818 Y1.3699 
G01 X-2.7856 Y1.3699 
G00 Z0.0200 
G00 X-2.7871 Y1.2768 
G01 Z-0.0100 F10.00 
G01 X-2.7818 Y1.2822 
G01 X-2.7742 Y1.2822 
G01 X-2.7689 Y1.2768 
G01 X-2.7689 Y1.2542 
G01 X-2.7689 Y1.2466 
G01 X-2.7802 Y1.2353 
G01 X-2.7856 Y1.2300 
G01 X-2.8083 Y1.2300 
G01 X-2.8158 Y1.2300 
G01 X-2.8271 Y1.2413 
G01 X-2.8325 Y1.2466 
G01 X-2.8325 Y1.2693 
G01 X-2.8325 Y1.2768 
G01 X-2.8211 Y1.2882 
G01 X-2.8158 Y1.2935 
G01 X-2.7969 Y1.2935 
G01 X-2.7916 Y1.2882 
G01 X-2.7916 Y1.2807 
G01 X-2.7916 Y1.2497 
G01 X-2.7871 Y1.2542 
G01 X-2.7871 Y1.2768 
G00 Z0.0200 
G00 X-2.7742 Y1.1782 
G01 Z-0.0100 F10.00 
G01 X-2.7689 Y1.1728 
G01 X-2.7689 Y1.1653 
G01 X-2.7742 Y1.1600 
G01 X-2.7969 Y1.1600 
G01 X-2.8044 Y1.1600 
G01 X-2.8423 Y1.1600 
G01 X-2.8498 Y1.1600 
G01 X-2.8551 Y1.1653 
G01 X-2.8551 Y1.1993 
G01 X-2.8551 Y1.2069 
G01 X-2.8438 Y1.2182 
G01 X-2.8385 Y1.2235 
G01 X-2.8158 Y1.2235 
G01 X-2.8083 Y1.2235 
G01 X-2.7969 Y1.2122 
G01 X-2.7950 Y1.2103 
G01 X-2.7818 Y1.2235 
G01 X-2.7742 Y1.2235 
G01 X-2.7689 Y1.2182 
G01 X-2.7689 Y1.2107 
G01 X-2.7916 Y1.1880 
G01 X-2.7916 Y1.1782 
G01 X-2.7742 Y1.1782 
G00 Z0.0200 
G00 X-2.7742 Y0.8626 
G01 Z-0.0100 F10.00 
G01 X-2.7689 Y0.8573 
G01 X-2.7689 Y0.8498 
G01 X-2.7742 Y0.8444 
G01 X-2.8370 Y0.8444 
G01 X-2.8370 Y0.8271 
G01 X-2.8423 Y0.8218 
G01 X-2.8498 Y0.8218 
G01 X-2.8551 Y0.8271 
G01 X-2.8551 Y0.8800 
G01 X-2.8498 Y0.8853 
G01 X-2.8423 Y0.8853 
G01 X-2.8370 Y0.8800 
G01 X-2.8370 Y0.8626 
G01 X-2.7742 Y0.8626 
G00 Z0.0200 
G00 X-2.8325 Y0.6172 
G01 Z-0.0100 F10.00 
G01 X-2.8325 Y0.6247 
G01 X-2.8271 Y0.6300 
G01 X-2.7931 Y0.6300 
G01 X-2.7871 Y0.6360 
G01 X-2.7871 Y0.6572 
G01 X-2.8271 Y0.6572 
G01 X-2.8325 Y0.6625 
G01 X-2.8325 Y0.6701 
G01 X-2.8271 Y0.6754 
G01 X-2.7742 Y0.6754 
G01 X-2.7689 Y0.6701 
G01 X-2.7689 Y0.6625 
G01 X-2.7689 Y0.6285 
G01 X-2.7742 Y0.6232 
G01 X-2.7856 Y0.6118 
G01 X-2.7931 Y0.6118 
G01 X-2.8271 Y0.6118 
G01 X-2.8325 Y0.6172 
G00 Z0.0200 
G00 X-2.7742 Y0.4901 
G01 Z-0.0100 F10.00 
G01 X-2.7689 Y0.4847 
G01 X-2.7689 Y0.4772 
G01 X-2.7742 Y0.4719 
G01 X-2.8423 Y0.4719 
G01 X-2.8498 Y0.4719 
G01 X-2.8551 Y0.4772 
G01 X-2.8551 Y0.4847 
G01 X-2.8362 Y0.5037 
G01 X-2.8498 Y0.5173 
G01 X-2.8551 Y0.5226 
G01 X-2.8551 Y0.5301 
G01 X-2.8498 Y0.5354 
G01 X-2.7742 Y0.5354 
G01 X-2.7689 Y0.5301 
G01 X-2.7689 Y0.5226 
G01 X-2.7742 Y0.5173 
G01 X-2.8241 Y0.5173 
G01 X-2.8143 Y0.5074 
G01 X-2.8143 Y0.4999 
G01 X-2.8196 Y0.4946 
G01 X-2.8241 Y0.4901 
G01 X-2.7742 Y0.4901 
G00 Z0.0200 
G00 X-0.7650 Y0.1742 
G01 Z-0.0100 F10.00 
G01 X-0.7650 Y0.2083 
G01 X-0.7650 Y0.2158 
G01 X-0.7650 Y0.2196 
G01 X-0.7650 Y0.2271 
G01 X-0.7423 Y0.2498 
G01 X-0.7423 Y0.2498 
G01 X-0.7370 Y0.2551 
G01 X-0.7295 Y0.2551 
G01 X-0.7068 Y0.2325 
G01 X-0.7068 Y0.2325 
G01 X-0.7015 Y0.2271 
G01 X-0.7015 Y0.2158 
G01 X-0.7015 Y0.2083 
G01 X-0.7015 Y0.1742 
G01 X-0.7068 Y0.1689 
G01 X-0.7143 Y0.1689 
G01 X-0.7197 Y0.1742 
G01 X-0.7197 Y0.2029 
G01 X-0.7468 Y0.2029 
G01 X-0.7468 Y0.1742 
G01 X-0.7522 Y0.1689 
G01 X-0.7597 Y0.1689 
G01 X-0.7650 Y0.1742 
G00 Z0.0200 
G00 X-0.6951 Y0.1742 
G01 Z-0.0100 F10.00 
G01 X-0.6951 Y0.2433 
G01 X-0.6951 Y0.2498 
G01 X-0.6897 Y0.2551 
G01 X-0.6822 Y0.2551 
G01 X-0.6789 Y0.2518 
G01 X-0.6789 Y0.2518 
G01 X-0.6769 Y0.2498 
G01 X-0.6769 Y0.2488 
G01 X-0.6497 Y0.2080 
G01 X-0.6497 Y0.2498 
G01 X-0.6444 Y0.2551 
G01 X-0.6368 Y0.2551 
G01 X-0.6315 Y0.2498 
G01 X-0.6315 Y0.1742 
G01 X-0.6368 Y0.1689 
G01 X-0.6444 Y0.1689 
G01 X-0.6497 Y0.1742 
G01 X-0.6497 Y0.1752 
G01 X-0.6769 Y0.2160 
G01 X-0.6769 Y0.1742 
G01 X-0.6822 Y0.1689 
G01 X-0.6897 Y0.1689 
G01 X-0.6951 Y0.1742 
G00 Z0.0200 
G00 X-0.6024 Y0.1742 
G01 Z-0.0100 F10.00 
G01 X-0.6024 Y0.2370 
G01 X-0.6197 Y0.2370 
G01 X-0.6251 Y0.2423 
G01 X-0.6251 Y0.2498 
G01 X-0.6197 Y0.2551 
G01 X-0.5668 Y0.2551 
G01 X-0.5615 Y0.2498 
G01 X-0.5615 Y0.2423 
G01 X-0.5668 Y0.2370 
G01 X-0.5842 Y0.2370 
G01 X-0.5842 Y0.1742 
G01 X-0.5895 Y0.1689 
G01 X-0.5971 Y0.1689 
G01 X-0.6024 Y0.1742 
G00 Z0.0200 
G00 X-2.8325 Y0.5585 
G01 Z-0.0100 F10.00 
G01 X-2.8325 Y0.5661 
G01 X-2.8325 Y0.5887 
G01 X-2.8271 Y0.5941 
G01 X-2.8158 Y0.6054 
G01 X-2.8083 Y0.6054 
G01 X-2.7856 Y0.6054 
G01 X-2.7802 Y0.6001 
G01 X-2.7689 Y0.5887 
G01 X-2.7689 Y0.5812 
G01 X-2.7689 Y0.5661 
G01 X-2.7689 Y0.5585 
G01 X-2.7856 Y0.5419 
G01 X-2.7931 Y0.5419 
G01 X-2.8158 Y0.5419 
G01 X-2.8211 Y0.5472 
G01 X-2.8325 Y0.5585 
G00 Z0.0200 
G00 X-2.7871 Y0.6871 
G01 Z-0.0100 F10.00 
G01 X-2.7871 Y0.7212 
G01 X-2.7893 Y0.7234 
G01 X-2.7916 Y0.7212 
G01 X-2.7916 Y0.7060 
G01 X-2.7916 Y0.6985 
G01 X-2.8029 Y0.6871 
G01 X-2.8083 Y0.6818 
G01 X-2.8158 Y0.6818 
G01 X-2.8271 Y0.6932 
G01 X-2.8325 Y0.6985 
G01 X-2.8325 Y0.7400 
G01 X-2.8271 Y0.7454 
G01 X-2.8196 Y0.7454 
G01 X-2.8143 Y0.7400 
G01 X-2.8143 Y0.7060 
G01 X-2.8120 Y0.7038 
G01 X-2.8098 Y0.7060 
G01 X-2.8098 Y0.7287 
G01 X-2.8044 Y0.7340 
G01 X-2.7931 Y0.7454 
G01 X-2.7856 Y0.7454 
G01 X-2.7802 Y0.7400 
G01 X-2.7689 Y0.7287 
G01 X-2.7689 Y0.7212 
G01 X-2.7689 Y0.6871 
G01 X-2.7742 Y0.6818 
G01 X-2.7818 Y0.6818 
G01 X-2.7871 Y0.6871 
G00 Z0.0200 
G00 X-2.7871 Y0.7987 
G01 Z-0.0100 F10.00 
G01 X-2.7818 Y0.8040 
G01 X-2.7742 Y0.8040 
G01 X-2.7689 Y0.7987 
G01 X-2.7689 Y0.7760 
G01 X-2.7689 Y0.7685 
G01 X-2.7802 Y0.7571 
G01 X-2.7856 Y0.7518 
G01 X-2.8083 Y0.7518 
G01 X-2.8158 Y0.7518 
G01 X-2.8325 Y0.7685 
G01 X-2.8325 Y0.7760 
G01 X-2.8325 Y0.7911 
G01 X-2.8325 Y0.7987 
G01 X-2.8211 Y0.8100 
G01 X-2.8211 Y0.8100 
G01 X-2.8158 Y0.8153 
G01 X-2.8044 Y0.8153 
G01 X-2.7969 Y0.8153 
G01 X-2.7916 Y0.8100 
G01 X-2.7916 Y0.7715 
G01 X-2.7871 Y0.7760 
G01 X-2.7871 Y0.7987 
G00 Z0.0200 
G00 X-2.8325 Y0.8971 
G01 Z-0.0100 F10.00 
G01 X-2.8325 Y0.9046 
G01 X-2.8271 Y0.9099 
G01 X-2.8226 Y0.9099 
G01 X-2.8271 Y0.9144 
G01 X-2.8325 Y0.9198 
G01 X-2.8325 Y0.9386 
G01 X-2.8271 Y0.9440 
G01 X-2.8196 Y0.9440 
G01 X-2.8143 Y0.9386 
G01 X-2.8143 Y0.9273 
G01 X-2.7969 Y0.9099 
G01 X-2.7742 Y0.9099 
G01 X-2.7689 Y0.9046 
G01 X-2.7689 Y0.8971 
G01 X-2.7742 Y0.8917 
G01 X-2.7969 Y0.8917 
G01 X-2.8044 Y0.8917 
G01 X-2.8271 Y0.8917 
G01 X-2.8325 Y0.8971 
G00 Z0.0200 
G00 X-2.8325 Y0.9667 
G01 Z-0.0100 F10.00 
G01 X-2.8325 Y0.9894 
G01 X-2.8325 Y0.9969 
G01 X-2.8211 Y1.0083 
G01 X-2.8158 Y1.0136 
G01 X-2.8044 Y1.0136 
G01 X-2.7969 Y1.0136 
G01 X-2.7818 Y1.0136 
G01 X-2.7742 Y1.0136 
G01 X-2.7689 Y1.0083 
G01 X-2.7689 Y0.9743 
G01 X-2.7689 Y0.9667 
G01 X-2.7802 Y0.9554 
G01 X-2.7856 Y0.9501 
G01 X-2.7931 Y0.9501 
G01 X-2.8044 Y0.9614 
G01 X-2.8098 Y0.9667 
G01 X-2.8098 Y0.9939 
G01 X-2.8143 Y0.9894 
G01 X-2.8143 Y0.9667 
G01 X-2.8196 Y0.9614 
G01 X-2.8271 Y0.9614 
G01 X-2.8325 Y0.9667 
G00 Z0.0200 
G00 X-2.7515 Y1.0382 
G01 Z-0.0100 F10.00 
G01 X-2.7462 Y1.0329 
G01 X-2.7462 Y1.0254 
G01 X-2.7515 Y1.0200 
G01 X-2.7742 Y1.0200 
G01 X-2.7818 Y1.0200 
G01 X-2.8196 Y1.0200 
G01 X-2.8271 Y1.0200 
G01 X-2.8325 Y1.0254 
G01 X-2.8325 Y1.0594 
G01 X-2.8325 Y1.0669 
G01 X-2.8211 Y1.0783 
G01 X-2.8158 Y1.0836 
G01 X-2.7931 Y1.0836 
G01 X-2.7856 Y1.0836 
G01 X-2.7742 Y1.0722 
G01 X-2.7689 Y1.0669 
G01 X-2.7689 Y1.0382 
G01 X-2.7515 Y1.0382 
G00 Z0.0200 
G00 X-2.8325 Y1.3053 
G01 Z-0.0100 F10.00 
G01 X-2.8325 Y1.3128 
G01 X-2.8288 Y1.3165 
G01 X-2.7983 Y1.3317 
G01 X-2.8288 Y1.3469 
G01 X-2.8325 Y1.3506 
G01 X-2.8325 Y1.3582 
G01 X-2.8271 Y1.3635 
G01 X-2.8212 Y1.3635 
G01 X-2.7759 Y1.3408 
G01 X-2.7742 Y1.3408 
G01 X-2.7726 Y1.3392 
G01 X-2.7726 Y1.3392 
G01 X-2.7689 Y1.3355 
G01 X-2.7689 Y1.3279 
G01 X-2.7742 Y1.3226 
G01 X-2.7759 Y1.3226 
G01 X-2.8212 Y1.2999 
G01 X-2.8271 Y1.2999 
G01 X-2.8325 Y1.3053 
G00 Z0.0200 
G00 X-2.7742 Y1.5271 
G01 Z-0.0100 F10.00 
G01 X-2.7689 Y1.5218 
G01 X-2.7689 Y1.5142 
G01 X-2.7742 Y1.5089 
G01 X-2.8029 Y1.5089 
G01 X-2.8029 Y1.4802 
G01 X-2.8083 Y1.4749 
G01 X-2.8158 Y1.4749 
G01 X-2.8211 Y1.4802 
G01 X-2.8551 Y1.5142 
G01 X-2.8551 Y1.5218 
G01 X-2.8498 Y1.5271 
G01 X-2.8423 Y1.5271 
G01 X-2.8211 Y1.5271 
G01 X-2.8211 Y1.5331 
G01 X-2.8158 Y1.5384 
G01 X-2.8083 Y1.5384 
G01 X-2.8029 Y1.5331 
G01 X-2.8029 Y1.5271 
G01 X-2.7742 Y1.5271 
G00 Z0.0200 
G00 X-1.7915 Y1.5145 
G01 Z-0.0100 F10.00 
G01 X-1.7915 Y1.5069 
G01 X-1.7969 Y1.5016 
G01 X-1.8044 Y1.5016 
G01 X-1.8157 Y1.5130 
G01 X-1.8309 Y1.5130 
G01 X-1.8369 Y1.5069 
G01 X-1.8369 Y1.4691 
G01 X-1.8309 Y1.4631 
G01 X-1.8157 Y1.4631 
G01 X-1.8097 Y1.4691 
G01 X-1.8097 Y1.4789 
G01 X-1.8271 Y1.4789 
G01 X-1.8324 Y1.4843 
G01 X-1.8324 Y1.4918 
G01 X-1.8271 Y1.4971 
G01 X-1.7969 Y1.4971 
G01 X-1.7915 Y1.4918 
G01 X-1.7915 Y1.4843 
G01 X-1.7915 Y1.4616 
G01 X-1.7969 Y1.4562 
G01 X-1.8082 Y1.4449 
G01 X-1.8157 Y1.4449 
G01 X-1.8384 Y1.4449 
G01 X-1.8437 Y1.4502 
G01 X-1.8551 Y1.4616 
G01 X-1.8551 Y1.4691 
G01 X-1.8551 Y1.5145 
G01 X-1.8498 Y1.5198 
G01 X-1.8384 Y1.5311 
G01 X-1.8309 Y1.5311 
G01 X-1.8082 Y1.5311 
G01 X-1.8029 Y1.5258 
G01 X-1.7915 Y1.5145 
G00 Z0.0200 
G00 X-1.7851 Y1.4502 
G01 Z-0.0100 F10.00 
G01 X-1.7851 Y1.5193 
G01 X-1.7851 Y1.5258 
G01 X-1.7798 Y1.5311 
G01 X-1.7723 Y1.5311 
G01 X-1.7690 Y1.5278 
G01 X-1.7669 Y1.5258 
G01 X-1.7669 Y1.5248 
G01 X-1.7397 Y1.4840 
G01 X-1.7397 Y1.5258 
G01 X-1.7344 Y1.5311 
G01 X-1.7269 Y1.5311 
G01 X-1.7216 Y1.5258 
G01 X-1.7216 Y1.4502 
G01 X-1.7269 Y1.4449 
G01 X-1.7344 Y1.4449 
G01 X-1.7365 Y1.4469 
G01 X-1.7377 Y1.4482 
G01 X-1.7397 Y1.4502 
G01 X-1.7397 Y1.4512 
G01 X-1.7669 Y1.4920 
G01 X-1.7669 Y1.4502 
G01 X-1.7723 Y1.4449 
G01 X-1.7798 Y1.4449 
G01 X-1.7851 Y1.4502 
G00 Z0.0200 
G00 X-1.6516 Y1.5145 
G01 Z-0.0100 F10.00 
G01 X-1.6516 Y1.5069 
G01 X-1.6516 Y1.4616 
G01 X-1.6569 Y1.4562 
G01 X-1.6683 Y1.4449 
G01 X-1.6758 Y1.4449 
G01 X-1.7098 Y1.4449 
G01 X-1.7151 Y1.4502 
G01 X-1.7151 Y1.4578 
G01 X-1.7151 Y1.5183 
G01 X-1.7151 Y1.5258 
G01 X-1.7098 Y1.5311 
G01 X-1.6683 Y1.5311 
G01 X-1.6629 Y1.5258 
G01 X-1.6516 Y1.5145 
G00 Z0.0200 
G00 X-2.1238 Y1.4502 
G01 Z-0.0100 F10.00 
G01 X-2.1238 Y1.4502 
G01 X-2.1351 Y1.4616 
G01 X-2.1351 Y1.4691 
G01 X-2.1351 Y1.4918 
G01 X-2.1298 Y1.4971 
G01 X-2.1298 Y1.4971 
G01 X-2.1184 Y1.5085 
G01 X-2.1109 Y1.5085 
G01 X-2.0958 Y1.5085 
G01 X-2.0882 Y1.5085 
G01 X-2.0716 Y1.4918 
G01 X-2.0716 Y1.4843 
G01 X-2.0716 Y1.4616 
G01 X-2.0769 Y1.4562 
G01 X-2.0882 Y1.4449 
G01 X-2.0958 Y1.4449 
G01 X-2.1184 Y1.4449 
G01 X-2.1238 Y1.4502 
G00 Z0.0200 
G00 X-1.9838 Y1.5145 
G01 Z-0.0100 F10.00 
G01 X-1.9785 Y1.5198 
G01 X-1.9710 Y1.5198 
G01 X-1.9656 Y1.5145 
G01 X-1.9656 Y1.5085 
G01 X-1.9596 Y1.5085 
G01 X-1.9543 Y1.5031 
G01 X-1.9543 Y1.4956 
G01 X-1.9596 Y1.4903 
G01 X-1.9656 Y1.4903 
G01 X-1.9656 Y1.4691 
G01 X-1.9543 Y1.4578 
G01 X-1.9543 Y1.4502 
G01 X-1.9596 Y1.4449 
G01 X-1.9671 Y1.4449 
G01 X-1.9838 Y1.4616 
G01 X-1.9838 Y1.4691 
G01 X-1.9838 Y1.4903 
G01 X-1.9898 Y1.4903 
G01 X-1.9952 Y1.4956 
G01 X-1.9952 Y1.5031 
G01 X-1.9898 Y1.5085 
G01 X-1.9838 Y1.5085 
G01 X-1.9838 Y1.5145 
G00 Z0.0200 
G00 X-2.0317 Y0.5742 
G01 Z-0.0100 F10.00 
G01 X-2.0317 Y0.6083 
G01 X-2.0317 Y0.6158 
G01 X-2.0317 Y0.6196 
G01 X-2.0317 Y0.6271 
G01 X-2.0090 Y0.6498 
G01 X-2.0036 Y0.6551 
G01 X-1.9961 Y0.6551 
G01 X-1.9734 Y0.6325 
G01 X-1.9681 Y0.6271 
G01 X-1.9681 Y0.6158 
G01 X-1.9681 Y0.6083 
G01 X-1.9681 Y0.5742 
G01 X-1.9734 Y0.5689 
G01 X-1.9810 Y0.5689 
G01 X-1.9863 Y0.5742 
G01 X-1.9863 Y0.6029 
G01 X-2.0135 Y0.6029 
G01 X-2.0135 Y0.5742 
G01 X-2.0188 Y0.5689 
G01 X-2.0263 Y0.5689 
G01 X-2.0317 Y0.5742 
G00 Z0.0200 
G00 X-1.9617 Y0.6271 
G01 Z-0.0100 F10.00 
G01 X-1.9564 Y0.6325 
G01 X-1.9488 Y0.6325 
G01 X-1.9435 Y0.6271 
G01 X-1.9435 Y0.5931 
G01 X-1.9375 Y0.5871 
G01 X-1.9163 Y0.5871 
G01 X-1.9163 Y0.6271 
G01 X-1.9110 Y0.6325 
G01 X-1.9035 Y0.6325 
G01 X-1.8981 Y0.6271 
G01 X-1.8981 Y0.5742 
G01 X-1.9035 Y0.5689 
G01 X-1.9110 Y0.5689 
G01 X-1.9450 Y0.5689 
G01 X-1.9503 Y0.5742 
G01 X-1.9617 Y0.5856 
G01 X-1.9617 Y0.5931 
G01 X-1.9617 Y0.6271 
G00 Z0.0200 
G00 X-1.8217 Y0.6196 
G01 Z-0.0100 F10.00 
G01 X-1.8217 Y0.6271 
G01 X-1.8164 Y0.6325 
G01 X-1.8051 Y0.6325 
G01 X-1.7975 Y0.6325 
G01 X-1.7922 Y0.6271 
G01 X-1.7922 Y0.5871 
G01 X-1.7862 Y0.5871 
G01 X-1.7809 Y0.5818 
G01 X-1.7809 Y0.5742 
G01 X-1.7862 Y0.5689 
G01 X-1.8164 Y0.5689 
G01 X-1.8217 Y0.5742 
G01 X-1.8217 Y0.5818 
G01 X-1.8164 Y0.5871 
G01 X-1.8104 Y0.5871 
G01 X-1.8104 Y0.6143 
G01 X-1.8164 Y0.6143 
G01 X-1.8217 Y0.6196 
G00 Z0.0200 
G00 X-1.8104 Y0.6423 
G01 Z-0.0100 F10.00 
G01 X-1.8104 Y0.6612 
G01 X-1.8051 Y0.6665 
G01 X-1.7975 Y0.6665 
G01 X-1.7922 Y0.6612 
G01 X-1.7922 Y0.6423 
G01 X-1.7975 Y0.6370 
G01 X-1.8051 Y0.6370 
G01 X-1.8104 Y0.6423 
G00 Z0.0200 
G00 X-1.7637 Y0.5742 
G01 Z-0.0100 F10.00 
G01 X-1.7637 Y0.5742 
G01 X-1.7751 Y0.5856 
G01 X-1.7751 Y0.5931 
G01 X-1.7751 Y0.6083 
G01 X-1.7751 Y0.6158 
G01 X-1.7584 Y0.6325 
G01 X-1.7509 Y0.6325 
G01 X-1.7282 Y0.6325 
G01 X-1.7229 Y0.6271 
G01 X-1.7115 Y0.6158 
G01 X-1.7115 Y0.6083 
G01 X-1.7115 Y0.5856 
G01 X-1.7169 Y0.5802 
G01 X-1.7282 Y0.5689 
G01 X-1.7357 Y0.5689 
G01 X-1.7584 Y0.5689 
G01 X-1.7637 Y0.5742 
G00 Z0.0200 
G00 X-0.8300 Y1.7583 
G01 Z-0.0100 F10.00 
G01 X-0.8300 Y1.7658 
G01 X-0.8247 Y1.7711 
G01 X-0.8073 Y1.7711 
G01 X-0.8073 Y1.7885 
G01 X-0.8020 Y1.7938 
G01 X-0.7944 Y1.7938 
G01 X-0.7891 Y1.7885 
G01 X-0.7891 Y1.7711 
G01 X-0.7718 Y1.7711 
G01 X-0.7664 Y1.7658 
G01 X-0.7664 Y1.7583 
G01 X-0.7718 Y1.7529 
G01 X-0.7891 Y1.7529 
G01 X-0.7891 Y1.7356 
G01 X-0.7944 Y1.7302 
G01 X-0.8020 Y1.7302 
G01 X-0.8073 Y1.7356 
G01 X-0.8073 Y1.7529 
G01 X-0.8247 Y1.7529 
G01 X-0.8300 Y1.7583 
G00 Z0.0200 
G00 X-0.6201 Y1.7242 
G01 Z-0.0100 F10.00 
G01 X-0.6201 Y1.7998 
G01 X-0.6147 Y1.8051 
G01 X-0.6072 Y1.8051 
G01 X-0.5732 Y1.8051 
G01 X-0.5678 Y1.7998 
G01 X-0.5565 Y1.7885 
G01 X-0.5565 Y1.7809 
G01 X-0.5565 Y1.7356 
G01 X-0.5618 Y1.7302 
G01 X-0.5618 Y1.7302 
G01 X-0.5732 Y1.7189 
G01 X-0.5807 Y1.7189 
G01 X-0.6072 Y1.7189 
G01 X-0.6147 Y1.7189 
G01 X-0.6201 Y1.7242 
G00 Z0.0200 
G00 X-0.1242 Y0.6200 
G01 Z-0.0100 F10.00 
G01 X-0.1189 Y0.6147 
G01 X-0.1189 Y0.6072 
G01 X-0.1242 Y0.6018 
G01 X-0.1583 Y0.6018 
G01 X-0.1658 Y0.6018 
G01 X-0.1923 Y0.6018 
G01 X-0.1998 Y0.6018 
G01 X-0.2051 Y0.6072 
G01 X-0.2051 Y0.6601 
G01 X-0.1998 Y0.6654 
G01 X-0.1923 Y0.6654 
G01 X-0.1870 Y0.6601 
G01 X-0.1870 Y0.6200 
G01 X-0.1711 Y0.6200 
G01 X-0.1711 Y0.6374 
G01 X-0.1658 Y0.6427 
G01 X-0.1583 Y0.6427 
G01 X-0.1529 Y0.6374 
G01 X-0.1529 Y0.6200 
G01 X-0.1242 Y0.6200 
G00 Z0.0200 
G00 X-0.1356 Y0.6718 
G01 Z-0.0100 F10.00 
G01 X-0.1431 Y0.6718 
G01 X-0.1484 Y0.6771 
G01 X-0.1484 Y0.6885 
G01 X-0.1484 Y0.6960 
G01 X-0.1431 Y0.7014 
G01 X-0.1318 Y0.7014 
G01 X-0.1242 Y0.7014 
G01 X-0.1189 Y0.6960 
G01 X-0.1189 Y0.6771 
G01 X-0.1242 Y0.6718 
G01 X-0.1318 Y0.6718 
G01 X-0.1356 Y0.6718 
G00 Z0.0200 
G00 X-0.1371 Y0.9221 
G01 Z-0.0100 F10.00 
G01 X-0.1371 Y0.9561 
G01 X-0.1393 Y0.9583 
G01 X-0.1416 Y0.9561 
G01 X-0.1416 Y0.9409 
G01 X-0.1416 Y0.9334 
G01 X-0.1529 Y0.9221 
G01 X-0.1583 Y0.9167 
G01 X-0.1658 Y0.9167 
G01 X-0.1771 Y0.9281 
G01 X-0.1825 Y0.9334 
G01 X-0.1825 Y0.9750 
G01 X-0.1771 Y0.9803 
G01 X-0.1696 Y0.9803 
G01 X-0.1643 Y0.9750 
G01 X-0.1643 Y0.9409 
G01 X-0.1620 Y0.9387 
G01 X-0.1598 Y0.9409 
G01 X-0.1598 Y0.9636 
G01 X-0.1544 Y0.9690 
G01 X-0.1431 Y0.9803 
G01 X-0.1356 Y0.9803 
G01 X-0.1302 Y0.9750 
G01 X-0.1189 Y0.9636 
G01 X-0.1189 Y0.9561 
G01 X-0.1189 Y0.9221 
G01 X-0.1242 Y0.9167 
G01 X-0.1318 Y0.9167 
G01 X-0.1371 Y0.9221 
G00 Z0.0200 
G00 X-0.1371 Y0.9920 
G01 Z-0.0100 F10.00 
G01 X-0.1371 Y1.0261 
G01 X-0.1393 Y1.0283 
G01 X-0.1416 Y1.0261 
G01 X-0.1416 Y1.0109 
G01 X-0.1416 Y1.0034 
G01 X-0.1529 Y0.9920 
G01 X-0.1583 Y0.9867 
G01 X-0.1658 Y0.9867 
G01 X-0.1771 Y0.9981 
G01 X-0.1825 Y1.0034 
G01 X-0.1825 Y1.0449 
G01 X-0.1771 Y1.0503 
G01 X-0.1696 Y1.0503 
G01 X-0.1643 Y1.0449 
G01 X-0.1643 Y1.0109 
G01 X-0.1620 Y1.0087 
G01 X-0.1598 Y1.0109 
G01 X-0.1598 Y1.0336 
G01 X-0.1544 Y1.0389 
G01 X-0.1431 Y1.0503 
G01 X-0.1356 Y1.0503 
G01 X-0.1302 Y1.0449 
G01 X-0.1189 Y1.0336 
G01 X-0.1189 Y1.0261 
G01 X-0.1189 Y0.9920 
G01 X-0.1242 Y0.9867 
G01 X-0.1318 Y0.9867 
G01 X-0.1371 Y0.9920 
G00 Z0.0200 
G00 X-0.1371 Y1.1036 
G01 Z-0.0100 F10.00 
G01 X-0.1318 Y1.1089 
G01 X-0.1242 Y1.1089 
G01 X-0.1189 Y1.1036 
G01 X-0.1189 Y1.0809 
G01 X-0.1189 Y1.0734 
G01 X-0.1302 Y1.0620 
G01 X-0.1356 Y1.0567 
G01 X-0.1469 Y1.0567 
G01 X-0.1544 Y1.0567 
G01 X-0.1583 Y1.0567 
G01 X-0.1658 Y1.0567 
G01 X-0.1771 Y1.0680 
G01 X-0.1825 Y1.0734 
G01 X-0.1825 Y1.0960 
G01 X-0.1825 Y1.1036 
G01 X-0.1711 Y1.1149 
G01 X-0.1658 Y1.1202 
G01 X-0.1544 Y1.1202 
G01 X-0.1469 Y1.1202 
G01 X-0.1416 Y1.1149 
G01 X-0.1416 Y1.0764 
G01 X-0.1371 Y1.0809 
G01 X-0.1371 Y1.1036 
G00 Z0.0200 
G00 X-0.1809 Y1.3599 
G01 Z-0.0100 F10.00 
G01 X-0.1885 Y1.3599 
G01 X-0.1998 Y1.3713 
G01 X-0.2051 Y1.3766 
G01 X-0.2051 Y1.3993 
G01 X-0.2051 Y1.4068 
G01 X-0.1938 Y1.4181 
G01 X-0.1938 Y1.4181 
G01 X-0.1885 Y1.4235 
G01 X-0.1809 Y1.4235 
G01 X-0.1431 Y1.4235 
G01 X-0.1356 Y1.4235 
G01 X-0.1242 Y1.4121 
G01 X-0.1189 Y1.4068 
G01 X-0.1189 Y1.3841 
G01 X-0.1189 Y1.3766 
G01 X-0.1302 Y1.3652 
G01 X-0.1356 Y1.3599 
G01 X-0.1431 Y1.3599 
G01 X-0.1809 Y1.3599 
G00 Z0.0200 
G00 X-0.1809 Y1.4299 
G01 Z-0.0100 F10.00 
G01 X-0.1885 Y1.4299 
G01 X-0.1998 Y1.4412 
G01 X-0.2051 Y1.4466 
G01 X-0.2051 Y1.4693 
G01 X-0.2051 Y1.4768 
G01 X-0.1938 Y1.4881 
G01 X-0.1885 Y1.4935 
G01 X-0.1809 Y1.4935 
G01 X-0.1431 Y1.4935 
G01 X-0.1356 Y1.4935 
G01 X-0.1242 Y1.4821 
G01 X-0.1189 Y1.4768 
G01 X-0.1189 Y1.4541 
G01 X-0.1189 Y1.4466 
G01 X-0.1302 Y1.4352 
G01 X-0.1356 Y1.4299 
G01 X-0.1431 Y1.4299 
G01 X-0.1809 Y1.4299 
G00 Z0.0200 
G00 X-0.2051 Y1.5052 
G01 Z-0.0100 F10.00 
G01 X-0.2051 Y1.5506 
G01 X-0.2051 Y1.5581 
G01 X-0.1998 Y1.5634 
G01 X-0.1885 Y1.5634 
G01 X-0.1809 Y1.5634 
G01 X-0.1356 Y1.5181 
G01 X-0.1242 Y1.5181 
G01 X-0.1189 Y1.5127 
G01 X-0.1189 Y1.5052 
G01 X-0.1242 Y1.4999 
G01 X-0.1431 Y1.4999 
G01 X-0.1484 Y1.5052 
G01 X-0.1870 Y1.5437 
G01 X-0.1870 Y1.5052 
G01 X-0.1923 Y1.4999 
G01 X-0.1998 Y1.4999 
G01 X-0.2051 Y1.5052 
G00 Z0.0200 
G00 X-0.1593 Y1.0470 
G01 Z-0.0100 F10.00 
G01 X-0.1593 Y1.0412 
G01 X-0.1565 Y1.0439 
G01 X-0.1488 Y1.0517 
G01 X-0.1565 Y1.0517 
G01 X-0.1640 Y1.0517 
G01 X-0.1593 Y1.0470 
G00 Z0.0200 
G00 X-0.1593 Y0.9770 
G01 Z-0.0100 F10.00 
G01 X-0.1593 Y0.9712 
G01 X-0.1565 Y0.9740 
G01 X-0.1452 Y0.9853 
G01 X-0.1374 Y0.9853 
G01 X-0.1421 Y0.9900 
G01 X-0.1421 Y0.9958 
G01 X-0.1479 Y0.9900 
G01 X-0.1562 Y0.9817 
G01 X-0.1640 Y0.9817 
G01 X-0.1593 Y0.9770 
G00 Z0.0200 
G00 X-0.1374 Y0.9153 
G01 Z-0.0100 F10.00 
G01 X-0.1421 Y0.9200 
G01 X-0.1421 Y0.9258 
G01 X-0.1479 Y0.9200 
G01 X-0.1526 Y0.9153 
G01 X-0.1374 Y0.9153 
G00 Z0.0200 
G00 X-0.1450 Y0.8342 
G01 Z-0.0100 F10.00 
G01 X-0.1374 Y0.8418 
G01 X-0.1452 Y0.8418 
G01 X-0.1526 Y0.8418 
G01 X-0.1450 Y0.8342 
G00 Z0.0200 
G00 X-0.1679 Y0.8172 
G01 Z-0.0100 F10.00 
G01 X-0.1789 Y0.8172 
G01 X-0.1820 Y0.8141 
G01 X-0.1820 Y0.8000 
G01 X-0.1648 Y0.8000 
G01 X-0.1648 Y0.8027 
G01 X-0.1648 Y0.8141 
G01 X-0.1679 Y0.8172 
G00 Z0.0200 
G00 X-2.0978 Y1.4681 
G01 Z-0.0100 F10.00 
G01 X-2.0947 Y1.4712 
G01 X-2.0947 Y1.4822 
G01 X-2.0978 Y1.4853 
G01 X-2.1088 Y1.4853 
G01 X-2.1119 Y1.4822 
G01 X-2.1119 Y1.4712 
G01 X-2.1088 Y1.4681 
G01 X-2.0978 Y1.4681 
G00 Z0.0200 
G00 X-1.7920 Y1.4994 
G01 Z-0.0100 F10.00 
G01 X-1.7901 Y1.4974 
G01 X-1.7901 Y1.5013 
G01 X-1.7920 Y1.4994 
G00 Z0.0200 
G00 X-1.6920 Y1.4681 
G01 Z-0.0100 F10.00 
G01 X-1.6779 Y1.4681 
G01 X-1.6748 Y1.4712 
G01 X-1.6748 Y1.5049 
G01 X-1.6779 Y1.5080 
G01 X-1.6920 Y1.5080 
G01 X-1.6920 Y1.4681 
G00 Z0.0200 
G00 X-1.8319 Y1.4712 
G01 Z-0.0100 F10.00 
G01 X-1.8288 Y1.4681 
G01 X-1.8178 Y1.4681 
G01 X-1.8147 Y1.4712 
G01 X-1.8147 Y1.4739 
G01 X-1.8291 Y1.4739 
G01 X-1.8319 Y1.4767 
G01 X-1.8319 Y1.4712 
G00 Z0.0200 
G00 X-1.8178 Y1.5080 
G01 Z-0.0100 F10.00 
G01 X-1.8288 Y1.5080 
G01 X-1.8319 Y1.5049 
G01 X-1.8319 Y1.4994 
G01 X-1.8291 Y1.5021 
G01 X-1.8120 Y1.5021 
G01 X-1.8178 Y1.5080 
G00 Z0.0200 
G00 X-2.8093 Y0.7421 
G01 Z-0.0100 F10.00 
G01 X-2.8093 Y0.7363 
G01 X-2.8065 Y0.7390 
G01 X-2.7988 Y0.7468 
G01 X-2.8062 Y0.7468 
G01 X-2.8140 Y0.7468 
G01 X-2.8093 Y0.7421 
G00 Z0.0200 
G00 X-2.7874 Y0.6804 
G01 Z-0.0100 F10.00 
G01 X-2.7921 Y0.6851 
G01 X-2.7921 Y0.6909 
G01 X-2.7979 Y0.6851 
G01 X-2.8026 Y0.6804 
G01 X-2.7874 Y0.6804 
G00 Z0.0200 
G00 X-2.7921 Y0.5791 
G01 Z-0.0100 F10.00 
G01 X-2.7952 Y0.5822 
G01 X-2.8062 Y0.5822 
G01 X-2.8093 Y0.5791 
G01 X-2.8093 Y0.5681 
G01 X-2.8062 Y0.5650 
G01 X-2.7952 Y0.5650 
G01 X-2.7921 Y0.5681 
G01 X-2.7921 Y0.5791 
G00 Z0.0200 
G00 X-0.6074 Y0.1722 
G01 Z-0.0100 F10.00 
G01 X-0.6074 Y0.2320 
G01 X-0.6218 Y0.2320 
G01 X-0.6265 Y0.2366 
G01 X-0.6265 Y0.1722 
G01 X-0.6286 Y0.1701 
G01 X-0.6053 Y0.1701 
G01 X-0.6074 Y0.1722 
G00 Z0.0200 
G00 X-0.6547 Y0.1722 
G01 Z-0.0100 F10.00 
G01 X-0.6547 Y0.1737 
G01 X-0.6719 Y0.1995 
G01 X-0.6719 Y0.1722 
G01 X-0.6739 Y0.1701 
G01 X-0.6526 Y0.1701 
G01 X-0.6547 Y0.1722 
G00 Z0.0200 
G00 X-0.6983 Y0.1704 
G01 Z-0.0100 F10.00 
G01 X-0.6985 Y0.1701 
G01 X-0.6980 Y0.1701 
G01 X-0.6983 Y0.1704 
G00 Z0.0200 
G00 X-0.7247 Y0.1722 
G01 Z-0.0100 F10.00 
G01 X-0.7247 Y0.1979 
G01 X-0.7418 Y0.1979 
G01 X-0.7418 Y0.1722 
G01 X-0.7439 Y0.1701 
G01 X-0.7226 Y0.1701 
G01 X-0.7247 Y0.1722 
G00 Z0.0200 
G00 X-0.7333 Y0.2261 
G01 Z-0.0100 F10.00 
G01 X-0.7333 Y0.2261 
G01 X-0.7332 Y0.2261 
G01 X-0.7333 Y0.2261 
G00 Z0.0200 
G00 X-2.7952 Y1.0604 
G01 Z-0.0100 F10.00 
G01 X-2.8062 Y1.0604 
G01 X-2.8093 Y1.0573 
G01 X-2.8093 Y1.0432 
G01 X-2.7921 Y1.0432 
G01 X-2.7921 Y1.0573 
G01 X-2.7952 Y1.0604 
G00 Z0.0200 
G00 X-2.8179 Y1.2004 
G01 Z-0.0100 F10.00 
G01 X-2.8289 Y1.2004 
G01 X-2.8320 Y1.1973 
G01 X-2.8320 Y1.1832 
G01 X-2.8148 Y1.1832 
G01 X-2.8148 Y1.1859 
G01 X-2.8148 Y1.1973 
G01 X-2.8179 Y1.2004 
G00 Z0.0200 
G00 X-2.7950 Y1.2174 
G01 Z-0.0100 F10.00 
G01 X-2.7874 Y1.2250 
G01 X-2.8026 Y1.2250 
G01 X-2.7950 Y1.2174 
G00 Z0.0200 
G00 X-1.8685 Y0.6062 
G01 Z-0.0100 F10.00 
G01 X-1.8685 Y0.5952 
G01 X-1.8654 Y0.5921 
G01 X-1.8513 Y0.5921 
G01 X-1.8513 Y0.6093 
G01 X-1.8654 Y0.6093 
G01 X-1.8685 Y0.6062 
G00 Z0.0200 
G00 X-1.7378 Y0.5921 
G01 Z-0.0100 F10.00 
G01 X-1.7347 Y0.5952 
G01 X-1.7347 Y0.6062 
G01 X-1.7378 Y0.6093 
G01 X-1.7488 Y0.6093 
G01 X-1.7519 Y0.6062 
G01 X-1.7519 Y0.5952 
G01 X-1.7488 Y0.5921 
G01 X-1.7378 Y0.5921 
G00 Z0.0200 
G00 X-1.8154 Y0.6093 
G01 Z-0.0100 F10.00 
G01 X-1.8185 Y0.6093 
G01 X-1.8232 Y0.6140 
G01 X-1.8232 Y0.5874 
G01 X-1.8185 Y0.5921 
G01 X-1.8154 Y0.5921 
G01 X-1.8154 Y0.6093 
G00 Z0.0200 
G00 X-1.9999 Y0.6261 
G01 Z-0.0100 F10.00 
G01 X-1.9999 Y0.6261 
G01 X-1.9999 Y0.6261 
G01 X-1.9999 Y0.6261 
G00 Z0.0200 
G00 X-0.6777 Y1.3570 
G01 Z-0.0100 F10.00 
G01 X-0.6888 Y1.3570 
G01 X-0.6918 Y1.3539 
G01 X-0.6918 Y1.3484 
G01 X-0.6891 Y1.3511 
G01 X-0.6719 Y1.3511 
G01 X-0.6777 Y1.3570 
G00 Z0.0200 
G00 X-0.6918 Y1.3202 
G01 Z-0.0100 F10.00 
G01 X-0.6888 Y1.3171 
G01 X-0.6777 Y1.3171 
G01 X-0.6747 Y1.3202 
G01 X-0.6747 Y1.3229 
G01 X-0.6891 Y1.3229 
G01 X-0.6918 Y1.3257 
G01 X-0.6918 Y1.3202 
G00 Z0.0200 
G00 X-0.5519 Y1.3171 
G01 Z-0.0100 F10.00 
G01 X-0.5378 Y1.3171 
G01 X-0.5347 Y1.3202 
G01 X-0.5347 Y1.3539 
G01 X-0.5378 Y1.3570 
G01 X-0.5519 Y1.3570 
G01 X-0.5519 Y1.3171 
G00 Z0.0200 
G00 X-0.6520 Y1.3484 
G01 Z-0.0100 F10.00 
G01 X-0.6501 Y1.3464 
G01 X-0.6501 Y1.3503 
G01 X-0.6520 Y1.3484 
G00 Z0.0200 
G00 X-0.7368 Y1.7452 
G01 Z-0.0100 F10.00 
G01 X-0.7337 Y1.7421 
G01 X-0.7227 Y1.7421 
G01 X-0.7198 Y1.7450 
G01 X-0.7227 Y1.7479 
G01 X-0.7368 Y1.7479 
G01 X-0.7368 Y1.7452 
G00 Z0.0200 
G00 X-0.6972 Y1.7845 
G01 Z-0.0100 F10.00 
G01 X-0.7139 Y1.7761 
G01 X-0.7111 Y1.7761 
G01 X-0.7028 Y1.7679 
G01 X-0.6950 Y1.7601 
G01 X-0.6950 Y1.7866 
G01 X-0.6972 Y1.7845 
G00 Z0.0200 
G00 X-0.5969 Y1.7421 
G01 Z-0.0100 F10.00 
G01 X-0.5828 Y1.7421 
G01 X-0.5797 Y1.7452 
G01 X-0.5797 Y1.7789 
G01 X-0.5828 Y1.7820 
G01 X-0.5969 Y1.7820 
G01 X-0.5969 Y1.7421 
G00 Z0.0200 
G00 X-0.1820 Y0.4642 
G01 Z-0.0100 F10.00 
G01 X-0.1820 Y0.4532 
G01 X-0.1790 Y0.4503 
G01 X-0.1761 Y0.4532 
G01 X-0.1761 Y0.4642 
G01 X-0.1761 Y0.4700 
G01 X-0.1820 Y0.4642 
G00 Z0.0200 
G00 X-0.1421 Y0.4642 
G01 Z-0.0100 F10.00 
G01 X-0.1450 Y0.4671 
G01 X-0.1479 Y0.4642 
G01 X-0.1479 Y0.4473 
G01 X-0.1421 Y0.4532 
G01 X-0.1421 Y0.4642 
G00 Z0.0200 
G00 X-0.1421 Y1.3502 
G01 Z-0.0100 F10.00 
G01 X-0.1374 Y1.3549 
G01 X-0.1452 Y1.3549 
G01 X-0.1640 Y1.3549 
G01 X-0.1593 Y1.3502 
G01 X-0.1421 Y1.3331 
G01 X-0.1421 Y1.3502 
G00 Z0.0200 
G00 X-0.1820 Y1.4562 
G01 Z-0.0100 F10.00 
G01 X-0.1789 Y1.4531 
G01 X-0.1734 Y1.4531 
G01 X-0.1820 Y1.4617 
G01 X-0.1820 Y1.4562 
G00 Z0.0200 
G00 X-0.1452 Y1.4703 
G01 Z-0.0100 F10.00 
G01 X-0.1507 Y1.4703 
G01 X-0.1421 Y1.4617 
G01 X-0.1421 Y1.4672 
G01 X-0.1452 Y1.4703 
G00 Z0.0200 
G00 X-0.1820 Y1.5031 
G01 Z-0.0100 F10.00 
G01 X-0.1866 Y1.4985 
G01 X-0.1789 Y1.4985 
G01 X-0.1488 Y1.4985 
G01 X-0.1534 Y1.5031 
G01 X-0.1820 Y1.5317 
G01 X-0.1820 Y1.5031 
G00 Z0.0200 
G00 X-0.1452 Y1.4003 
G01 Z-0.0100 F10.00 
G01 X-0.1507 Y1.4003 
G01 X-0.1421 Y1.3917 
G01 X-0.1421 Y1.3972 
G01 X-0.1452 Y1.4003 
G00 Z0.0200 
G00 X-0.1820 Y1.3862 
G01 Z-0.0100 F10.00 
G01 X-0.1789 Y1.3831 
G01 X-0.1734 Y1.3831 
G01 X-0.1820 Y1.3917 
G01 X-0.1820 Y1.3862 
G00 Z0.0200 
G00 X-0.5628 Y1.8019 
G01 Z-0.0100 F10.00 
G01 X-0.5533 Y1.7923 
G01 X-0.5468 Y1.7988 
G01 X-0.5407 Y1.8049 
G01 X-0.5659 Y1.8049 
G01 X-0.5628 Y1.8019 
G00 Z0.0200 
G00 X-0.6233 Y1.8037 
G01 Z-0.0100 F10.00 
G01 X-0.6220 Y1.8049 
G01 X-0.6245 Y1.8049 
G01 X-0.6233 Y1.8037 
G00 Z0.0200 
G00 X-0.6669 Y1.8019 
G01 Z-0.0100 F10.00 
G01 X-0.6669 Y1.7565 
G01 X-0.6583 Y1.7479 
G01 X-0.6497 Y1.7565 
G01 X-0.6497 Y1.8019 
G01 X-0.6466 Y1.8049 
G01 X-0.6699 Y1.8049 
G01 X-0.6669 Y1.8019 
G00 Z0.0200 
G00 X-0.6932 Y1.8037 
G01 Z-0.0100 F10.00 
G01 X-0.6920 Y1.8049 
G01 X-0.6945 Y1.8049 
G01 X-0.6932 Y1.8037 
G00 Z0.0200 
G00 X-0.1222 Y1.3585 
G01 Z-0.0100 F10.00 
G01 X-0.1139 Y1.3502 
G01 X-0.1139 Y1.3049 
G01 X-0.1139 Y1.2932 
G01 X-0.1222 Y1.2849 
G01 X-0.1338 Y1.2849 
G01 X-0.1790 Y1.3302 
G01 X-0.1820 Y1.3272 
G01 X-0.1820 Y1.3162 
G01 X-0.1706 Y1.3049 
G01 X-0.1706 Y1.2932 
G01 X-0.1789 Y1.2849 
G01 X-0.1905 Y1.2849 
G01 X-0.2101 Y1.3045 
G01 X-0.2101 Y1.3162 
G01 X-0.2101 Y1.3389 
G01 X-0.2019 Y1.3472 
G01 X-0.1923 Y1.3567 
G01 X-0.2019 Y1.3663 
G01 X-0.2101 Y1.3745 
G01 X-0.2101 Y1.3972 
G01 X-0.2101 Y1.4089 
G01 X-0.1988 Y1.4202 
G01 X-0.1988 Y1.4202 
G01 X-0.1923 Y1.4267 
G01 X-0.2019 Y1.4362 
G01 X-0.2101 Y1.4445 
G01 X-0.2101 Y1.4672 
G01 X-0.2101 Y1.4789 
G01 X-0.1988 Y1.4902 
G01 X-0.1941 Y1.4949 
G01 X-0.2019 Y1.4949 
G01 X-0.2101 Y1.5031 
G01 X-0.2101 Y1.5485 
G01 X-0.2101 Y1.5602 
G01 X-0.2019 Y1.5684 
G01 X-0.1905 Y1.5684 
G01 X-0.1789 Y1.5684 
G01 X-0.1335 Y1.5231 
G01 X-0.1222 Y1.5231 
G01 X-0.1139 Y1.5148 
G01 X-0.1139 Y1.5031 
G01 X-0.1222 Y1.4949 
G01 X-0.1299 Y1.4949 
G01 X-0.1222 Y1.4871 
G01 X-0.1139 Y1.4789 
G01 X-0.1139 Y1.4562 
G01 X-0.1139 Y1.4445 
G01 X-0.1252 Y1.4332 
G01 X-0.1317 Y1.4267 
G01 X-0.1222 Y1.4171 
G01 X-0.1139 Y1.4089 
G01 X-0.1139 Y1.3862 
G01 X-0.1139 Y1.3745 
G01 X-0.1252 Y1.3632 
G01 X-0.1299 Y1.3585 
G01 X-0.1222 Y1.3585 
G00 Z0.0200 
G00 X-0.2101 Y1.1299 
G01 Z-0.0100 F10.00 
G01 X-0.2101 Y1.1413 
G01 X-0.2101 Y1.1529 
G01 X-0.2019 Y1.1612 
G01 X-0.1421 Y1.1612 
G01 X-0.1421 Y1.1643 
G01 X-0.1359 Y1.1704 
G01 X-0.1421 Y1.1766 
G01 X-0.1421 Y1.1797 
G01 X-0.1820 Y1.1797 
G01 X-0.1820 Y1.1766 
G01 X-0.1902 Y1.1683 
G01 X-0.2019 Y1.1683 
G01 X-0.2101 Y1.1766 
G01 X-0.2101 Y1.1879 
G01 X-0.2101 Y1.1996 
G01 X-0.2019 Y1.2078 
G01 X-0.1421 Y1.2078 
G01 X-0.1421 Y1.2109 
G01 X-0.1338 Y1.2192 
G01 X-0.1222 Y1.2192 
G01 X-0.1139 Y1.2109 
G01 X-0.1139 Y1.1996 
G01 X-0.1139 Y1.1879 
G01 X-0.1139 Y1.1766 
G01 X-0.1201 Y1.1704 
G01 X-0.1139 Y1.1643 
G01 X-0.1139 Y1.1299 
G01 X-0.1222 Y1.1217 
G01 X-0.1338 Y1.1217 
G01 X-0.1421 Y1.1299 
G01 X-0.1421 Y1.1330 
G01 X-0.1820 Y1.1330 
G01 X-0.1820 Y1.1299 
G01 X-0.1902 Y1.1217 
G01 X-0.2019 Y1.1217 
G01 X-0.2101 Y1.1299 
G00 Z0.0200 
G00 X-0.1452 Y0.6668 
G01 Z-0.0100 F10.00 
G01 X-0.1534 Y0.6751 
G01 X-0.1534 Y0.6864 
G01 X-0.1534 Y0.6981 
G01 X-0.1452 Y0.7064 
G01 X-0.1338 Y0.7064 
G01 X-0.1222 Y0.7064 
G01 X-0.1139 Y0.6981 
G01 X-0.1139 Y0.6751 
G01 X-0.1222 Y0.6668 
G01 X-0.1338 Y0.6668 
G01 X-0.1452 Y0.6668 
G00 Z0.0200 
G00 X-0.1222 Y0.6250 
G01 Z-0.0100 F10.00 
G01 X-0.1139 Y0.6168 
G01 X-0.1139 Y0.6051 
G01 X-0.1222 Y0.5968 
G01 X-0.1562 Y0.5968 
G01 X-0.1679 Y0.5968 
G01 X-0.1902 Y0.5968 
G01 X-0.2019 Y0.5968 
G01 X-0.2101 Y0.6051 
G01 X-0.2101 Y0.6621 
G01 X-0.2019 Y0.6704 
G01 X-0.1902 Y0.6704 
G01 X-0.1820 Y0.6621 
G01 X-0.1820 Y0.6250 
G01 X-0.1761 Y0.6250 
G01 X-0.1761 Y0.6395 
G01 X-0.1679 Y0.6477 
G01 X-0.1562 Y0.6477 
G01 X-0.1479 Y0.6395 
G01 X-0.1479 Y0.6250 
G01 X-0.1222 Y0.6250 
G00 Z0.0200 
G00 X-0.1905 Y0.4955 
G01 Z-0.0100 F10.00 
G01 X-0.1789 Y0.4955 
G01 X-0.1706 Y0.4872 
G01 X-0.1706 Y0.4814 
G01 X-0.1648 Y0.4872 
G01 X-0.1565 Y0.4955 
G01 X-0.1488 Y0.4955 
G01 X-0.1534 Y0.5001 
G01 X-0.1534 Y0.5115 
G01 X-0.1534 Y0.5232 
G01 X-0.1452 Y0.5314 
G01 X-0.1338 Y0.5314 
G01 X-0.1222 Y0.5314 
G01 X-0.1139 Y0.5232 
G01 X-0.1139 Y0.5001 
G01 X-0.1222 Y0.4919 
G01 X-0.1299 Y0.4919 
G01 X-0.1222 Y0.4841 
G01 X-0.1139 Y0.4759 
G01 X-0.1139 Y0.4532 
G01 X-0.1139 Y0.4415 
G01 X-0.1335 Y0.4219 
G01 X-0.1452 Y0.4219 
G01 X-0.1534 Y0.4302 
G01 X-0.1534 Y0.4360 
G01 X-0.1562 Y0.4332 
G01 X-0.1675 Y0.4219 
G01 X-0.1792 Y0.4219 
G01 X-0.1905 Y0.4219 
G01 X-0.1988 Y0.4302 
G01 X-0.2101 Y0.4415 
G01 X-0.2101 Y0.4532 
G01 X-0.2101 Y0.4759 
G01 X-0.2019 Y0.4841 
G01 X-0.1905 Y0.4955 
G00 Z0.0200 
G00 X-0.6547 Y1.3002 
G01 Z-0.0100 F10.00 
G01 X-0.6661 Y1.2889 
G01 X-0.6777 Y1.2889 
G01 X-0.7004 Y1.2889 
G01 X-0.7087 Y1.2972 
G01 X-0.7200 Y1.3085 
G01 X-0.7200 Y1.3202 
G01 X-0.7200 Y1.3655 
G01 X-0.7118 Y1.3738 
G01 X-0.7004 Y1.3851 
G01 X-0.6888 Y1.3851 
G01 X-0.6661 Y1.3851 
G01 X-0.6578 Y1.3769 
G01 X-0.6501 Y1.3691 
G01 X-0.6501 Y1.3769 
G01 X-0.6418 Y1.3851 
G01 X-0.6301 Y1.3851 
G01 X-0.6250 Y1.3800 
G01 X-0.6219 Y1.3769 
G01 X-0.6219 Y1.3753 
G01 X-0.6047 Y1.3495 
G01 X-0.6047 Y1.3769 
G01 X-0.5964 Y1.3851 
G01 X-0.5848 Y1.3851 
G01 X-0.5783 Y1.3787 
G01 X-0.5718 Y1.3851 
G01 X-0.5261 Y1.3851 
G01 X-0.5179 Y1.3769 
G01 X-0.5065 Y1.3655 
G01 X-0.5065 Y1.3539 
G01 X-0.5065 Y1.3085 
G01 X-0.5148 Y1.3002 
G01 X-0.5261 Y1.2889 
G01 X-0.5378 Y1.2889 
G01 X-0.5718 Y1.2889 
G01 X-0.5783 Y1.2954 
G01 X-0.5848 Y1.2889 
G01 X-0.5964 Y1.2889 
G01 X-0.6015 Y1.2940 
G01 X-0.6015 Y1.2940 
G01 X-0.6047 Y1.2972 
G01 X-0.6047 Y1.2987 
G01 X-0.6219 Y1.3245 
G01 X-0.6219 Y1.2972 
G01 X-0.6301 Y1.2889 
G01 X-0.6418 Y1.2889 
G01 X-0.6501 Y1.2972 
G01 X-0.6501 Y1.3049 
G01 X-0.6547 Y1.3002 
G00 Z0.0200 
G00 X-2.0367 Y0.5722 
G01 Z-0.0100 F10.00 
G01 X-2.0367 Y0.6062 
G01 X-2.0367 Y0.6179 
G01 X-2.0367 Y0.6292 
G01 X-2.0140 Y0.6519 
G01 X-2.0057 Y0.6601 
G01 X-1.9940 Y0.6601 
G01 X-1.9714 Y0.6375 
G01 X-1.9649 Y0.6310 
G01 X-1.9584 Y0.6375 
G01 X-1.9468 Y0.6375 
G01 X-1.9385 Y0.6292 
G01 X-1.9385 Y0.5952 
G01 X-1.9354 Y0.5921 
G01 X-1.9213 Y0.5921 
G01 X-1.9213 Y0.6292 
G01 X-1.9131 Y0.6375 
G01 X-1.9014 Y0.6375 
G01 X-1.8931 Y0.6292 
G01 X-1.8931 Y0.6214 
G01 X-1.8854 Y0.6292 
G01 X-1.8771 Y0.6375 
G01 X-1.8513 Y0.6375 
G01 X-1.8513 Y0.6519 
G01 X-1.8431 Y0.6601 
G01 X-1.8314 Y0.6601 
G01 X-1.8232 Y0.6519 
G01 X-1.8232 Y0.6328 
G01 X-1.8185 Y0.6375 
G01 X-1.8126 Y0.6375 
G01 X-1.8154 Y0.6402 
G01 X-1.8154 Y0.6632 
G01 X-1.8071 Y0.6715 
G01 X-1.7955 Y0.6715 
G01 X-1.7872 Y0.6632 
G01 X-1.7872 Y0.6402 
G01 X-1.7927 Y0.6347 
G01 X-1.7872 Y0.6292 
G01 X-1.7872 Y0.5921 
G01 X-1.7841 Y0.5921 
G01 X-1.7801 Y0.5881 
G01 X-1.7801 Y0.5952 
G01 X-1.7801 Y0.6062 
G01 X-1.7801 Y0.6179 
G01 X-1.7605 Y0.6375 
G01 X-1.7488 Y0.6375 
G01 X-1.7261 Y0.6375 
G01 X-1.7179 Y0.6292 
G01 X-1.7065 Y0.6179 
G01 X-1.7065 Y0.6062 
G01 X-1.7065 Y0.5835 
G01 X-1.7148 Y0.5752 
G01 X-1.7261 Y0.5639 
G01 X-1.7378 Y0.5639 
G01 X-1.7605 Y0.5639 
G01 X-1.7687 Y0.5722 
G01 X-1.7687 Y0.5722 
G01 X-1.7759 Y0.5793 
G01 X-1.7759 Y0.5722 
G01 X-1.7841 Y0.5639 
G01 X-1.8185 Y0.5639 
G01 X-1.8249 Y0.5704 
G01 X-1.8314 Y0.5639 
G01 X-1.8654 Y0.5639 
G01 X-1.8771 Y0.5639 
G01 X-1.8885 Y0.5752 
G01 X-1.8931 Y0.5799 
G01 X-1.8931 Y0.5722 
G01 X-1.9014 Y0.5639 
G01 X-1.9131 Y0.5639 
G01 X-1.9471 Y0.5639 
G01 X-1.9553 Y0.5722 
G01 X-1.9631 Y0.5799 
G01 X-1.9631 Y0.5722 
G01 X-1.9714 Y0.5639 
G01 X-1.9830 Y0.5639 
G01 X-1.9913 Y0.5722 
G01 X-1.9913 Y0.5979 
G01 X-2.0085 Y0.5979 
G01 X-2.0085 Y0.5722 
G01 X-2.0167 Y0.5639 
G01 X-2.0284 Y0.5639 
G01 X-2.0367 Y0.5722 
G00 Z0.0200 
G00 X-2.7952 Y1.3649 
G01 Z-0.0100 F10.00 
G01 X-2.8034 Y1.3732 
G01 X-2.8034 Y1.3845 
G01 X-2.8034 Y1.3962 
G01 X-2.7952 Y1.4044 
G01 X-2.7838 Y1.4044 
G01 X-2.7722 Y1.4044 
G01 X-2.7639 Y1.3962 
G01 X-2.7639 Y1.3732 
G01 X-2.7722 Y1.3649 
G01 X-2.7838 Y1.3649 
G01 X-2.7952 Y1.3649 
G00 Z0.0200 
G00 X-2.7838 Y1.2872 
G01 Z-0.0100 F10.00 
G01 X-2.7722 Y1.2872 
G01 X-2.7639 Y1.2789 
G01 X-2.7639 Y1.2562 
G01 X-2.7639 Y1.2446 
G01 X-2.7752 Y1.2332 
G01 X-2.7799 Y1.2285 
G01 X-2.7722 Y1.2285 
G01 X-2.7639 Y1.2203 
G01 X-2.7639 Y1.2086 
G01 X-2.7866 Y1.1859 
G01 X-2.7866 Y1.1832 
G01 X-2.7722 Y1.1832 
G01 X-2.7639 Y1.1749 
G01 X-2.7639 Y1.1632 
G01 X-2.7722 Y1.1550 
G01 X-2.7948 Y1.1550 
G01 X-2.8065 Y1.1550 
G01 X-2.8402 Y1.1550 
G01 X-2.8519 Y1.1550 
G01 X-2.8601 Y1.1632 
G01 X-2.8601 Y1.1973 
G01 X-2.8601 Y1.2089 
G01 X-2.8488 Y1.2203 
G01 X-2.8405 Y1.2285 
G01 X-2.8214 Y1.2285 
G01 X-2.8292 Y1.2363 
G01 X-2.8375 Y1.2446 
G01 X-2.8375 Y1.2672 
G01 X-2.8375 Y1.2789 
G01 X-2.8261 Y1.2903 
G01 X-2.8214 Y1.2949 
G01 X-2.8292 Y1.2949 
G01 X-2.8375 Y1.3032 
G01 X-2.8375 Y1.3149 
G01 X-2.8317 Y1.3206 
G01 X-2.8095 Y1.3317 
G01 X-2.8317 Y1.3428 
G01 X-2.8375 Y1.3486 
G01 X-2.8375 Y1.3602 
G01 X-2.8292 Y1.3685 
G01 X-2.8200 Y1.3685 
G01 X-2.7747 Y1.3458 
G01 X-2.7722 Y1.3458 
G01 X-2.7697 Y1.3433 
G01 X-2.7696 Y1.3433 
G01 X-2.7639 Y1.3376 
G01 X-2.7639 Y1.3259 
G01 X-2.7722 Y1.3176 
G01 X-2.7747 Y1.3176 
G01 X-2.8129 Y1.2985 
G01 X-2.7948 Y1.2985 
G01 X-2.7866 Y1.2903 
G01 X-2.7866 Y1.2844 
G01 X-2.7838 Y1.2872 
G00 Z0.0200 
G00 X-2.8375 Y0.9647 
G01 Z-0.0100 F10.00 
G01 X-2.8375 Y0.9873 
G01 X-2.8375 Y0.9990 
G01 X-2.8261 Y1.0104 
G01 X-2.8214 Y1.0150 
G01 X-2.8292 Y1.0150 
G01 X-2.8375 Y1.0233 
G01 X-2.8375 Y1.0573 
G01 X-2.8375 Y1.0690 
G01 X-2.8261 Y1.0803 
G01 X-2.8179 Y1.0886 
G01 X-2.7952 Y1.0886 
G01 X-2.7835 Y1.0886 
G01 X-2.7722 Y1.0772 
G01 X-2.7639 Y1.0690 
G01 X-2.7639 Y1.0432 
G01 X-2.7495 Y1.0432 
G01 X-2.7412 Y1.0350 
G01 X-2.7412 Y1.0233 
G01 X-2.7495 Y1.0150 
G01 X-2.7686 Y1.0150 
G01 X-2.7639 Y1.0104 
G01 X-2.7639 Y0.9763 
G01 X-2.7639 Y0.9647 
G01 X-2.7752 Y0.9533 
G01 X-2.7835 Y0.9451 
G01 X-2.7952 Y0.9451 
G01 X-2.8065 Y0.9564 
G01 X-2.8120 Y0.9619 
G01 X-2.8175 Y0.9564 
G01 X-2.8292 Y0.9564 
G01 X-2.8375 Y0.9647 
G00 Z0.0200 
G00 X-2.8375 Y0.8950 
G01 Z-0.0100 F10.00 
G01 X-2.8375 Y0.9067 
G01 X-2.8320 Y0.9122 
G01 X-2.8375 Y0.9177 
G01 X-2.8375 Y0.9407 
G01 X-2.8292 Y0.9490 
G01 X-2.8175 Y0.9490 
G01 X-2.8093 Y0.9407 
G01 X-2.8093 Y0.9294 
G01 X-2.7948 Y0.9149 
G01 X-2.7722 Y0.9149 
G01 X-2.7639 Y0.9067 
G01 X-2.7639 Y0.8950 
G01 X-2.7722 Y0.8867 
G01 X-2.7948 Y0.8867 
G01 X-2.8065 Y0.8867 
G01 X-2.8292 Y0.8867 
G01 X-2.8375 Y0.8950 
G00 Z0.0200 
G00 X-2.7722 Y0.8676 
G01 Z-0.0100 F10.00 
G01 X-2.7639 Y0.8594 
G01 X-2.7639 Y0.8477 
G01 X-2.7722 Y0.8394 
G01 X-2.8320 Y0.8394 
G01 X-2.8320 Y0.8250 
G01 X-2.8402 Y0.8168 
G01 X-2.8519 Y0.8168 
G01 X-2.8601 Y0.8250 
G01 X-2.8601 Y0.8821 
G01 X-2.8519 Y0.8903 
G01 X-2.8402 Y0.8903 
G01 X-2.8320 Y0.8821 
G01 X-2.8320 Y0.8676 
G01 X-2.7722 Y0.8676 
G00 Z0.0200 
G00 X-0.7700 Y0.1722 
G01 Z-0.0100 F10.00 
G01 X-0.7700 Y0.2062 
G01 X-0.7700 Y0.2179 
G01 X-0.7700 Y0.2292 
G01 X-0.7473 Y0.2519 
G01 X-0.7473 Y0.2519 
G01 X-0.7391 Y0.2601 
G01 X-0.7274 Y0.2601 
G01 X-0.7047 Y0.2375 
G01 X-0.7047 Y0.2375 
G01 X-0.7001 Y0.2328 
G01 X-0.7001 Y0.2418 
G01 X-0.7001 Y0.2519 
G01 X-0.6918 Y0.2601 
G01 X-0.6801 Y0.2601 
G01 X-0.6750 Y0.2550 
G01 X-0.6750 Y0.2550 
G01 X-0.6719 Y0.2519 
G01 X-0.6719 Y0.2503 
G01 X-0.6547 Y0.2245 
G01 X-0.6547 Y0.2519 
G01 X-0.6464 Y0.2601 
G01 X-0.6348 Y0.2601 
G01 X-0.6283 Y0.2537 
G01 X-0.6218 Y0.2601 
G01 X-0.5648 Y0.2601 
G01 X-0.5565 Y0.2519 
G01 X-0.5565 Y0.2402 
G01 X-0.5648 Y0.2320 
G01 X-0.5792 Y0.2320 
G01 X-0.5792 Y0.1722 
G01 X-0.5813 Y0.1701 
G01 X-0.5451 Y0.1701 
G01 X-0.5451 Y0.9813 
G01 X-0.5451 Y1.0187 
G01 X-0.5451 Y1.0937 
G01 X-0.5187 Y1.1201 
G01 X-0.4813 Y1.1201 
G01 X-0.4549 Y1.0937 
G01 X-0.4549 Y1.0451 
G01 X-0.4451 Y1.0451 
G01 X-0.4451 Y1.4065 
G01 X-0.5312 Y1.4065 
G01 X-0.5375 Y1.4002 
G01 X-0.6625 Y1.4002 
G01 X-0.6926 Y1.4303 
G01 X-0.6926 Y1.4728 
G01 X-0.6625 Y1.5029 
G01 X-0.5375 Y1.5029 
G01 X-0.5312 Y1.4967 
G01 X-0.4451 Y1.4967 
G01 X-0.4451 Y1.8049 
G01 X-0.4959 Y1.8049 
G01 X-0.4929 Y1.8019 
G01 X-0.4815 Y1.7905 
G01 X-0.4815 Y1.7789 
G01 X-0.4898 Y1.7706 
G01 X-0.5015 Y1.7706 
G01 X-0.5128 Y1.7820 
G01 X-0.5238 Y1.7820 
G01 X-0.5269 Y1.7789 
G01 X-0.5269 Y1.7452 
G01 X-0.5238 Y1.7421 
G01 X-0.5128 Y1.7421 
G01 X-0.5015 Y1.7534 
G01 X-0.4898 Y1.7534 
G01 X-0.4815 Y1.7452 
G01 X-0.4815 Y1.7335 
G01 X-0.5011 Y1.7139 
G01 X-0.5128 Y1.7139 
G01 X-0.5355 Y1.7139 
G01 X-0.5437 Y1.7222 
G01 X-0.5533 Y1.7317 
G01 X-0.5598 Y1.7252 
G01 X-0.5598 Y1.7252 
G01 X-0.5711 Y1.7139 
G01 X-0.5828 Y1.7139 
G01 X-0.6051 Y1.7139 
G01 X-0.6168 Y1.7139 
G01 X-0.6251 Y1.7222 
G01 X-0.6251 Y1.7413 
G01 X-0.6297 Y1.7366 
G01 X-0.6524 Y1.7139 
G01 X-0.6641 Y1.7139 
G01 X-0.6724 Y1.7222 
G01 X-0.6915 Y1.7413 
G01 X-0.6915 Y1.7335 
G01 X-0.6997 Y1.7252 
G01 X-0.7111 Y1.7139 
G01 X-0.7227 Y1.7139 
G01 X-0.7454 Y1.7139 
G01 X-0.7537 Y1.7222 
G01 X-0.7650 Y1.7335 
G01 X-0.7650 Y1.7452 
G01 X-0.7650 Y1.7526 
G01 X-0.7697 Y1.7479 
G01 X-0.7841 Y1.7479 
G01 X-0.7841 Y1.7335 
G01 X-0.7924 Y1.7252 
G01 X-0.8040 Y1.7252 
G01 X-0.8123 Y1.7335 
G01 X-0.8123 Y1.7479 
G01 X-0.8267 Y1.7479 
G01 X-0.8350 Y1.7562 
G01 X-0.8350 Y1.7679 
G01 X-0.8267 Y1.7761 
G01 X-0.8123 Y1.7761 
G01 X-0.8123 Y1.7905 
G01 X-0.8040 Y1.7988 
G01 X-0.7924 Y1.7988 
G01 X-0.7841 Y1.7905 
G01 X-0.7841 Y1.7761 
G01 X-0.7697 Y1.7761 
G01 X-0.7632 Y1.7696 
G01 X-0.7568 Y1.7761 
G01 X-0.7387 Y1.7942 
G01 X-0.7366 Y1.7963 
G01 X-0.7341 Y1.7988 
G01 X-0.7316 Y1.7988 
G01 X-0.7193 Y1.8049 
G01 X-0.8549 Y1.8049 
G01 X-0.8549 Y1.4563 
G01 X-0.8813 Y1.4299 
G01 X-0.9187 Y1.4299 
G01 X-0.9451 Y1.4563 
G01 X-0.9451 Y1.8049 
G01 X-1.7549 Y1.8049 
G01 X-1.7549 Y1.7172 
G01 X-1.7502 Y1.7125 
G01 X-1.7502 Y1.5875 
G01 X-1.7803 Y1.5574 
G01 X-1.8228 Y1.5574 
G01 X-1.8529 Y1.5875 
G01 X-1.8529 Y1.7125 
G01 X-1.8451 Y1.7203 
G01 X-1.8451 Y1.8687 
G01 X-1.8187 Y1.8951 
G01 X-1.7813 Y1.8951 
G01 X-0.9187 Y1.8951 
G01 X-0.8813 Y1.8951 
G01 X-0.3813 Y1.8951 
G01 X-0.3549 Y1.8687 
G01 X-0.3549 Y1.8313 
G01 X-0.3549 Y1.4702 
G01 X-0.3549 Y0.9813 
G01 X-0.3813 Y0.9549 
G01 X-0.4187 Y0.9549 
G01 X-0.4549 Y0.9549 
G01 X-0.4549 Y0.1063 
G01 X-0.4813 Y0.0799 
G01 X-0.5187 Y0.0799 
G01 X-1.8813 Y0.0799 
G01 X-1.9187 Y0.0799 
G01 X-1.9451 Y0.1063 
G01 X-1.9451 Y0.3799 
G01 X-2.0687 Y0.3799 
G01 X-2.0951 Y0.4063 
G01 X-2.0951 Y0.4299 
G01 X-2.2187 Y0.4299 
G01 X-2.3049 Y0.4299 
G01 X-2.3049 Y0.1063 
G01 X-2.3313 Y0.0799 
G01 X-2.3687 Y0.0799 
G01 X-2.5687 Y0.0799 
G01 X-2.5951 Y0.1063 
G01 X-2.5951 Y0.1437 
G01 X-2.5687 Y0.1701 
G01 X-2.3951 Y0.1701 
G01 X-2.3951 Y0.4563 
G01 X-2.3951 Y0.4937 
G01 X-2.3687 Y0.5201 
G01 X-2.2187 Y0.5201 
G01 X-2.0687 Y0.5201 
G01 X-2.0313 Y0.5201 
G01 X-2.0049 Y0.4937 
G01 X-2.0049 Y0.4701 
G01 X-1.9187 Y0.4701 
G01 X-1.8813 Y0.4701 
G01 X-1.8563 Y0.4451 
G01 X-1.4437 Y0.4451 
G01 X-1.2937 Y0.5951 
G01 X-1.2563 Y0.5951 
G01 X-1.2451 Y0.5951 
G01 X-1.2451 Y0.7299 
G01 X-1.2681 Y0.7299 
G01 X-1.2850 Y0.7129 
G01 X-1.3149 Y0.7129 
G01 X-1.3319 Y0.7299 
G01 X-1.3680 Y0.7299 
G01 X-1.3850 Y0.7129 
G01 X-1.4149 Y0.7129 
G01 X-1.4361 Y0.7340 
G01 X-1.4361 Y0.7473 
G01 X-1.4437 Y0.7549 
G01 X-1.5313 Y0.7549 
G01 X-1.5687 Y0.7549 
G01 X-1.6687 Y0.7549 
G01 X-1.6951 Y0.7813 
G01 X-1.6951 Y0.8187 
G01 X-1.6687 Y0.8451 
G01 X-1.5951 Y0.8451 
G01 X-1.5951 Y1.2799 
G01 X-2.2049 Y1.2799 
G01 X-2.2049 Y1.2313 
G01 X-2.2139 Y1.2223 
G01 X-2.2139 Y1.2090 
G01 X-2.2350 Y1.1879 
G01 X-2.2649 Y1.1879 
G01 X-2.2861 Y1.2090 
G01 X-2.2861 Y1.2223 
G01 X-2.2951 Y1.2313 
G01 X-2.2951 Y1.3063 
G01 X-2.2951 Y1.4437 
G01 X-2.2687 Y1.4701 
G01 X-2.2313 Y1.4701 
G01 X-2.2049 Y1.4437 
G01 X-2.2049 Y1.3701 
G01 X-1.5937 Y1.3701 
G01 X-1.5563 Y1.3701 
G01 X-1.5049 Y1.3187 
G01 X-1.5049 Y1.2813 
G01 X-1.5049 Y0.8451 
G01 X-1.4063 Y0.8451 
G01 X-1.3983 Y0.8371 
G01 X-1.3850 Y0.8371 
G01 X-1.3680 Y0.8201 
G01 X-1.3319 Y0.8201 
G01 X-1.3149 Y0.8371 
G01 X-1.2850 Y0.8371 
G01 X-1.2681 Y0.8201 
G01 X-1.2319 Y0.8201 
G01 X-1.2149 Y0.8371 
G01 X-1.1850 Y0.8371 
G01 X-1.1639 Y0.8159 
G01 X-1.1639 Y0.8027 
G01 X-1.1549 Y0.7937 
G01 X-1.1549 Y0.5687 
G01 X-1.1549 Y0.5313 
G01 X-1.1813 Y0.5049 
G01 X-1.2563 Y0.5049 
G01 X-1.3799 Y0.3813 
G01 X-1.4063 Y0.3549 
G01 X-1.8549 Y0.3549 
G01 X-1.8549 Y0.1701 
G01 X-0.7680 Y0.1701 
G01 X-0.7700 Y0.1722 
G00 Z0.0200 
G00 X-2.7838 Y0.8090 
G01 Z-0.0100 F10.00 
G01 X-2.7722 Y0.8090 
G01 X-2.7639 Y0.8007 
G01 X-2.7639 Y0.7781 
G01 X-2.7639 Y0.7664 
G01 X-2.7752 Y0.7550 
G01 X-2.7817 Y0.7486 
G01 X-2.7752 Y0.7421 
G01 X-2.7639 Y0.7308 
G01 X-2.7639 Y0.7191 
G01 X-2.7639 Y0.6851 
G01 X-2.7704 Y0.6786 
G01 X-2.7639 Y0.6721 
G01 X-2.7639 Y0.6605 
G01 X-2.7639 Y0.6264 
G01 X-2.7722 Y0.6182 
G01 X-2.7817 Y0.6086 
G01 X-2.7752 Y0.6022 
G01 X-2.7639 Y0.5908 
G01 X-2.7639 Y0.5791 
G01 X-2.7639 Y0.5681 
G01 X-2.7639 Y0.5565 
G01 X-2.7799 Y0.5404 
G01 X-2.7722 Y0.5404 
G01 X-2.7639 Y0.5322 
G01 X-2.7639 Y0.5205 
G01 X-2.7722 Y0.5123 
G01 X-2.8120 Y0.5123 
G01 X-2.8093 Y0.5095 
G01 X-2.8093 Y0.4978 
G01 X-2.8120 Y0.4951 
G01 X-2.7722 Y0.4951 
G01 X-2.7639 Y0.4868 
G01 X-2.7639 Y0.4751 
G01 X-2.7722 Y0.4669 
G01 X-2.8402 Y0.4669 
G01 X-2.8519 Y0.4669 
G01 X-2.8601 Y0.4751 
G01 X-2.8601 Y0.4868 
G01 X-2.8433 Y0.5037 
G01 X-2.8519 Y0.5123 
G01 X-2.8601 Y0.5205 
G01 X-2.8601 Y0.5322 
G01 X-2.8519 Y0.5404 
G01 X-2.8214 Y0.5404 
G01 X-2.8261 Y0.5451 
G01 X-2.8375 Y0.5565 
G01 X-2.8375 Y0.5681 
G01 X-2.8375 Y0.5908 
G01 X-2.8292 Y0.5991 
G01 X-2.8214 Y0.6068 
G01 X-2.8292 Y0.6068 
G01 X-2.8375 Y0.6151 
G01 X-2.8375 Y0.6268 
G01 X-2.8292 Y0.6350 
G01 X-2.7952 Y0.6350 
G01 X-2.7921 Y0.6381 
G01 X-2.7921 Y0.6522 
G01 X-2.8292 Y0.6522 
G01 X-2.8375 Y0.6605 
G01 X-2.8375 Y0.6721 
G01 X-2.8292 Y0.6804 
G01 X-2.8214 Y0.6804 
G01 X-2.8292 Y0.6882 
G01 X-2.8375 Y0.6964 
G01 X-2.8375 Y0.7421 
G01 X-2.8292 Y0.7504 
G01 X-2.8214 Y0.7504 
G01 X-2.8375 Y0.7664 
G01 X-2.8375 Y0.7781 
G01 X-2.8375 Y0.7891 
G01 X-2.8375 Y0.8007 
G01 X-2.8261 Y0.8121 
G01 X-2.8261 Y0.8121 
G01 X-2.8179 Y0.8203 
G01 X-2.8065 Y0.8203 
G01 X-2.7948 Y0.8203 
G01 X-2.7866 Y0.8121 
G01 X-2.7866 Y0.8062 
G01 X-2.7838 Y0.8090 
G00 Z0.0200 
G00 X-2.7722 Y1.5321 
G01 Z-0.0100 F10.00 
G01 X-2.7639 Y1.5238 
G01 X-2.7639 Y1.5122 
G01 X-2.7722 Y1.5039 
G01 X-2.7979 Y1.5039 
G01 X-2.7979 Y1.4781 
G01 X-2.8062 Y1.4699 
G01 X-2.8179 Y1.4699 
G01 X-2.8261 Y1.4781 
G01 X-2.8601 Y1.5122 
G01 X-2.8601 Y1.5238 
G01 X-2.8519 Y1.5321 
G01 X-2.8402 Y1.5321 
G01 X-2.8261 Y1.5321 
G01 X-2.8261 Y1.5352 
G01 X-2.8179 Y1.5434 
G01 X-2.8062 Y1.5434 
G01 X-2.7979 Y1.5352 
G01 X-2.7979 Y1.5321 
G01 X-2.7722 Y1.5321 
G00 Z0.0200 
G00 X-1.7948 Y1.4512 
G01 Z-0.0100 F10.00 
G01 X-1.8061 Y1.4399 
G01 X-1.8178 Y1.4399 
G01 X-1.8405 Y1.4399 
G01 X-1.8487 Y1.4482 
G01 X-1.8601 Y1.4595 
G01 X-1.8601 Y1.4712 
G01 X-1.8601 Y1.5165 
G01 X-1.8518 Y1.5248 
G01 X-1.8405 Y1.5361 
G01 X-1.8288 Y1.5361 
G01 X-1.8061 Y1.5361 
G01 X-1.7979 Y1.5279 
G01 X-1.7901 Y1.5201 
G01 X-1.7901 Y1.5279 
G01 X-1.7819 Y1.5361 
G01 X-1.7702 Y1.5361 
G01 X-1.7651 Y1.5310 
G01 X-1.7619 Y1.5279 
G01 X-1.7619 Y1.5263 
G01 X-1.7447 Y1.5005 
G01 X-1.7447 Y1.5279 
G01 X-1.7365 Y1.5361 
G01 X-1.7248 Y1.5361 
G01 X-1.7184 Y1.5297 
G01 X-1.7119 Y1.5361 
G01 X-1.6662 Y1.5361 
G01 X-1.6579 Y1.5279 
G01 X-1.6466 Y1.5165 
G01 X-1.6466 Y1.5049 
G01 X-1.6466 Y1.4595 
G01 X-1.6548 Y1.4512 
G01 X-1.6662 Y1.4399 
G01 X-1.6779 Y1.4399 
G01 X-1.7119 Y1.4399 
G01 X-1.7184 Y1.4464 
G01 X-1.7248 Y1.4399 
G01 X-1.7365 Y1.4399 
G01 X-1.7396 Y1.4431 
G01 X-1.7416 Y1.4450 
G01 X-1.7447 Y1.4482 
G01 X-1.7447 Y1.4497 
G01 X-1.7619 Y1.4755 
G01 X-1.7619 Y1.4482 
G01 X-1.7702 Y1.4399 
G01 X-1.7819 Y1.4399 
G01 X-1.7901 Y1.4482 
G01 X-1.7901 Y1.4559 
G01 X-1.7948 Y1.4512 
G00 Z0.0200 
G00 X-2.1288 Y1.4482 
G01 Z-0.0100 F10.00 
G01 X-2.1288 Y1.4482 
G01 X-2.1401 Y1.4595 
G01 X-2.1401 Y1.4673 
G01 X-2.1448 Y1.4626 
G01 X-2.1675 Y1.4399 
G01 X-2.1791 Y1.4399 
G01 X-2.1874 Y1.4482 
G01 X-2.2101 Y1.4708 
G01 X-2.2101 Y1.4825 
G01 X-2.2101 Y1.5279 
G01 X-2.2018 Y1.5361 
G01 X-2.1902 Y1.5361 
G01 X-2.1819 Y1.5279 
G01 X-2.1819 Y1.4825 
G01 X-2.1733 Y1.4739 
G01 X-2.1647 Y1.4825 
G01 X-2.1647 Y1.5279 
G01 X-2.1565 Y1.5361 
G01 X-2.1448 Y1.5361 
G01 X-2.1365 Y1.5279 
G01 X-2.1365 Y1.4974 
G01 X-2.1319 Y1.5021 
G01 X-2.1319 Y1.5021 
G01 X-2.1205 Y1.5135 
G01 X-2.1088 Y1.5135 
G01 X-2.0978 Y1.5135 
G01 X-2.0862 Y1.5135 
G01 X-2.0701 Y1.4974 
G01 X-2.0701 Y1.5052 
G01 X-2.0619 Y1.5135 
G01 X-2.0502 Y1.5135 
G01 X-2.0420 Y1.5052 
G01 X-2.0420 Y1.4712 
G01 X-2.0389 Y1.4681 
G01 X-2.0248 Y1.4681 
G01 X-2.0248 Y1.5052 
G01 X-2.0165 Y1.5135 
G01 X-2.0048 Y1.5135 
G01 X-1.9984 Y1.5070 
G01 X-1.9919 Y1.5135 
G01 X-1.9888 Y1.5135 
G01 X-1.9888 Y1.5165 
G01 X-1.9806 Y1.5248 
G01 X-1.9689 Y1.5248 
G01 X-1.9606 Y1.5165 
G01 X-1.9606 Y1.5135 
G01 X-1.9575 Y1.5135 
G01 X-1.9493 Y1.5052 
G01 X-1.9493 Y1.4935 
G01 X-1.9575 Y1.4853 
G01 X-1.9606 Y1.4853 
G01 X-1.9606 Y1.4712 
G01 X-1.9493 Y1.4598 
G01 X-1.9493 Y1.4482 
G01 X-1.9575 Y1.4399 
G01 X-1.9692 Y1.4399 
G01 X-1.9888 Y1.4595 
G01 X-1.9888 Y1.4712 
G01 X-1.9888 Y1.4853 
G01 X-1.9919 Y1.4853 
G01 X-1.9966 Y1.4900 
G01 X-1.9966 Y1.4482 
G01 X-2.0048 Y1.4399 
G01 X-2.0165 Y1.4399 
G01 X-2.0505 Y1.4399 
G01 X-2.0588 Y1.4482 
G01 X-2.0683 Y1.4577 
G01 X-2.0748 Y1.4512 
G01 X-2.0862 Y1.4399 
G01 X-2.0978 Y1.4399 
G01 X-2.1205 Y1.4399 
G01 X-2.1288 Y1.4482 
G00 Z0.0200 
G00 X-0.1338 Y1.1139 
G01 Z-0.0100 F10.00 
G01 X-0.1222 Y1.1139 
G01 X-0.1139 Y1.1056 
G01 X-0.1139 Y1.0830 
G01 X-0.1139 Y1.0713 
G01 X-0.1252 Y1.0599 
G01 X-0.1317 Y1.0535 
G01 X-0.1252 Y1.0470 
G01 X-0.1139 Y1.0357 
G01 X-0.1139 Y1.0240 
G01 X-0.1139 Y0.9900 
G01 X-0.1222 Y0.9817 
G01 X-0.1299 Y0.9817 
G01 X-0.1252 Y0.9770 
G01 X-0.1139 Y0.9657 
G01 X-0.1139 Y0.9540 
G01 X-0.1139 Y0.9200 
G01 X-0.1204 Y0.9135 
G01 X-0.1139 Y0.9071 
G01 X-0.1139 Y0.8954 
G01 X-0.1139 Y0.8614 
G01 X-0.1222 Y0.8531 
G01 X-0.1299 Y0.8453 
G01 X-0.1222 Y0.8453 
G01 X-0.1139 Y0.8371 
G01 X-0.1139 Y0.8254 
G01 X-0.1366 Y0.8027 
G01 X-0.1366 Y0.8000 
G01 X-0.1222 Y0.8000 
G01 X-0.1139 Y0.7917 
G01 X-0.1139 Y0.7800 
G01 X-0.1222 Y0.7718 
G01 X-0.1902 Y0.7718 
G01 X-0.2019 Y0.7718 
G01 X-0.2101 Y0.7800 
G01 X-0.2101 Y0.8257 
G01 X-0.2019 Y0.8340 
G01 X-0.2019 Y0.8340 
G01 X-0.1988 Y0.8371 
G01 X-0.1988 Y0.8371 
G01 X-0.1905 Y0.8453 
G01 X-0.1828 Y0.8453 
G01 X-0.1875 Y0.8500 
G01 X-0.1875 Y0.8617 
G01 X-0.1792 Y0.8699 
G01 X-0.1452 Y0.8699 
G01 X-0.1421 Y0.8730 
G01 X-0.1421 Y0.8871 
G01 X-0.1792 Y0.8871 
G01 X-0.1875 Y0.8954 
G01 X-0.1875 Y0.9071 
G01 X-0.1792 Y0.9153 
G01 X-0.1714 Y0.9153 
G01 X-0.1792 Y0.9231 
G01 X-0.1875 Y0.9313 
G01 X-0.1875 Y0.9770 
G01 X-0.1792 Y0.9853 
G01 X-0.1714 Y0.9853 
G01 X-0.1792 Y0.9931 
G01 X-0.1875 Y1.0013 
G01 X-0.1875 Y1.0470 
G01 X-0.1792 Y1.0553 
G01 X-0.1714 Y1.0553 
G01 X-0.1792 Y1.0630 
G01 X-0.1875 Y1.0713 
G01 X-0.1875 Y1.0940 
G01 X-0.1875 Y1.1056 
G01 X-0.1761 Y1.1170 
G01 X-0.1679 Y1.1252 
G01 X-0.1565 Y1.1252 
G01 X-0.1448 Y1.1252 
G01 X-0.1366 Y1.1170 
G01 X-0.1366 Y1.1111 
G01 X-0.1338 Y1.1139 
G00 Z0.0200 
G00 X-1.1149 Y0.8371 
G01 Z-0.0100 F10.00 
G01 X-1.0850 Y0.8371 
G01 X-1.0639 Y0.8159 
G01 X-1.0639 Y0.7340 
G01 X-1.0850 Y0.7129 
G01 X-1.1149 Y0.7129 
G01 X-1.1361 Y0.7340 
G01 X-1.1361 Y0.8159 
G01 X-1.1149 Y0.8371 
G00 Z0.0200 
G00 X-1.1639 Y1.1159 
G01 Z-0.0100 F10.00 
G01 X-1.1639 Y1.0340 
G01 X-1.1850 Y1.0129 
G01 X-1.2149 Y1.0129 
G01 X-1.2361 Y1.0340 
G01 X-1.2361 Y1.1159 
G01 X-1.2221 Y1.1299 
G01 X-1.2221 Y1.1591 
G01 X-1.2091 Y1.1721 
G01 X-1.1471 Y1.2341 
G01 X-1.1341 Y1.2471 
G01 X-1.0846 Y1.2471 
G01 X-1.0666 Y1.2651 
G01 X-1.0334 Y1.2651 
G01 X-1.0099 Y1.2416 
G01 X-1.0099 Y1.2084 
G01 X-1.0334 Y1.1849 
G01 X-1.0666 Y1.1849 
G01 X-1.0846 Y1.2029 
G01 X-1.1158 Y1.2029 
G01 X-1.1779 Y1.1408 
G01 X-1.1779 Y1.1299 
G01 X-1.1639 Y1.1159 
G00 Z0.0200 
G00 X-2.2649 Y1.0121 
G01 Z-0.0100 F10.00 
G01 X-2.2350 Y1.0121 
G01 X-2.2139 Y0.9909 
G01 X-2.2139 Y0.9721 
G01 X-1.9791 Y0.9721 
G01 X-1.9721 Y0.9721 
G01 X-1.9721 Y1.0633 
G01 X-1.9916 Y1.0828 
G01 X-1.9916 Y1.1172 
G01 X-1.9672 Y1.1416 
G01 X-1.9328 Y1.1416 
G01 X-1.9084 Y1.1172 
G01 X-1.9084 Y1.0828 
G01 X-1.9279 Y1.0633 
G01 X-1.9279 Y0.9721 
G01 X-1.8908 Y0.9721 
G01 X-1.8779 Y0.9591 
G01 X-1.8779 Y0.9408 
G01 X-1.8779 Y0.7596 
G01 X-1.8654 Y0.7471 
G01 X-1.6841 Y0.7471 
G01 X-1.6658 Y0.7471 
G01 X-1.6158 Y0.6970 
G01 X-1.6152 Y0.6976 
G01 X-1.5729 Y0.7151 
G01 X-1.5271 Y0.7151 
G01 X-1.4848 Y0.6976 
G01 X-1.4524 Y0.6652 
G01 X-1.4349 Y0.6229 
G01 X-1.4349 Y0.5771 
G01 X-1.4524 Y0.5348 
G01 X-1.4848 Y0.5024 
G01 X-1.5271 Y0.4849 
G01 X-1.5729 Y0.4849 
G01 X-1.6152 Y0.5024 
G01 X-1.6476 Y0.5348 
G01 X-1.6651 Y0.5771 
G01 X-1.6651 Y0.6229 
G01 X-1.6476 Y0.6652 
G01 X-1.6470 Y0.6658 
G01 X-1.6841 Y0.7029 
G01 X-1.8654 Y0.7029 
G01 X-1.8834 Y0.6849 
G01 X-1.9166 Y0.6849 
G01 X-1.9401 Y0.7084 
G01 X-1.9401 Y0.7416 
G01 X-1.9221 Y0.7596 
G01 X-1.9221 Y0.9279 
G01 X-1.9408 Y0.9279 
G01 X-1.9591 Y0.9279 
G01 X-1.9791 Y0.9279 
G01 X-2.2139 Y0.9279 
G01 X-2.2139 Y0.9090 
G01 X-2.2350 Y0.8879 
G01 X-2.2649 Y0.8879 
G01 X-2.2861 Y0.9090 
G01 X-2.2861 Y0.9909 
G01 X-2.2649 Y1.0121 
G00 Z0.0200 
G00 X-2.3649 Y1.0121 
G01 Z-0.0100 F10.00 
G01 X-2.3350 Y1.0121 
G01 X-2.3139 Y0.9909 
G01 X-2.3139 Y0.9090 
G01 X-2.3279 Y0.8951 
G01 X-2.3279 Y0.8721 
G01 X-2.0591 Y0.8721 
G01 X-2.0408 Y0.8721 
G01 X-2.0279 Y0.8591 
G01 X-2.0279 Y0.7568 
G01 X-2.0119 Y0.7408 
G01 X-2.0119 Y0.7092 
G01 X-2.0342 Y0.6869 
G01 X-2.0658 Y0.6869 
G01 X-2.0881 Y0.7092 
G01 X-2.0881 Y0.7408 
G01 X-2.0721 Y0.7568 
G01 X-2.0721 Y0.8279 
G01 X-2.3591 Y0.8279 
G01 X-2.3721 Y0.8408 
G01 X-2.3721 Y0.8591 
G01 X-2.3721 Y0.8951 
G01 X-2.3861 Y0.9090 
G01 X-2.3861 Y0.9909 
G01 X-2.3649 Y1.0121 
G00 Z0.0200 
G00 X-2.3049 Y1.2187 
G01 Z-0.0100 F10.00 
G01 X-2.3049 Y1.1813 
G01 X-2.5049 Y0.9813 
G01 X-2.5049 Y0.9313 
G01 X-2.5049 Y0.7063 
G01 X-2.5313 Y0.6799 
G01 X-2.5687 Y0.6799 
G01 X-2.5951 Y0.7063 
G01 X-2.5951 Y0.9313 
G01 X-2.5951 Y1.0187 
G01 X-2.5687 Y1.0451 
G01 X-2.3951 Y1.2187 
G01 X-2.3951 Y1.2313 
G01 X-2.3951 Y1.4063 
G01 X-2.3951 Y1.6313 
G01 X-2.3951 Y1.6687 
G01 X-2.3687 Y1.6951 
G01 X-2.0498 Y1.6951 
G01 X-2.0498 Y1.7125 
G01 X-2.0197 Y1.7426 
G01 X-1.9772 Y1.7426 
G01 X-1.9471 Y1.7125 
G01 X-1.9471 Y1.5875 
G01 X-1.9772 Y1.5574 
G01 X-2.0197 Y1.5574 
G01 X-2.0498 Y1.5875 
G01 X-2.0498 Y1.6049 
G01 X-2.3049 Y1.6049 
G01 X-2.3049 Y1.4063 
G01 X-2.3049 Y1.2313 
G01 X-2.3049 Y1.2187 
G00 Z0.0200 
G00 X-1.0401 Y1.7084 
G01 Z-0.0100 F10.00 
G01 X-1.0401 Y1.7416 
G01 X-1.0166 Y1.7651 
G01 X-0.9834 Y1.7651 
G01 X-0.9599 Y1.7416 
G01 X-0.9599 Y1.7084 
G01 X-0.9779 Y1.6904 
G01 X-0.9779 Y1.5039 
G01 X-0.9639 Y1.4899 
G01 X-0.9639 Y1.4600 
G01 X-0.9779 Y1.4460 
G01 X-0.9779 Y1.3341 
G01 X-0.9279 Y1.2841 
G01 X-0.9279 Y1.2658 
G01 X-0.9279 Y1.1658 
G01 X-0.9408 Y1.1529 
G01 X-0.9709 Y1.1229 
G01 X-0.9639 Y1.1159 
G01 X-0.9639 Y1.0340 
G01 X-0.9850 Y1.0129 
G01 X-1.0149 Y1.0129 
G01 X-1.0361 Y1.0340 
G01 X-1.0361 Y1.1159 
G01 X-1.0221 Y1.1299 
G01 X-1.0221 Y1.1341 
G01 X-0.9721 Y1.1841 
G01 X-0.9721 Y1.2658 
G01 X-1.0091 Y1.3029 
G01 X-1.0221 Y1.3158 
G01 X-1.0221 Y1.4460 
G01 X-1.0361 Y1.4600 
G01 X-1.0361 Y1.4899 
G01 X-1.0221 Y1.5039 
G01 X-1.0221 Y1.6904 
G01 X-1.0401 Y1.7084 
G00 Z0.0200 
G00 X-1.6401 Y1.7084 
G01 Z-0.0100 F10.00 
G01 X-1.6401 Y1.7416 
G01 X-1.6166 Y1.7651 
G01 X-1.5834 Y1.7651 
G01 X-1.5599 Y1.7416 
G01 X-1.5599 Y1.7084 
G01 X-1.5779 Y1.6904 
G01 X-1.5779 Y1.5039 
G01 X-1.5639 Y1.4899 
G01 X-1.5639 Y1.4600 
G01 X-1.5850 Y1.4389 
G01 X-1.6149 Y1.4389 
G01 X-1.6361 Y1.4600 
G01 X-1.6361 Y1.4899 
G01 X-1.6221 Y1.5039 
G01 X-1.6221 Y1.6904 
G01 X-1.6401 Y1.7084 
G00 Z0.0200 
G00 X-1.2361 Y0.4350 
G01 Z-0.0100 F10.00 
G01 X-1.2361 Y0.4649 
G01 X-1.2149 Y0.4861 
G01 X-1.1850 Y0.4861 
G01 X-1.1639 Y0.4649 
G01 X-1.1639 Y0.4350 
G01 X-1.1779 Y0.4210 
G01 X-1.1779 Y0.2471 
G01 X-0.8591 Y0.2471 
G01 X-0.7576 Y0.3487 
G01 X-0.7418 Y0.3487 
G01 X-0.7125 Y0.3779 
G01 X-0.6721 Y0.3779 
G01 X-0.6721 Y0.4721 
G01 X-0.7125 Y0.4721 
G01 X-0.7426 Y0.5022 
G01 X-0.7426 Y0.5279 
G01 X-0.7591 Y0.5279 
G01 X-0.7721 Y0.5408 
G01 X-0.9221 Y0.6908 
G01 X-0.9221 Y0.7091 
G01 X-0.9221 Y0.7200 
G01 X-0.9361 Y0.7340 
G01 X-0.9361 Y0.8159 
G01 X-0.9149 Y0.8371 
G01 X-0.8850 Y0.8371 
G01 X-0.8639 Y0.8159 
G01 X-0.8639 Y0.7340 
G01 X-0.8779 Y0.7200 
G01 X-0.8779 Y0.7091 
G01 X-0.7408 Y0.5721 
G01 X-0.7152 Y0.5721 
G01 X-0.7125 Y0.5748 
G01 X-0.5875 Y0.5748 
G01 X-0.5574 Y0.5447 
G01 X-0.5574 Y0.5022 
G01 X-0.5875 Y0.4721 
G01 X-0.6279 Y0.4721 
G01 X-0.6279 Y0.3779 
G01 X-0.5875 Y0.3779 
G01 X-0.5574 Y0.3478 
G01 X-0.5574 Y0.3053 
G01 X-0.5875 Y0.2752 
G01 X-0.7125 Y0.2752 
G01 X-0.7405 Y0.3032 
G01 X-0.8279 Y0.2158 
G01 X-0.8408 Y0.2029 
G01 X-1.1908 Y0.2029 
G01 X-1.2091 Y0.2029 
G01 X-1.4158 Y0.2029 
G01 X-1.4341 Y0.2029 
G01 X-1.4911 Y0.2599 
G01 X-1.5166 Y0.2599 
G01 X-1.5401 Y0.2834 
G01 X-1.5401 Y0.3166 
G01 X-1.5166 Y0.3401 
G01 X-1.4834 Y0.3401 
G01 X-1.4599 Y0.3166 
G01 X-1.4599 Y0.2911 
G01 X-1.4158 Y0.2471 
G01 X-1.2221 Y0.2471 
G01 X-1.2221 Y0.4210 
G01 X-1.2361 Y0.4350 
G00 Z0.0200 
G00 X-1.4361 Y1.4600 
G01 Z-0.0100 F10.00 
G01 X-1.4361 Y1.4799 
G01 X-1.4951 Y1.5389 
G01 X-1.5149 Y1.5389 
G01 X-1.5361 Y1.5600 
G01 X-1.5361 Y1.5899 
G01 X-1.5149 Y1.6111 
G01 X-1.4850 Y1.6111 
G01 X-1.4639 Y1.5899 
G01 X-1.4639 Y1.5701 
G01 X-1.4049 Y1.5111 
G01 X-1.3850 Y1.5111 
G01 X-1.3639 Y1.4899 
G01 X-1.3639 Y1.4701 
G01 X-1.2908 Y1.3971 
G01 X-1.2779 Y1.3841 
G01 X-1.2779 Y1.1299 
G01 X-1.2639 Y1.1159 
G01 X-1.2639 Y1.0340 
G01 X-1.2779 Y1.0201 
G01 X-1.2779 Y0.9971 
G01 X-1.1221 Y0.9971 
G01 X-1.1221 Y1.0201 
G01 X-1.1361 Y1.0340 
G01 X-1.1361 Y1.1159 
G01 X-1.1149 Y1.1371 
G01 X-1.0850 Y1.1371 
G01 X-1.0639 Y1.1159 
G01 X-1.0639 Y1.0340 
G01 X-1.0779 Y1.0201 
G01 X-1.0779 Y0.9658 
G01 X-1.0908 Y0.9529 
G01 X-1.1091 Y0.9529 
G01 X-1.3091 Y0.9529 
G01 X-1.3221 Y0.9658 
G01 X-1.3221 Y0.9841 
G01 X-1.3221 Y1.0201 
G01 X-1.3319 Y1.0299 
G01 X-1.3319 Y0.9471 
G01 X-0.8451 Y0.9471 
G01 X-0.8451 Y1.0299 
G01 X-0.8681 Y1.0299 
G01 X-0.8850 Y1.0129 
G01 X-0.9149 Y1.0129 
G01 X-0.9361 Y1.0340 
G01 X-0.9361 Y1.0473 
G01 X-0.9451 Y1.0563 
G01 X-0.9451 Y1.0937 
G01 X-0.9361 Y1.1027 
G01 X-0.9361 Y1.1159 
G01 X-0.9149 Y1.1371 
G01 X-0.8850 Y1.1371 
G01 X-0.8681 Y1.1201 
G01 X-0.8451 Y1.1201 
G01 X-0.8451 Y1.1313 
G01 X-0.8451 Y1.1563 
G01 X-0.8451 Y1.5687 
G01 X-0.8187 Y1.5951 
G01 X-0.7187 Y1.6951 
G01 X-0.6813 Y1.6951 
G01 X-0.6672 Y1.6951 
G01 X-0.6625 Y1.6998 
G01 X-0.5375 Y1.6998 
G01 X-0.5074 Y1.6697 
G01 X-0.5074 Y1.6272 
G01 X-0.5375 Y1.5971 
G01 X-0.6625 Y1.5971 
G01 X-0.6703 Y1.6049 
G01 X-0.6813 Y1.6049 
G01 X-0.7549 Y1.5313 
G01 X-0.7549 Y1.2201 
G01 X-0.4813 Y1.2201 
G01 X-0.4549 Y1.1937 
G01 X-0.4549 Y1.1563 
G01 X-0.4813 Y1.1299 
G01 X-0.7549 Y1.1299 
G01 X-0.7549 Y1.0937 
G01 X-0.7549 Y1.0563 
G01 X-0.7549 Y0.9063 
G01 X-0.7549 Y0.7563 
G01 X-0.7639 Y0.7473 
G01 X-0.7639 Y0.7340 
G01 X-0.7850 Y0.7129 
G01 X-0.8149 Y0.7129 
G01 X-0.8361 Y0.7340 
G01 X-0.8361 Y0.7473 
G01 X-0.8451 Y0.7563 
G01 X-0.8451 Y0.9029 
G01 X-1.3591 Y0.9029 
G01 X-1.3721 Y0.9158 
G01 X-1.3721 Y0.9341 
G01 X-1.3681 Y0.9381 
G01 X-1.3681 Y1.0299 
G01 X-1.3779 Y1.0200 
G01 X-1.3779 Y0.8971 
G01 X-1.0091 Y0.8971 
G01 X-0.9908 Y0.8971 
G01 X-0.9779 Y0.8841 
G01 X-0.9779 Y0.8299 
G01 X-0.9639 Y0.8159 
G01 X-0.9639 Y0.7340 
G01 X-0.9779 Y0.7200 
G01 X-0.9779 Y0.4091 
G01 X-0.9089 Y0.3401 
G01 X-0.8834 Y0.3401 
G01 X-0.8599 Y0.3166 
G01 X-0.8599 Y0.2834 
G01 X-0.8834 Y0.2599 
G01 X-0.9166 Y0.2599 
G01 X-0.9401 Y0.2834 
G01 X-0.9401 Y0.3089 
G01 X-1.0091 Y0.3779 
G01 X-1.0221 Y0.3908 
G01 X-1.0221 Y0.7200 
G01 X-1.0361 Y0.7340 
G01 X-1.0361 Y0.8159 
G01 X-1.0221 Y0.8299 
G01 X-1.0221 Y0.8529 
G01 X-1.3908 Y0.8529 
G01 X-1.4091 Y0.8529 
G01 X-1.4221 Y0.8658 
G01 X-1.4221 Y1.0200 
G01 X-1.4361 Y1.0340 
G01 X-1.4361 Y1.1159 
G01 X-1.4149 Y1.1371 
G01 X-1.3850 Y1.1371 
G01 X-1.3681 Y1.1201 
G01 X-1.3681 Y1.2368 
G01 X-1.5091 Y1.3779 
G01 X-1.9091 Y1.3779 
G01 X-1.9221 Y1.3908 
G01 X-1.9221 Y1.4091 
G01 X-1.9221 Y1.8049 
G01 X-2.2813 Y1.8049 
G01 X-2.5049 Y1.5813 
G01 X-2.5049 Y1.2951 
G01 X-2.4819 Y1.2951 
G01 X-2.4649 Y1.3121 
G01 X-2.4350 Y1.3121 
G01 X-2.4139 Y1.2909 
G01 X-2.4139 Y1.2777 
G01 X-2.4049 Y1.2687 
G01 X-2.4049 Y1.2313 
G01 X-2.4139 Y1.2223 
G01 X-2.4139 Y1.2090 
G01 X-2.4350 Y1.1879 
G01 X-2.4649 Y1.1879 
G01 X-2.4819 Y1.2049 
G01 X-2.5180 Y1.2049 
G01 X-2.5350 Y1.1879 
G01 X-2.5649 Y1.1879 
G01 X-2.5861 Y1.2090 
G01 X-2.5861 Y1.2223 
G01 X-2.5951 Y1.2313 
G01 X-2.5951 Y1.6187 
G01 X-2.5687 Y1.6451 
G01 X-2.3187 Y1.8951 
G01 X-2.2813 Y1.8951 
G01 X-1.8813 Y1.8951 
G01 X-1.8549 Y1.8687 
G01 X-1.8549 Y1.8313 
G01 X-1.8779 Y1.8083 
G01 X-1.8779 Y1.4221 
G01 X-1.5091 Y1.4221 
G01 X-1.4908 Y1.4221 
G01 X-1.3279 Y1.2591 
G01 X-1.3279 Y1.2408 
G01 X-1.3319 Y1.2368 
G01 X-1.3319 Y1.1201 
G01 X-1.3221 Y1.1299 
G01 X-1.3221 Y1.3658 
G01 X-1.3951 Y1.4389 
G01 X-1.4149 Y1.4389 
G01 X-1.4361 Y1.4600 
G00 Z0.0200 
G00 X-1.6861 Y0.9850 
G01 Z-0.0100 F10.00 
G01 X-1.6861 Y1.0149 
G01 X-1.6721 Y1.0289 
G01 X-1.6721 Y1.1904 
G01 X-1.6846 Y1.2029 
G01 X-1.9084 Y1.2029 
G01 X-1.9084 Y1.1917 
G01 X-1.9147 Y1.1764 
G01 X-1.9264 Y1.1647 
G01 X-1.9417 Y1.1584 
G01 X-1.9583 Y1.1584 
G01 X-1.9736 Y1.1647 
G01 X-1.9853 Y1.1764 
G01 X-1.9916 Y1.1917 
G01 X-1.9916 Y1.2083 
G01 X-1.9853 Y1.2236 
G01 X-1.9736 Y1.2353 
G01 X-1.9692 Y1.2371 
G01 X-1.9591 Y1.2471 
G01 X-1.9408 Y1.2471 
G01 X-1.6846 Y1.2471 
G01 X-1.6666 Y1.2651 
G01 X-1.6334 Y1.2651 
G01 X-1.6099 Y1.2416 
G01 X-1.6099 Y1.2084 
G01 X-1.6279 Y1.1904 
G01 X-1.6279 Y1.0289 
G01 X-1.6139 Y1.0149 
G01 X-1.6139 Y0.9850 
G01 X-1.6350 Y0.9639 
G01 X-1.6649 Y0.9639 
G01 X-1.6861 Y0.9850 
G00 Z0.0200 
G00 X-2.2361 Y0.5600 
G01 Z-0.0100 F10.00 
G01 X-2.2361 Y0.5798 
G01 X-2.3411 Y0.6849 
G01 X-2.3666 Y0.6849 
G01 X-2.3901 Y0.7084 
G01 X-2.3901 Y0.7338 
G01 X-2.4721 Y0.8158 
G01 X-2.4721 Y0.8341 
G01 X-2.4721 Y0.8951 
G01 X-2.4861 Y0.9090 
G01 X-2.4861 Y0.9909 
G01 X-2.4649 Y1.0121 
G01 X-2.4350 Y1.0121 
G01 X-2.4139 Y0.9909 
G01 X-2.4139 Y0.9090 
G01 X-2.4279 Y0.8951 
G01 X-2.4279 Y0.8341 
G01 X-2.3588 Y0.7651 
G01 X-2.3334 Y0.7651 
G01 X-2.3099 Y0.7416 
G01 X-2.3099 Y0.7161 
G01 X-2.2048 Y0.6111 
G01 X-2.1850 Y0.6111 
G01 X-2.1639 Y0.5899 
G01 X-2.1639 Y0.5600 
G01 X-2.1850 Y0.5389 
G01 X-2.2149 Y0.5389 
G01 X-2.2361 Y0.5600 
G00 Z0.0200 
G00 X-1.6870 Y1.4731 
G01 Z-0.0100 F10.00 
G01 X-1.6799 Y1.4731 
G01 X-1.6798 Y1.4732 
G01 X-1.6798 Y1.5028 
G01 X-1.6799 Y1.5030 
G01 X-1.6870 Y1.5030 
G01 X-1.6870 Y1.4731 
G00 Z0.0200 
G00 X-1.4411 Y1.4580 
G01 Z-0.0100 F10.00 
G01 X-1.4411 Y1.4778 
G01 X-1.4972 Y1.5339 
G01 X-1.5170 Y1.5339 
G01 X-1.5411 Y1.5580 
G01 X-1.5411 Y1.5920 
G01 X-1.5170 Y1.6161 
G01 X-1.4830 Y1.6161 
G01 X-1.4589 Y1.5920 
G01 X-1.4589 Y1.5722 
G01 X-1.4028 Y1.5161 
G01 X-1.3830 Y1.5161 
G01 X-1.3589 Y1.4920 
G01 X-1.3589 Y1.4722 
G01 X-1.2888 Y1.4021 
G01 X-1.2729 Y1.3862 
G01 X-1.2729 Y1.1320 
G01 X-1.2589 Y1.1180 
G01 X-1.2589 Y1.0320 
G01 X-1.2729 Y1.0180 
G01 X-1.2729 Y1.0021 
G01 X-1.1271 Y1.0021 
G01 X-1.1271 Y1.0180 
G01 X-1.1411 Y1.0320 
G01 X-1.1411 Y1.1180 
G01 X-1.1170 Y1.1421 
G01 X-1.0830 Y1.1421 
G01 X-1.0589 Y1.1180 
G01 X-1.0589 Y1.0320 
G01 X-1.0729 Y1.0180 
G01 X-1.0729 Y0.9638 
G01 X-1.0846 Y0.9521 
G01 X-0.8501 Y0.9521 
G01 X-0.8501 Y1.0249 
G01 X-0.8660 Y1.0249 
G01 X-0.8830 Y1.0079 
G01 X-0.9170 Y1.0079 
G01 X-0.9411 Y1.0320 
G01 X-0.9411 Y1.0452 
G01 X-0.9501 Y1.0542 
G01 X-0.9501 Y1.0957 
G01 X-0.9411 Y1.1047 
G01 X-0.9411 Y1.1180 
G01 X-0.9170 Y1.1421 
G01 X-0.8830 Y1.1421 
G01 X-0.8660 Y1.1251 
G01 X-0.8501 Y1.1251 
G01 X-0.8501 Y1.1292 
G01 X-0.8501 Y1.1542 
G01 X-0.8501 Y1.4541 
G01 X-0.8792 Y1.4249 
G01 X-0.9207 Y1.4249 
G01 X-0.9501 Y1.4542 
G01 X-0.9501 Y1.7999 
G01 X-1.7499 Y1.7999 
G01 X-1.7499 Y1.7193 
G01 X-1.7452 Y1.7146 
G01 X-1.7452 Y1.5854 
G01 X-1.7782 Y1.5524 
G01 X-1.8249 Y1.5524 
G01 X-1.8579 Y1.5854 
G01 X-1.8579 Y1.7146 
G01 X-1.8501 Y1.7224 
G01 X-1.8501 Y1.8291 
G01 X-1.8729 Y1.8062 
G01 X-1.8729 Y1.4271 
G01 X-1.5112 Y1.4271 
G01 X-1.4888 Y1.4271 
G01 X-1.3271 Y1.2654 
G01 X-1.3271 Y1.3638 
G01 X-1.3972 Y1.4339 
G01 X-1.4170 Y1.4339 
G01 X-1.4411 Y1.4580 
G00 Z0.0200 
G00 X-1.8041 Y1.4349 
G01 Z-0.0100 F10.00 
G01 X-1.8199 Y1.4349 
G01 X-1.8426 Y1.4349 
G01 X-1.8537 Y1.4461 
G01 X-1.8651 Y1.4574 
G01 X-1.8651 Y1.4732 
G01 X-1.8651 Y1.5186 
G01 X-1.8539 Y1.5298 
G01 X-1.8426 Y1.5411 
G01 X-1.8267 Y1.5411 
G01 X-1.8041 Y1.5411 
G01 X-1.7940 Y1.5311 
G01 X-1.7839 Y1.5411 
G01 X-1.7681 Y1.5411 
G01 X-1.7612 Y1.5342 
G01 X-1.7569 Y1.5300 
G01 X-1.7569 Y1.5278 
G01 X-1.7497 Y1.5171 
G01 X-1.7497 Y1.5300 
G01 X-1.7386 Y1.5411 
G01 X-1.7227 Y1.5411 
G01 X-1.7184 Y1.5367 
G01 X-1.7140 Y1.5411 
G01 X-1.6641 Y1.5411 
G01 X-1.6529 Y1.5300 
G01 X-1.6416 Y1.5186 
G01 X-1.6416 Y1.5028 
G01 X-1.6416 Y1.4574 
G01 X-1.6528 Y1.4462 
G01 X-1.6641 Y1.4349 
G01 X-1.6799 Y1.4349 
G01 X-1.7140 Y1.4349 
G01 X-1.7184 Y1.4393 
G01 X-1.7227 Y1.4349 
G01 X-1.7386 Y1.4349 
G01 X-1.7428 Y1.4392 
G01 X-1.7455 Y1.4418 
G01 X-1.7497 Y1.4461 
G01 X-1.7497 Y1.4482 
G01 X-1.7569 Y1.4590 
G01 X-1.7569 Y1.4461 
G01 X-1.7681 Y1.4349 
G01 X-1.7839 Y1.4349 
G01 X-1.7940 Y1.4450 
G01 X-1.8041 Y1.4349 
G00 Z0.0200 
G00 X-1.1589 Y1.1180 
G01 Z-0.0100 F10.00 
G01 X-1.1589 Y1.0320 
G01 X-1.1830 Y1.0079 
G01 X-1.2170 Y1.0079 
G01 X-1.2411 Y1.0320 
G01 X-1.2411 Y1.1180 
G01 X-1.2271 Y1.1320 
G01 X-1.2271 Y1.1612 
G01 X-1.2112 Y1.1771 
G01 X-1.1521 Y1.2362 
G01 X-1.1362 Y1.2521 
G01 X-1.0867 Y1.2521 
G01 X-1.0687 Y1.2701 
G01 X-1.0313 Y1.2701 
G01 X-1.0049 Y1.2437 
G01 X-1.0049 Y1.2063 
G01 X-1.0313 Y1.1799 
G01 X-1.0687 Y1.1799 
G01 X-1.0867 Y1.1979 
G01 X-1.1138 Y1.1979 
G01 X-1.1729 Y1.1388 
G01 X-1.1729 Y1.1320 
G01 X-1.1589 Y1.1180 
G00 Z0.0200 
G00 X-1.0451 Y1.7063 
G01 Z-0.0100 F10.00 
G01 X-1.0451 Y1.7437 
G01 X-1.0187 Y1.7701 
G01 X-0.9813 Y1.7701 
G01 X-0.9549 Y1.7437 
G01 X-0.9549 Y1.7063 
G01 X-0.9729 Y1.6883 
G01 X-0.9729 Y1.5060 
G01 X-0.9589 Y1.4920 
G01 X-0.9589 Y1.4580 
G01 X-0.9729 Y1.4440 
G01 X-0.9729 Y1.3362 
G01 X-0.9229 Y1.2862 
G01 X-0.9229 Y1.2638 
G01 X-0.9229 Y1.1638 
G01 X-0.9388 Y1.1479 
G01 X-0.9638 Y1.1229 
G01 X-0.9589 Y1.1180 
G01 X-0.9589 Y1.0320 
G01 X-0.9830 Y1.0079 
G01 X-1.0170 Y1.0079 
G01 X-1.0411 Y1.0320 
G01 X-1.0411 Y1.1180 
G01 X-1.0271 Y1.1320 
G01 X-1.0271 Y1.1362 
G01 X-0.9771 Y1.1862 
G01 X-0.9771 Y1.2638 
G01 X-1.0112 Y1.2979 
G01 X-1.0271 Y1.3138 
G01 X-1.0271 Y1.4440 
G01 X-1.0411 Y1.4580 
G01 X-1.0411 Y1.4920 
G01 X-1.0271 Y1.5060 
G01 X-1.0271 Y1.6883 
G01 X-1.0451 Y1.7063 
G00 Z0.0200 
G00 X-1.6451 Y1.7063 
G01 Z-0.0100 F10.00 
G01 X-1.6451 Y1.7437 
G01 X-1.6187 Y1.7701 
G01 X-1.5813 Y1.7701 
G01 X-1.5549 Y1.7437 
G01 X-1.5549 Y1.7063 
G01 X-1.5729 Y1.6883 
G01 X-1.5729 Y1.5060 
G01 X-1.5589 Y1.4920 
G01 X-1.5589 Y1.4580 
G01 X-1.5830 Y1.4339 
G01 X-1.6170 Y1.4339 
G01 X-1.6411 Y1.4580 
G01 X-1.6411 Y1.4920 
G01 X-1.6271 Y1.5060 
G01 X-1.6271 Y1.6883 
G01 X-1.6451 Y1.7063 
G00 Z0.0200 
G00 X-0.9451 Y0.2813 
G01 Z-0.0100 F10.00 
G01 X-0.9451 Y0.3068 
G01 X-1.0112 Y0.3729 
G01 X-1.0271 Y0.3888 
G01 X-1.0271 Y0.7180 
G01 X-1.0411 Y0.7320 
G01 X-1.0411 Y0.8180 
G01 X-1.0271 Y0.8320 
G01 X-1.0271 Y0.8479 
G01 X-1.3888 Y0.8479 
G01 X-1.4021 Y0.8479 
G01 X-1.3963 Y0.8421 
G01 X-1.3830 Y0.8421 
G01 X-1.3660 Y0.8251 
G01 X-1.3340 Y0.8251 
G01 X-1.3170 Y0.8421 
G01 X-1.2830 Y0.8421 
G01 X-1.2660 Y0.8251 
G01 X-1.2340 Y0.8251 
G01 X-1.2170 Y0.8421 
G01 X-1.1830 Y0.8421 
G01 X-1.1589 Y0.8180 
G01 X-1.1589 Y0.8047 
G01 X-1.1499 Y0.7957 
G01 X-1.1499 Y0.5707 
G01 X-1.1499 Y0.5292 
G01 X-1.1792 Y0.4999 
G01 X-1.2542 Y0.4999 
G01 X-1.3749 Y0.3792 
G01 X-1.4042 Y0.3499 
G01 X-1.8499 Y0.3499 
G01 X-1.8499 Y0.1751 
G01 X-0.7750 Y0.1751 
G01 X-0.7750 Y0.2041 
G01 X-0.7750 Y0.2199 
G01 X-0.7750 Y0.2313 
G01 X-0.7523 Y0.2540 
G01 X-0.7523 Y0.2540 
G01 X-0.7412 Y0.2651 
G01 X-0.7253 Y0.2651 
G01 X-0.7051 Y0.2449 
G01 X-0.7051 Y0.2540 
G01 X-0.6939 Y0.2651 
G01 X-0.6781 Y0.2651 
G01 X-0.6711 Y0.2582 
G01 X-0.6711 Y0.2582 
G01 X-0.6669 Y0.2540 
G01 X-0.6669 Y0.2518 
G01 X-0.6597 Y0.2410 
G01 X-0.6597 Y0.2540 
G01 X-0.6485 Y0.2651 
G01 X-0.6327 Y0.2651 
G01 X-0.6283 Y0.2607 
G01 X-0.6239 Y0.2651 
G01 X-0.5627 Y0.2651 
G01 X-0.5515 Y0.2540 
G01 X-0.5515 Y0.2381 
G01 X-0.5627 Y0.2270 
G01 X-0.5742 Y0.2270 
G01 X-0.5742 Y0.1751 
G01 X-0.5501 Y0.1751 
G01 X-0.5501 Y0.9792 
G01 X-0.5501 Y1.0207 
G01 X-0.5501 Y1.0957 
G01 X-0.5209 Y1.1249 
G01 X-0.7499 Y1.1249 
G01 X-0.7499 Y1.0957 
G01 X-0.7499 Y1.0542 
G01 X-0.7499 Y0.9042 
G01 X-0.7499 Y0.7542 
G01 X-0.7589 Y0.7453 
G01 X-0.7589 Y0.7320 
G01 X-0.7830 Y0.7079 
G01 X-0.8170 Y0.7079 
G01 X-0.8411 Y0.7320 
G01 X-0.8411 Y0.7453 
G01 X-0.8501 Y0.7542 
G01 X-0.8501 Y0.8979 
G01 X-0.9846 Y0.8979 
G01 X-0.9729 Y0.8862 
G01 X-0.9729 Y0.8320 
G01 X-0.9589 Y0.8180 
G01 X-0.9589 Y0.7320 
G01 X-0.9729 Y0.7180 
G01 X-0.9729 Y0.4112 
G01 X-0.9068 Y0.3451 
G01 X-0.8813 Y0.3451 
G01 X-0.8549 Y0.3187 
G01 X-0.8549 Y0.2813 
G01 X-0.8813 Y0.2549 
G01 X-0.9187 Y0.2549 
G01 X-0.9451 Y0.2813 
G00 Z0.0200 
G00 X-1.1170 Y0.8421 
G01 Z-0.0100 F10.00 
G01 X-1.0830 Y0.8421 
G01 X-1.0589 Y0.8180 
G01 X-1.0589 Y0.7320 
G01 X-1.0830 Y0.7079 
G01 X-1.1170 Y0.7079 
G01 X-1.1411 Y0.7320 
G01 X-1.1411 Y0.8180 
G01 X-1.1170 Y0.8421 
G00 Z0.0200 
G00 X-1.2411 Y0.4330 
G01 Z-0.0100 F10.00 
G01 X-1.2411 Y0.4670 
G01 X-1.2170 Y0.4911 
G01 X-1.1830 Y0.4911 
G01 X-1.1589 Y0.4670 
G01 X-1.1589 Y0.4330 
G01 X-1.1729 Y0.4190 
G01 X-1.1729 Y0.2521 
G01 X-0.8612 Y0.2521 
G01 X-0.7596 Y0.3537 
G01 X-0.7438 Y0.3537 
G01 X-0.7146 Y0.3829 
G01 X-0.6771 Y0.3829 
G01 X-0.6771 Y0.4671 
G01 X-0.7146 Y0.4671 
G01 X-0.7476 Y0.5001 
G01 X-0.7476 Y0.5229 
G01 X-0.7612 Y0.5229 
G01 X-0.7771 Y0.5388 
G01 X-0.9271 Y0.6888 
G01 X-0.9271 Y0.7112 
G01 X-0.9271 Y0.7180 
G01 X-0.9411 Y0.7320 
G01 X-0.9411 Y0.8180 
G01 X-0.9170 Y0.8421 
G01 X-0.8830 Y0.8421 
G01 X-0.8589 Y0.8180 
G01 X-0.8589 Y0.7320 
G01 X-0.8729 Y0.7180 
G01 X-0.8729 Y0.7112 
G01 X-0.7388 Y0.5771 
G01 X-0.7173 Y0.5771 
G01 X-0.7146 Y0.5798 
G01 X-0.5854 Y0.5798 
G01 X-0.5524 Y0.5468 
G01 X-0.5524 Y0.5001 
G01 X-0.5854 Y0.4671 
G01 X-0.6229 Y0.4671 
G01 X-0.6229 Y0.3829 
G01 X-0.5854 Y0.3829 
G01 X-0.5524 Y0.3499 
G01 X-0.5524 Y0.3032 
G01 X-0.5854 Y0.2702 
G01 X-0.7146 Y0.2702 
G01 X-0.7405 Y0.2962 
G01 X-0.8229 Y0.2138 
G01 X-0.8388 Y0.1979 
G01 X-1.1888 Y0.1979 
G01 X-1.2112 Y0.1979 
G01 X-1.4138 Y0.1979 
G01 X-1.4362 Y0.1979 
G01 X-1.4932 Y0.2549 
G01 X-1.5187 Y0.2549 
G01 X-1.5451 Y0.2813 
G01 X-1.5451 Y0.3187 
G01 X-1.5187 Y0.3451 
G01 X-1.4813 Y0.3451 
G01 X-1.4549 Y0.3187 
G01 X-1.4549 Y0.2932 
G01 X-1.4138 Y0.2521 
G01 X-1.2271 Y0.2521 
G01 X-1.2271 Y0.4190 
G01 X-1.2411 Y0.4330 
G00 Z0.0200 
G00 X-2.0999 Y1.4731 
G01 Z-0.0100 F10.00 
G01 X-2.0997 Y1.4732 
G01 X-2.0997 Y1.4801 
G01 X-2.0999 Y1.4803 
G01 X-2.1068 Y1.4803 
G01 X-2.1069 Y1.4801 
G01 X-2.1069 Y1.4732 
G01 X-2.1068 Y1.4731 
G01 X-2.0999 Y1.4731 
G00 Z0.0200 
G00 X-2.2707 Y1.4751 
G01 Z-0.0100 F10.00 
G01 X-2.2292 Y1.4751 
G01 X-2.1999 Y1.4457 
G01 X-2.1999 Y1.3751 
G01 X-1.9134 Y1.3751 
G01 X-1.9271 Y1.3888 
G01 X-1.9271 Y1.4112 
G01 X-1.9271 Y1.7999 
G01 X-2.2792 Y1.7999 
G01 X-2.4999 Y1.5792 
G01 X-2.4999 Y1.3001 
G01 X-2.4840 Y1.3001 
G01 X-2.4670 Y1.3171 
G01 X-2.4330 Y1.3171 
G01 X-2.4089 Y1.2930 
G01 X-2.4089 Y1.2797 
G01 X-2.4001 Y1.2709 
G01 X-2.4001 Y1.4042 
G01 X-2.4001 Y1.6292 
G01 X-2.4001 Y1.6707 
G01 X-2.3707 Y1.7001 
G01 X-2.0548 Y1.7001 
G01 X-2.0548 Y1.7146 
G01 X-2.0218 Y1.7476 
G01 X-1.9751 Y1.7476 
G01 X-1.9421 Y1.7146 
G01 X-1.9421 Y1.5854 
G01 X-1.9751 Y1.5524 
G01 X-2.0218 Y1.5524 
G01 X-2.0548 Y1.5854 
G01 X-2.0548 Y1.5999 
G01 X-2.2999 Y1.5999 
G01 X-2.2999 Y1.4459 
G01 X-2.2707 Y1.4751 
G00 Z0.0200 
G00 X-2.2151 Y1.5300 
G01 Z-0.0100 F10.00 
G01 X-2.2039 Y1.5411 
G01 X-2.1881 Y1.5411 
G01 X-2.1769 Y1.5300 
G01 X-2.1769 Y1.4846 
G01 X-2.1733 Y1.4810 
G01 X-2.1697 Y1.4846 
G01 X-2.1697 Y1.5300 
G01 X-2.1585 Y1.5411 
G01 X-2.1427 Y1.5411 
G01 X-2.1315 Y1.5300 
G01 X-2.1315 Y1.5095 
G01 X-2.1226 Y1.5185 
G01 X-2.1068 Y1.5185 
G01 X-2.0999 Y1.5185 
G01 X-2.0841 Y1.5185 
G01 X-2.0740 Y1.5084 
G01 X-2.0640 Y1.5185 
G01 X-2.0481 Y1.5185 
G01 X-2.0370 Y1.5073 
G01 X-2.0370 Y1.4732 
G01 X-2.0368 Y1.4731 
G01 X-2.0298 Y1.4731 
G01 X-2.0298 Y1.5073 
G01 X-2.0186 Y1.5185 
G01 X-2.0028 Y1.5185 
G01 X-1.9984 Y1.5141 
G01 X-1.9940 Y1.5185 
G01 X-1.9938 Y1.5185 
G01 X-1.9938 Y1.5186 
G01 X-1.9826 Y1.5298 
G01 X-1.9668 Y1.5298 
G01 X-1.9556 Y1.5186 
G01 X-1.9556 Y1.5185 
G01 X-1.9555 Y1.5185 
G01 X-1.9443 Y1.5073 
G01 X-1.9443 Y1.4915 
G01 X-1.9555 Y1.4803 
G01 X-1.9556 Y1.4803 
G01 X-1.9556 Y1.4732 
G01 X-1.9443 Y1.4619 
G01 X-1.9443 Y1.4461 
G01 X-1.9555 Y1.4349 
G01 X-1.9713 Y1.4349 
G01 X-1.9916 Y1.4552 
G01 X-1.9916 Y1.4461 
G01 X-2.0028 Y1.4349 
G01 X-2.0186 Y1.4349 
G01 X-2.0526 Y1.4349 
G01 X-2.0638 Y1.4461 
G01 X-2.0683 Y1.4506 
G01 X-2.0727 Y1.4462 
G01 X-2.0841 Y1.4349 
G01 X-2.0999 Y1.4349 
G01 X-2.1226 Y1.4349 
G01 X-2.1338 Y1.4461 
G01 X-2.1338 Y1.4461 
G01 X-2.1440 Y1.4563 
G01 X-2.1654 Y1.4349 
G01 X-2.1812 Y1.4349 
G01 X-2.1924 Y1.4461 
G01 X-2.2151 Y1.4688 
G01 X-2.2151 Y1.4846 
G01 X-2.2151 Y1.5300 
G00 Z0.0200 
G00 X-2.4089 Y1.2202 
G01 Z-0.0100 F10.00 
G01 X-2.4089 Y1.2119 
G01 X-2.4001 Y1.2207 
G01 X-2.4001 Y1.2291 
G01 X-2.4089 Y1.2202 
G00 Z0.0200 
G00 X-0.5469 Y1.3221 
G01 Z-0.0100 F10.00 
G01 X-0.5399 Y1.3221 
G01 X-0.5397 Y1.3222 
G01 X-0.5397 Y1.3518 
G01 X-0.5399 Y1.3520 
G01 X-0.5469 Y1.3520 
G01 X-0.5469 Y1.3221 
G00 Z0.0200 
G00 X-0.8207 Y1.6001 
G01 Z-0.0100 F10.00 
G01 X-0.7207 Y1.7001 
G01 X-0.6792 Y1.7001 
G01 X-0.6693 Y1.7001 
G01 X-0.6646 Y1.7048 
G01 X-0.5354 Y1.7048 
G01 X-0.5024 Y1.6718 
G01 X-0.5024 Y1.6251 
G01 X-0.5354 Y1.5921 
G01 X-0.6646 Y1.5921 
G01 X-0.6724 Y1.5999 
G01 X-0.6792 Y1.5999 
G01 X-0.7499 Y1.5292 
G01 X-0.7499 Y1.2251 
G01 X-0.4792 Y1.2251 
G01 X-0.4501 Y1.1959 
G01 X-0.4501 Y1.4015 
G01 X-0.5292 Y1.4015 
G01 X-0.5354 Y1.3952 
G01 X-0.6646 Y1.3952 
G01 X-0.6976 Y1.4282 
G01 X-0.6976 Y1.4749 
G01 X-0.6646 Y1.5079 
G01 X-0.5354 Y1.5079 
G01 X-0.5292 Y1.5017 
G01 X-0.4501 Y1.5017 
G01 X-0.4501 Y1.7999 
G01 X-0.4838 Y1.7999 
G01 X-0.4765 Y1.7926 
G01 X-0.4765 Y1.7768 
G01 X-0.4877 Y1.7656 
G01 X-0.5035 Y1.7656 
G01 X-0.5149 Y1.7770 
G01 X-0.5217 Y1.7770 
G01 X-0.5219 Y1.7768 
G01 X-0.5219 Y1.7472 
G01 X-0.5217 Y1.7471 
G01 X-0.5149 Y1.7471 
G01 X-0.5035 Y1.7584 
G01 X-0.4877 Y1.7584 
G01 X-0.4765 Y1.7472 
G01 X-0.4765 Y1.7314 
G01 X-0.4991 Y1.7089 
G01 X-0.5149 Y1.7089 
G01 X-0.5376 Y1.7089 
G01 X-0.5487 Y1.7201 
G01 X-0.5533 Y1.7246 
G01 X-0.5577 Y1.7202 
G01 X-0.5577 Y1.7202 
G01 X-0.5690 Y1.7089 
G01 X-0.5848 Y1.7089 
G01 X-0.6031 Y1.7089 
G01 X-0.6189 Y1.7089 
G01 X-0.6301 Y1.7201 
G01 X-0.6301 Y1.7292 
G01 X-0.6504 Y1.7089 
G01 X-0.6662 Y1.7089 
G01 X-0.6774 Y1.7201 
G01 X-0.6876 Y1.7303 
G01 X-0.6976 Y1.7202 
G01 X-0.7090 Y1.7089 
G01 X-0.7248 Y1.7089 
G01 X-0.7475 Y1.7089 
G01 X-0.7587 Y1.7201 
G01 X-0.7700 Y1.7314 
G01 X-0.7700 Y1.7429 
G01 X-0.7791 Y1.7429 
G01 X-0.7791 Y1.7314 
G01 X-0.7903 Y1.7202 
G01 X-0.8061 Y1.7202 
G01 X-0.8173 Y1.7314 
G01 X-0.8173 Y1.7429 
G01 X-0.8288 Y1.7429 
G01 X-0.8400 Y1.7541 
G01 X-0.8400 Y1.7699 
G01 X-0.8288 Y1.7811 
G01 X-0.8173 Y1.7811 
G01 X-0.8173 Y1.7926 
G01 X-0.8100 Y1.7999 
G01 X-0.8499 Y1.7999 
G01 X-0.8499 Y1.5709 
G01 X-0.8207 Y1.6001 
G00 Z0.0200 
G00 X-0.6640 Y1.2839 
G01 Z-0.0100 F10.00 
G01 X-0.6798 Y1.2839 
G01 X-0.7025 Y1.2839 
G01 X-0.7137 Y1.2951 
G01 X-0.7250 Y1.3064 
G01 X-0.7250 Y1.3222 
G01 X-0.7250 Y1.3676 
G01 X-0.7138 Y1.3788 
G01 X-0.7025 Y1.3901 
G01 X-0.6867 Y1.3901 
G01 X-0.6640 Y1.3901 
G01 X-0.6539 Y1.3801 
G01 X-0.6439 Y1.3901 
G01 X-0.6281 Y1.3901 
G01 X-0.6211 Y1.3832 
G01 X-0.6169 Y1.3790 
