( This gcode generated by /opt/eagle/ulp/pcb-gcode.ulp )
( Copyright 2005 by John Johnson. See readme.txt for licensing terms. )

( This file generated from the board /home/srussell/Electronics Projects/CapSense/Rev4.brd )
( This file generated  7/11/2007 16:27:07  )

( T01 0.032000 )
( T02 0.036000 )
( T03 0.040000 )
( T04 0.055000 )
( T05 0.110236 )
( T06 0.125984 )
G20

G90
M05
G00 X0.0000 Y0.0000 Z1.0000 
M06 T01  ; 0.0320 
G00 Z0.0200 
M03
G04 P3.000000
G82 X-0.5000 Y1.0750 Z-0.1200 F5.00  R0.0200 P0.500000
G82 X-0.5000 Y1.1750 
G82 X-0.8000 Y0.7750 
G82 X-0.8000 Y1.0750 
G82 X-0.9000 Y0.7750 
G82 X-0.9000 Y1.0750 
G82 X-0.9000 Y1.4750 
G82 X-1.0000 Y0.7750 
G82 X-1.0000 Y1.0750 
G82 X-1.0000 Y1.4750 
G82 X-1.1000 Y0.7750 
G82 X-1.1000 Y1.0750 
G82 X-1.2000 Y0.4500 
G82 X-1.2000 Y0.5500 
G82 X-1.2000 Y0.7750 
G82 X-1.2000 Y1.0750 
G82 X-1.3000 Y0.7750 
G82 X-1.3000 Y1.0750 
G82 X-1.4000 Y0.7750 
G82 X-1.4000 Y1.0750 
G82 X-1.4000 Y1.4750 
G82 X-1.5000 Y1.5750 
G82 X-1.6000 Y1.4750 
G82 X-1.6500 Y0.8000 
G82 X-1.6500 Y1.0000 
G82 X-1.9500 Y1.1000 
G82 X-1.9500 Y1.2000 
G82 X-2.2000 Y0.4750 
G82 X-2.2000 Y0.5750 
G82 X-2.2500 Y0.9500 
G82 X-2.2500 Y1.2500 
G82 X-2.2500 Y1.4250 
G82 X-2.3500 Y0.9500 
G82 X-2.3500 Y1.2500 
G82 X-2.3500 Y1.4250 
G82 X-2.4500 Y0.9500 
G82 X-2.4500 Y1.2500 
G82 X-2.5500 Y0.9500 
G82 X-2.5500 Y1.2500 
M05
G00 X0.0000 Y0.0000 Z1.0000 
M06 T02  ; 0.0360 
G00 Z0.0200 
M03
G04 P3.000000
G82 X-2.0500 Y0.4250 Z-0.1200 F5.00  R0.0200 P0.500000
G82 X-2.0500 Y0.7250 
M05
G00 X0.0000 Y0.0000 Z1.0000 
M06 T03  ; 0.0400 
G00 Z0.0200 
M03
G04 P3.000000
G82 X-0.9000 Y0.3000 Z-0.1200 F5.00  R0.0200 P0.500000
G82 X-1.0000 Y1.7250 
G82 X-1.0500 Y1.2250 
G82 X-1.5000 Y0.3000 
G82 X-1.6000 Y1.7250 
G82 X-1.6500 Y1.2250 
G82 X-1.9000 Y0.1250 
G82 X-1.9000 Y0.7250 
G82 X-2.3500 Y0.1250 
G82 X-2.3500 Y0.7250 
G82 X-2.5500 Y0.1250 
G82 X-2.5500 Y0.7250 
M05
G00 X0.0000 Y0.0000 Z1.0000 
M06 T04  ; 0.0550 
G00 Z0.0200 
M03
G04 P3.000000
G82 X-0.6000 Y1.4516 Z-0.1200 F5.00  R0.0200 P0.500000
G82 X-0.6000 Y1.6484 
G82 X-0.6500 Y0.3266 
G82 X-0.6500 Y0.5234 
G82 X-1.8016 Y1.6500 
G82 X-1.9984 Y1.6500 
M05
G00 X0.0000 Y0.0000 Z1.0000 
M06 T05  ; 0.1102 
G00 Z0.0200 
M03
G04 P3.000000
G82 X-1.5500 Y0.6000 Z-0.1200 F5.00  R0.0200 P0.500000
M05
G00 X0.0000 Y0.0000 Z1.0000 
M06 T06  ; 0.1260 
G00 Z0.0200 
M03
G04 P3.000000
G82 X-0.3500 Y0.8000 Z-0.1200 F5.00  R0.0200 P0.500000
G82 X-2.1000 Y0.2000 
G82 X-2.5000 Y1.8250 
(File Footer)
T01 
G00 Z0.1000 
M05
M02
